/* XPM */
static char * kide256_xpm[] = {
"256 256 200 2",
"aa c #F1A12F",
"ab c #F0A02E",
"ac c #EFA02E",
"ad c #ED9F2E",
"ae c #EB9D2D",
"af c #E59A2E",
"ag c #E3982E",
"ah c #E2982E",
"ai c #E1982F",
"aj c #E1972E",
"ak c #E0972E",
"al c #DF972F",
"am c #E0962E",
"an c #DF962E",
"ao c #CA9750",
"ap c #97A2B5",
"aq c #96A1B5",
"ar c #94A1B8",
"as c #94A1B4",
"at c #92A1B6",
"au c #919EB2",
"av c #929DB1",
"aw c #919DB0",
"ax c #929AAA",
"ay c #8DA1AE",
"az c #909DB0",
"aA c #8F9BAF",
"aB c #8D9AAF",
"aC c #8E99AC",
"aD c #8D99AC",
"aE c #8C97A9",
"aF c #8A96A9",
"aG c #8C95AA",
"aH c #8A95A7",
"aI c #8D95A2",
"aJ c #8996A6",
"aK c #8995A8",
"aL c #8995A7",
"aM c #6E9B98",
"aN c #41B07C",
"aO c #41AF7B",
"aP c #40AE7A",
"aQ c #40AC79",
"aR c #3FA978",
"aS c #3EA777",
"aT c #3EA676",
"aU c #3EA576",
"aV c #3EA575",
"aW c #3EA375",
"aX c #3CA875",
"aY c #3DA475",
"aZ c #3DA274",
"a0 c #3A996F",
"a1 c #CE8C2E",
"a2 c #939195",
"a3 c #8893A7",
"a4 c #8893A5",
"a5 c #8794A8",
"a6 c #8792A4",
"a7 c #8691A3",
"a8 c #7A91B9",
"a9 c #568CF0",
"a# c #568BEF",
"a. c #5887DD",
"a+ c #558AEC",
"a@ c #5488E9",
"a* c #5386E5",
"a= c #5287EA",
"a- c #5284E3",
"a; c #5284E2",
"a: c #5284E1",
"a> c #AC782E",
"a, c #798190",
"a< c #778394",
"a1 c #6E7E9C",
"a2 c #5283E0",
"a3 c #697489",
"a4 c #746553",
"a5 c #596171",
"a6 c #586070",
"a7 c #585F70",
"a8 c #585F6F",
"a9 c #566174",
"a0 c #6B5436",
"ba c #5185E7",
"bb c #5183E0",
"bc c #5183DF",
"bd c #5182DF",
"be c #3D8981",
"bf c #4D7BD3",
"bg c #3A7880",
"bh c #4469B1",
"bi c #2F6A55",
"bj c #4A525F",
"bk c #495260",
"bl c #49525F",
"bm c #454C5B",
"bn c #444B5A",
"bo c #434A58",
"bp c #3B5892",
"bq c #384763",
"br c #17584E",
"bs c #284A45",
"bt c #433F3C",
"bu c #323C50",
"bv c #32343A",
"bw c #283B4D",
"bx c #273041",
"by c #2A2D36",
"bz c #242A37",
"bA c #23262F",
"bB c #222630",
"bC c #22262F",
"bD c #003F3F",
"bE c #202A34",
"bF c #212632",
"bG c #202633",
"bH c #202631",
"bI c #202630",
"bJ c #1F2631",
"bK c #1D2630",
"bL c #212532",
"bM c #202533",
"bN c #202532",
"bO c #212530",
"bP c #202531",
"bQ c #202530",
"bR c #20252F",
"bS c #1F2532",
"bT c #1F2531",
"bU c #1F2530",
"bV c #1F252F",
"bW c #1F252E",
"bX c #1E2531",
"bY c #1E252F",
"bZ c #232432",
"b0 c #202432",
"b1 c #202431",
"b2 c #202430",
"b3 c #20242F",
"b4 c #1F2432",
"b5 c #1F2431",
"b6 c #1F2430",
"b7 c #1F242F",
"b8 c #1F242D",
"b9 c #1E2431",
"b# c #1E2430",
"b. c #1E242F",
"b+ c #1E242E",
"b@ c #1C242F",
"b* c #202330",
"b= c #20232F",
"b- c #1F2331",
"b; c #1F2330",
"b: c #1F232F",
"b> c #1F232E",
"b, c #1E2331",
"b< c #1E2330",
"b1 c #1E232F",
"b2 c #1E232E",
"b3 c #1D232F",
"b4 c #21222F",
"b5 c #1F2230",
"b6 c #1E222F",
"b7 c #1D212E",
"b8 c #1F202F",
"b9 c #1E1E2D",
"b0 c #1B2130",
"ca c #1C212D",
"cb c #1C212C",
"cc c #1B202C",
"cd c #1C212A",
"ce c #1C1F28",
"cf c #1B1E2B",
"cg c #1A1E2A",
"ch c #1B1E25",
"ci c #20192D",
"cj c #1C1A2C",
"ck c #1B1C23",
"cl c #1B1829",
"cm c #1A1C23",
"cn c #191F2D",
"co c #191D2A",
"cp c #191D29",
"cq c #191D28",
"cr c #181F2D",
"cs c #181D28",
"ct c #141E30",
"cu c #191C28",
"cv c #181C28",
"cw c #181C27",
"cx c #161C29",
"cy c #141A30",
"cz c #0E1930",
"cA c #171528",
"cB c #0C192F",
"cC c #00007F",
"cD c #000055",
"cE c #00003F",
"cF c #000000",
"cFcFcFcFcFcFcFcFcFcFcFcFcFcFcFcFcFcFcFcFcFcFcFcFcFcFcFcFcFcFcFcFcFcFcFcFcFcFcFcFcFcFcFcFcFcFcFcFcFcFcFcFcFcFcFcFcFcFcFcFcFcFcFcFcFcFcFcFcFcFcFcFcFcFcFcFcFcFcFcFcFcFcFcFcFcFcFcFcFcFcFcFcFcFcFcFcFcFcFcFcFcFcFcFcFcFcFcFcFcFcFcFcFcFcFcFcFcFcFcFcFcFcFcFcFcFcFcFcFcFcFcFcFcFcFcFcFcFcFcFcFcFcFcFcFcFcFcFcFcFcFcFcFcFcFcFcFcFcFcFcFcFcFcFcFcFcFcFcFcFcFcFcFcFcFcFcFcFcFcFcFcFcFcFcFcFcFcFcFcFcFcFcFcFcFcFcFcFcFcFcFcFcFcFcFcFcFcFcFcFcFcFcFcFcFcFcFcFcFcFcFcFcFcFcFcFcFcFcFcFcFcFcFcFcFcFcFcFcFcFcFcFcFcFcFcFcFcFcFcFcFcFcFcFcFcF",
"cFcFcFcFcFcFcFcFcFcFcFcFcFcFcFcFcFcFcFcFcFcFcFcFcFcFcFcFcFcFcFcFcFcFcFcFcFcFcFcFcFcFcFcFcFcFcFcFcFcFcFcFcFcFcFcFcFcFcFcFcFcFcFcFcFcFcFcFcFcFcFcFcFcFcFcFcFcFcFcFcFcFcFcFcFcFcFcFcFcFcFcFcFcFcFcFcFcFcFcFcFcFcFcFcFcFcFcFcFcFcFcFcFcFcFcFcFcFcFcFcFcFcFcFcFcFcFcFcFcFcFcFcFcFcFcFcFcFcFcFcFcFcFcFcFcFcFcFcFcFcFcFcFcFcFcFcFcFcFcFcFcFcFcFcFcFcFcFcFcFcFcFcFcFcFcFcFcFcFcFcFcFcFcFcFcFcFcFcFcFcFcFcFcFcFcFcFcFcFcFcFcFcFcFcFcFcFcFcFcFcFcFcFcFcFcFcFcFcFcFcFcFcFcFcFcFcFcFcFcFcFcFcFcFcFcFcFcFcFcFcFcFcFcFcFcFcFcFcFcFcFcFcFcFcFcF",
"cFcFcFcFcFcFcFcFcFcFcFcFcFcFcFcFcFcFcFcFcFcFcFcFcFcFcFcFcFcFcFcFcFcFcFcFcFcFcFcFcFcFcFcFcFcFcFcFcFcFcFcFcFcFcFcFcFcFcFcFcFcFcFcFcFcFcFcFcFcFcFcFcFcFcFcFcFcFcFcFcFcFcFcFcFcFcFcFcFcFcFcFcFcFcFcFcFcFcFcFcFcFcFcFcFcFcFcFcFcFcFcFcFcFcFcFcFcFcFcFcFcFcFcFcFcFcFcFcFcFcFcFcFcFcFcFcFcFcFcFcFcFcFcFcFcFcFcFcFcFcFcFcFcFcFcFcFcFcFcFcFcFcFcFcFcFcFcFcFcFcFcFcFcFcFcFcFcFcFcFcFcFcFcFcFcFcFcFcFcFcFcFcFcFcFcFcFcFcFcFcFcFcFcFcFcFcFcFcFcFcFcFcFcFcFcFcFcFcFcFcFcFcFcFcFcFcFcFcFcFcFcFcFcFcFcFcFcFcFcFcFcFcFcFcFcFcFcFcFcFcFcFcFcFcFcF",
"cFcFcFcFcFcFcFcFcFcFcFcFcFcFcFcFcFcFcFcFcFcFcFcFcFcFcFcFcFcFcFcFcFcFcFcFcFcFcFcFcFcFcFcFcFcFcFcFcFcFcFcFcFcFcFcFcFcFcFcFcFcFcFcFcFcFcFcFcFcFcFcFcFcFcFcFcFcFcFcFcFcFcFcFcFcFcFcFcFcFcFcFcFcFcFcFcFcFcFcFcFcFcFcFcFcFcFcFcFcFcFcFcFcFcFcFcFcFcFcFcFcFcFcFcFcFcFcFcFcFcFcFcFcFcFcFcFcFcFcFcFcFcFcFcFcFcFcFcFcFcFcFcFcFcFcFcFcFcFcFcFcFcFcFcFcFcFcFcFcFcFcFcFcFcFcFcFcFcFcFcFcFcFcFcFcFcFcFcFcFcFcFcFcFcFcFcFcFcFcFcFcFcFcFcFcFcFcFcFcFcFcFcFcFcFcFcFcFcFcFcFcFcFcFcFcFcFcFcFcFcFcFcFcFcFcFcFcFcFcFcFcFcFcFcFcFcFcFcFcFcFcFcFcFcFcF",
"cFcFcFcFcFcFcFcFcFcFcFcFcFcFcFcFcFcFcFcFcFcFcFcFcFcFcFcFcFcFcFcFcFcFcFcFcFcFcFcFcFcFcFcFcFcFcFcFcFcFcFcFcFcFcFcFcFcFcFcFcFcFcFcFcFcFcFcFcFcFcFcFcFcFcFcFcFcFcFcFcFcFcFcFcFcFcFcFcFcFcFcFcFcFcFcFcFcFcFcFcFcFcFcFcFcFcFcFcFcFcFcFcFcFcFcFcFcFcFcFcFcFcFcFcFcFcFcFcFcFcFcFcFcFcFcFcFcFcFcFcFcFcFcFcFcFcFcFcFcFcFcFcFcFcFcFcFcFcFcFcFcFcFcFcFcFcFcFcFcFcFcFcFcFcFcFcFcFcFcFcFcFcFcFcFcFcFcFcFcFcFcFcFcFcFcFcFcFcFcFcFcFcFcFcFcFcFcFcFcFcFcFcFcFcFcFcFcFcFcFcFcFcFcFcFcFcFcFcFcFcFcFcFcFcFcFcFcFcFcFcFcFcFcFcFcFcFcFcFcFcFcFcFcFcFcF",
"cFcFcFcFcFcFcFcFcFcFcFcFcFcFcFcFcFcFcFcFcFcFcFcFcFcFcFcFcFcFcFcFcFcFcFcFcFcFcFcFcFcFcFcFcFcFcFcFcFcFcFcFcFcFcFcFcFcFcFcFcFcFcFcFcFcFcFcFcFcFcFcFcFcFcFcFcFcFcFcFcFcFcFcFcFcFcFcFcFcFcFcFcFcFcFcFcFcFcFcFcFcFcFcFcFcFcFcFcFcFcFcFcFcFcFcFcFcFcFcFcFcFcFcFcFcFcFcFcFcFcFcFcFcFcFcFcFcFcFcFcFcFcFcFcFcFcFcFcFcFcFcFcFcFcFcFcFcFcFcFcFcFcFcFcFcFcFcFcFcFcFcFcFcFcFcFcFcFcFcFcFcFcFcFcFcFcFcFcFcFcFcFcFcFcFcFcFcFcFcFcFcFcFcFcFcFcFcFcFcFcFcFcFcFcFcFcFcFcFcFcFcFcFcFcFcFcFcFcFcFcFcFcFcFcFcFcFcFcFcFcFcFcFcFcFcFcFcFcFcFcFcFcFcFcFcF",
"cFcFcFcFcFcFcFcFcFcFcFcFcFcFcFcFcFcFcFcFcFcFcFcFcFcFcFcFcFcFcFcFcFcFcFcFcFcFcFcFcFcFcFcFcFcFcFcFcFcFcFcFcFcFcFcFcFcFcFcFcFcFcFcFcFcFcFcFcFcFcFcFcFcFcFcFcFcFcFcFcFcFcFcFcFcFcFcFcFcFcFcFcFcFcFcFcFcFcFcFcFcFcFcFcFcFcFcFcFcFcFcFcFcFcFcFcFcFcFcFcFcFcFcFcFcFcFcFcFcFcFcFcFcFcFcFcFcFcFcFcFcFcFcFcFcFcFcFcFcFcFcFcFcFcFcFcFcFcFcFcFcFcFcFcFcFcFcFcFcFcFcFcFcFcFcFcFcFcFcFcFcFcFcFcFcFcFcFcFcFcFcFcFcFcFcFcFcFcFcFcFcFcFcFcFcFcFcFcFcFcFcFcFcFcFcFcFcFcFcFcFcFcFcFcFcFcFcFcFcFcFcFcFcFcFcFcFcFcFcFcFcFcFcFcFcFcFcFcFcFcFcFcFcFcFcF",
"cFcFcFcFcFcFcFcFcFcFcFcFcFcFcFcFcFcFcFcFcFcFcFcFcFcFcFcFcFcFcFcFcFcFcFcFcFcFcFcFcFcFcFcFcFcFcFcFcFcFcFcFcFcFcFcFcFcFcFcFcFcFcFcFcFcFcFcFcFcFcFcFcFcFcFcFcFcFcFcFcFcFcFcFcFcFcFcFcFcFcFcFcFcFcFcFcFcFcFcFcFcFcFcFcFcFcFcFcFcFcFcFcFcFcFcFcFcFcFcFcFcFcFcFcFcFcFcFcFcFcFcFcFcFcFcFcFcFcFcFcFcFcFcFcFcFcFcFcFcFcFcFcFcFcFcFcFcFcFcFcFcFcFcFcFcFcFcFcFcFcFcFcFcFcFcFcFcFcFcFcFcFcFcFcFcFcFcFcFcFcFcFcFcFcFcFcFcFcFcFcFcFcFcFcFcFcFcFcFcFcFcFcFcFcFcFcFcFcFcFcFcFcFcFcFcFcFcFcFcFcFcFcFcFcFcFcFcFcFcFcFcFcFcFcFcFcFcFcFcFcFcFcFcFcFcF",
"cFcFcFcFcFcFcFcFcFcFcFcFcFcFcFcFcFcFcFcFcFcFcFcFcFcFcFcFcFcFcFcFcFcFcFcFcFcFcFcFcFcFcFcFcFcFcFcFcFcFcFcFcFcFcFcFcFcFcFcDbDbtbDcEcFcFcFcFcFcFcFcFcFcFcFcFcFcFcFcFcFcFcFcFcFcFcFcFcFcFcFcFcFcFcFcFcFcFcFcFcFcFcFcFcFcFcFcFcFcFcFcFcFcFcFcFcFcFcFcFcFcFcFcFcFcFcFcFcFcFcFcFcFcFcFcFcFcFcFcFcFcFcFcFcFcFcFcFcFcFcFcFcFcFcFcFcFcFcFcFcFcFcFcFcFcFcFcFcFcFcFcFcFcFcFcFcFcFcFcFcFcFcFcFcFcFcFcFcFcFcFcFcDbDbtbDbDcFcFcFcFcFcFcFcFcFcFcFcFcFcFcFcFcFcFcFcFcFcFcFcFcFcFcFcFcFcFcFcFcFcFcFcFcFcFcFcFcFcFcFcFcFcFcFcFcFcFcFcFcFcFcFcFcFcFcF",
"cFcFcFcFcFcFcFcFcFcFcFcFcFcFcFcFcFcFcFcFcFcFcFcFcFcFcFcFcFcFcFcFcFcFcFcFcFcFcFcFcFcFcFcFcFcFcFcFcFcFcFcFcFcDbtcDcFcFcFcFcFcFcFcFcFcFcFcFcFcFcFcFcFcFcFcFcFcFcFcFcFcFcFcFcFcFcFcFcFcFcFcFcFcFcFcFcFcFcFcFcFcFcFcFcFcFcFcFcFcFcFcFcFcFcFcFcFcFcFcFcFcFcFcFcFcFcFcFcFcFcFcFcFcFcFcFcFcFcFcFcFcFcFcFcFcFcFcFcFcFcFcFcFcFcFcFcFcFcFcFcFcFcFcFcFcFcFcFcFcFcFcFcFcFcFcFcFcFcFcFcFcFcFcFcFcFcFcFcFcFcFcFcFcFcFcFcFcFcFcFcDbtcDcFcFcFcFcFcFcFcFcFcFcFcFcFcFcFcFcFcFcFcFcFcFcFcFcFcFcFcFcFcFcFcFcFcFcFcFcFcFcFcFcFcFcFcFcFcFcFcFcFcFcFcFcF",
"cFcFcFcFcFcFcFcFcFcFcFcFcFcFcFcFcFcFcFcFcFcFcFcFcFcFcFcFcFcFcFcFcFcFcFcFcFcFcFcFcFcFcFcFcFcFcFcFcFcFbDcFcFcFcFcFcFb4b8bVb6b:b7b7b7b7b7b7b7b7b7b7b7b7b7b7b7b7b7b7b7b7b7b7b7b7b7b7b7b7b7b7b7b7b7b7b7b7b7b7b7b7b7b7b7b7b7b7b7b7b7b7b7b7b7b7b7b7b7b7b7b7b7b7b7b7b7b7b7b7b7b7b7b7b7b7b7b7b7b7b7b7b7b7b7b7b7b7b7b7b7b7b7b7b7b7b7b7b7b7b7b7b7b7b7b7b7b7b7b7b7b7b7b7b7b7b7b7b7b7b7b7b7b7b7b7b7b7b7b7b7b7b1b1b6bQb#bIbKcFcFcFcFcFcFbDcFcFcFcFcFcFcFcFcFcFcFcFcFcFcFcFcFcFcFcFcFcFcFcFcFcFcFcFcFcFcFcFcFcFcFcFcFcFcFcFcFcFcFcFcFcFcFcFcFcF",
"cFcFcFcFcFcFcFcFcFcFcFcFcFcFcFcFcFcFcFcFcFcFcFcFcFcFcFcFcFcFcFcFcFcFcFcFcFcFcFcFcFcFcFcFcFcFcFbDcFcFcFcFbZb7b2b;b6b;b2bLbFbFbFbLbLbLbLbLbLbLbLbLbLbLbLbLbLbLbLbLbLbLbLbLbLbLbLbLbLbLbLbLbLbLbLbLbLbLbLbLbLbLbLbLbLbLbLbLbLbLbLbLbLbLbLbLbLbLbLbLbLbLbLbLbLbLbLbLbLbLbLbLbLbLbLbLbLbLbLbLbLbLbLbLbLbLbLbLbLbLbLbLbLbLbLbLbLbLbLbLbLbLbLbLbLbLbLbLbLbLbLbLbLbLbLbLbLbLbLbLbLbLbLbLbLbLbLbLbLbLbLbObLbLbFbFbLb2b7b6b6b4b,bKcFcFcFcFbDcFcFcFcFcFcFcFcFcFcFcFcFcFcFcFcFcFcFcFcFcFcFcFcFcFcFcFcFcFcFcFcFcFcFcFcFcFcFcFcFcFcFcFcFcFcFcF",
"cFcFcFcFcFcFcFcFcFcFcFcFcFcFcFcFcFcFcFcFcFcFcFcFcFcFcFcFcFcFcFcFcFcFcFcFcFcFcFcFcFcFcFcFcDcDcFcFcFb4b6b*b=b2bLbLb1b;b:b:b1b1b=b=b:b:b:b:b:b:b:b:b:b:b:b:b:b:b:b:b:b:b:b:b:b:b:b:b:b:b:b:b:b:b:b:b:b:b:b:b:b:b:b:b:b:b:b:b:b:b:b:b:b:b:b:b:b:b:b:b:b:b:b:b:b:b:b:b:b:b:b:b:b:b:b:b:b:b:b:b:b:b:b:b:b:b:b:b:b:b:b:b:b:b:b:b:b:b:b:b:b:b:b:b:b:b:b:b:b:b:b:b:b:b:b:b:b:b:b:b:b:b:b:b:b:b:b:b:b:b:b:b=b=b1b1b:b:b:b1bLbFb1b6b3b-b4cFcFcFcFcDcFcFcFcFcFcFcFcFcFcFcFcFcFcFcFcFcFcFcFcFcFcFcFcFcFcFcFcFcFcFcFcFcFcFcFcFcFcFcFcFcFcFcFcF",
"cFcFcFcFcFcFcFcFcFcFcFcFcFcFcFcFcFcFcFcFcFcFcFcFcFcFcFcFcFcFcFcFcFcFcFcFcFcFcFcFcFcFcDcFcFcFcbb*b2b3bLbLb2b:b=b:b;b:b:b:b:b:b:b:b:b:b:b:b:b:b:b:b:b:b:b:b:b:b:b:b:b:b:b:b:b:b:b:b:b:b:b:b:b:b:b:b:b:b:b:b:b:b:b:b:b:b:b:b:b:b:b:b:b:b:b:b:b:b:b:b:b:b:b:b:b:b:b:b:b:b:b:b:b:b:b:b:b:b:b:b:b:b:b:b:b:b:b:b:b:b:b:b:b:b:b:b:b:b:b:b:b:b:b:b:b:b:b:b:b:b:b:b:b:b:b:b:b:b:b:b:b:b:b:b:b:b:b:b:b:b:b:b:b:b:b:b:b:b:b;b:b=b;b2bObLb:b*b1bZcFcFcFbDcFcFcFcFcFcFcFcFcFcFcFcFcFcFcFcFcFcFcFcFcFcFcFcFcFcFcFcFcFcFcFcFcFcFcFcFcFcFcFcFcFcF",
"cFcFcFcFcFcFcFcFcFcFcFcFcFcFcFcFcFcFcFcFcFcFcFcFcFcFcFcFcFcFcFcFcFcFcFcFcFcFcFcFcDcFcFcFb,b6b2bLbPb:b1b1b;b:b:b:b:b:b:b:b:b:b:b:b:b:b:b:b:b:b:b:b:b:b:b:b:b:b:b:b:b:b:b:b:b:b:b:b:b:b:b:b:b:b:b:b:b:b:b:b:b:b:b:b:b:b:b:b:b:b:b:b:b:b:b:b:b:b:b:b:b:b:b:b:b:b:b:b:b:b:b:b:b:b:b:b:b:b:b:b:b:b:b:b:b:b:b:b:b:b:b:b:b:b:b:b:b:b:b:b:b:b:b:b:b:b:b:b:b:b:b:b:b:b:b:b:b:b:b:b:b:b:b:b:b:b:b:b:b:b:b:b:b:b:b:b:b:b:b:b:b:b:b:b1b1b:bPbLb;b2b9cEcFcFcDcFcFcFcFcFcFcFcFcFcFcFcFcFcFcFcFcFcFcFcFcFcFcFcFcFcFcFcFcFcFcFcFcFcFcFcFcFcFcFcF",
"cFcFcFcFcFcFcFcFcFcFcFcFcFcFcFcFcFcFcFcFcFcFcFcFcFcFcFcFcFcFcFcFcFcFcFcFcFcFcDcFcFbAb6b6bTbNb1b1b.b<b1b1b1b1b1b1b1b1b1b1b1b1b1b1b1b1b1b1b1b1b1b1b1b1b1b1b1b1b1b1b1b1b1b1b1b1b1b1b1b1b1b1b1b1b1b1b1b1b1b1b1b1b1b1b1b1b1b1b1b1b1b1b1b1b1b1b1b1b1b1b1b1b1b1b1b1b1b1b1b1b1b1b1b1b1b1b1b1b1b1b1b1b1b1b1b1b1b1b1b1b1b1b1b1b1b1b1b1b1b1b1b1b1b1b1b1b1b1b1b1b1b1b1b1b1b1b1b1b1b1b1b1b1b1b1b1b1b1b1b1b1b1b1b1b1b1b1b1b1b1b1b1b1b1b1b1b<b<b1b1bNbPb,bXcscFcFcDcFcFcFcFcFcFcFcFcFcFcFcFcFcFcFcFcFcFcFcFcFcFcFcFcFcFcFcFcFcFcFcFcFcFcFcFcFcF",
"cFcFcFcFcFcFcFcFcFcFcFcFcFcFcFcFcFcFcFcFcFcFcFcFcFcFcFcFcFcFcFcFcFcFcFcFcFcDcFcFb9b6bNb5b<b1b<b1b1b1b1b1b1b1b1b1b1b1b1b1b1b1b1b1b1b1b1b1b1b1b1b1b1b1b1b1b1b1b1b1b1b1b1b1b1b1b1b1b1b1b1b1b1b1b1b1b1b1b1b1b1b1b1b1b1b1b1b1b1b1b1b1b1b1b1b1b1b1b1b1b1b1b1b1b1b1b1b1b1b1b1b1b1b1b1b1b1b1b1b1b1b1b1b1b1b1b1b1b1b1b1b1b1b1b1b1b1b1b1b1b1b1b1b1b1b1b1b1b1b1b1b1b1b1b1b1b1b1b1b1b1b1b1b1b1b1b1b1b1b1b1b1b1b1b1b1b1b1b1b1b1b1b1b1b1b1b1b1b1b<b.b1b5bGb;b,bvcFcFcFcFcFcFcFcFcFcFcFcFcFcFcFcFcFcFcFcFcFcFcFcFcFcFcFcFcFcFcFcFcFcFcFcFcFcFcF",
"cFcFcFcFcFcFcFcFcFcFcFcFcFcFcFcFcFcFcFcFcFcFcFcFcFcFcFcFcFcFcFcFcFcFcFcDcFcFb#b5bNb5b1b<b1b1b1b1b1b1b1b1b1b1b1b1b1b1b1b1b1b1b1b1b1b1b1b1b1b1b1b1b1b1b1b1b1b1b1b1b1b1b1b1b1b1b1b1b1b1b1b1b1b1b1b1b1b1b1b1b1b1b1b1b1b1b1b1b1b1b1b1b1b1b1b1b1b1b1b1b1b1b1b1b1b1b1b1b1b1b1b1b1b1b1b1b1b1b1b1b1b1b1b1b1b1b1b1b1b1b1b1b1b1b1b1b1b1b1b1b1b1b1b1b1b1b1b1b1b1b1b1b1b1b1b1b1b1b1b1b1b1b1b1b1b1b1b1b1b1b1b1b1b1b1b1b1b1b1b1b1b1b1b1b1b1b1b1b1b1b1b1b<b:b6bNb6b#cFcFbDcFcFcFcFcFcFcFcFcFcFcFcFcFcFcFcFcFcFcFcFcFcFcFcFcFcFcFcFcFcFcFcFcFcFcF",
"cFcFcFcFcFcFcFcFcFcFcFcFcFcFcFcFcFcFcFcFcFcFcFcFcFcFcFcFcFcFcFcFcFcFcCcFbZb;b5bTb:b#b<b<b<b<b<b<b<b<b<b<b<b<b<b<b<b<b<b<b<b<b<b<b<b<b<b<b<b<b<b<b<b<b<b<b<b<b<b<b<b<b<b<b<b<b<b<b<b<b<b<b<b<b<b<b<b<b<b<b<b<b<b<b<b<b<b<b<b<b<b<b<b<b<b<b<b<b<b<b<b<b<b<b<b<b<b<b<b<b<b<b<b<b<b<b<b<b<b<b<b<b<b<b<b<b<b<b<b<b<b<b<b<b<b<b<b<b<b<b<b<b<b<b<b<b<b<b<b<b<b<b<b<b<b<b<b<b<b<b<b<b<b<b<b<b<b<b<b<b<b<b<b<b<b<b<b<b<b<b<b<b<b<b<b<b<b<b<b<b<b<b<b<b<b:b5bNb5cacFcFcFcFcFcFcFcFcFcFcFcFcFcFcFcFcFcFcFcFcFcFcFcFcFcFcFcFcFcFcFcFcFcFcFcF",
"cFcFcFcFcFcFcFcFcFcFcFcFcFcFcFcFcFcFcFcFcFcFcFcFcFcFcFcFcFcFcFcFcDcFcFbVb5bNb#b7b<b<b<b<b<b<b<b<b<b<b<b<b<b<b<b<b<b<b<b<b<b<b<b<b<b<b<b<b<b<b<b<b<b<b<b<b<b<b<b<b<b<b<b<b<b<b<b<b<b<b<b<b<b<b<b<b<b<b<b<b<b<b<b<b<b<b<b<b<b<b<b<b<b<b<b<b<b<b<b<b<b<b<b<b<b<b<b<b<b<b<b<b<b<b<b<b<b<b<b<b<b<b<b<b<b<b<b<b<b<b<b<b<b<b<b<b<b<b<b<b<b<b<b<b<b<b<b<b<b<b<b<b<b<b<b<b<b<b<b<b<b<b<b<b<b<b<b<b<b<b<b<b<b<b<b<b<b<b<b<b<b<b<b<b<b<b<b<b<b<b<b<b<b<b<b<b#b7bNb5b<cFcFcEcFcFcFcFcFcFcFcFcFcFcFcFcFcFcFcFcFcFcFcFcFcFcFcFcFcFcFcFcFcFcFcF",
"cFcFcFcFcFcFcFcFcFcFcFcFcFcFcFcFcFcFcFcFcFcFcFcFcFcFcFcFcFcFcFbDcFbKb#bNb6b:b<b<b<b<b<b<b<b<b<b<b<b<b<b<b<b<b<b<b<b<b<b<b<b<b<b<b<b<b<b<b<b<b<b<b<b<b<b<b<b<b<b<b<b<b<b<b<b<b<b<b<b<b<b<b<b<b<b<b<b<b<b<b<b<b<b<b<b<b<b<b<b<b<b<b<b<b<b<b<b<b<b<b<b<b<b<b<b<b<b<b<b<b<b<b<b<b<b<b<b<b<b<b<b<b<b<b<b<b<b<b<b<b<b<b<b<b<b<b<b<b<b<b<b<b<b<b<b<b<b<b<b<b<b<b<b<b<b<b<b<b<b<b<b<b<b<b<b<b<b<b<b<b<b<b<b<b<b<b<b<b<b<b<b<b<b<b<b<b<b<b<b<b<b<b<b<b<b<b<b<b:b1bGb9bGcFbrcFcFcFcFcFcFcFcFcFcFcFcFcFcFcFcFcFcFcFcFcFcFcFcFcFcFcFcFcFcFcF",
"cFcFcFcFcFcFcFcFcFcFcFcFcFcFcFcFcFcFcFcFcFcFcFcFcFcFcFcFcFcFcDcFb@b6bNb:b<b<b<b<b<b<b<b<b<b<b<b<b<b<b<b<b<b<b<b<b<b<b<b<b<b<b<b<b<b<b<b<b<b<b<b<b<b<b<b<b<b<b<b<b<b<b<b<b<b<b<b<b<b<b<b<b<b<b<b<b<b<b<b<b<b<b<b<b<b<b<b<b<b<b<b<b<b<b<b<b<b<b<b<b<b<b<b<b<b<b<b<b<b<b<b<b<b<b<b<b<b<b<b<b<b<b<b<b<b<b<b<b<b<b<b<b<b<b<b<b<b<b<b<b<b<b<b<b<b<b<b<b<b<b<b<b<b<b<b<b<b<b<b<b<b<b<b<b<b<b<b<b<b<b<b<b<b<b<b<b<b<b<b<b<b<b<b<b<b<b<b<b<b<b<b<b<b<b<b<b<b<b<b<b:bNb5b6cFcFcFcFcFcFcFcFcFcFcFcFcFcFcFcFcFcFcFcFcFcFcFcFcFcFcFcFcFcFcFcF",
"cFcFcFcFcFcFcFcFcFcFcFcFcFcFcFcFcFcFcFcFcFcFcFcFcFcFcFcFcFcFcFb9b5b6b;b<b<b<b<b<b<b<b<b<b<b<b<b<b<b<b<b<b<b<b<b<b<b<b<b<b<b<b<b<b<b<b<b<b<b<b<b<b<b<b<b<b<b<b<b<b<b<b<b<b<b<b<b<b<b<b<b<b<b<b<b<b<b<b<b<b<b<b<b<b<b<b<b<b<b<b<b<b<b<b<b<b<b<b<b<b<b<b<b<b<b<b<b<b<b<b<b<b<b<b<b<b<b<b<b<b<b<b<b<b<b<b<b<b<b<b<b<b<b<b<b<b<b<b<b<b<b<b<b<b<b<b<b<b<b<b<b<b<b<b<b<b<b<b<b<b<b<b<b<b<b<b<b<b<b<b<b<b<b<b<b<b<b<b<b<b<b<b<b<b<b<b<b<b<b<b<b<b<b<b<b<b<b<b<b<b<b:b;bNb<cFcFcFcFcFcFcFcFcFcFcFcFcFcFcFcFcFcFcFcFcFcFcFcFcFcFcFcFcFcFcF",
"cFcFcFcFcFcFcFcFcFcFcFcFcFcFcFcFcFcFcFcFcFcFcFcFcFcFcFcFcFckb5bGb#b6b<b<b<b<b<b<b<b<b<b<b<b<b<b<b<b<b<b<b<b<b<b<b<b<b<b<b<b<b<b<b<b<b<b<b<b<b<b<b<b<b<b<b<b<b<b<b<b<b<b<b<b<b<b<b<b<b<b<b<b<b<b<b<b<b<b<b<b<b<b<b<b<b<b<b<b<b<b<b<b<b<b<b<b<b<b<b<b<b<b<b<b<b<b<b<b<b<b<b<b<b<b<b<b<b<b<b<b<b<b<b<b<b<b<b<b<b<b<b<b<b<b<b<b<b<b<b<b<b<b<b<b<b<b<b<b<b<b<b<b<b<b<b<b<b<b<b<b<b<b<b<b<b<b<b<b<b<b<b<b<b<b<b<b<b<b<b<b<b<b<b<b<b<b<b<b<b<b<b<b<b<b<b<b<b<b<b<b<b#b7bGb#cucFcDcFcFcFcFcFcFcFcFcFcFcFcFcFcFcFcFcFcFcFcFcFcFcFcFcFcFcF",
"cFcFcFcFcFcFcFcFcFcFcFcFcFcFcFcFcFcFcFcFcFcFcFcFcFcFcDcFbZb#bGb;b#b<b<b<b<b<b<b<b<b<b<b<b<b<b<b<b<b<b<b<b<b<b<b<b<b<b<b<b<b<b<b<b<b<b<b<b<b<b<b<b<b<b<b<b<b<b<b<b<b<b<b<b<b<b<b<b<b<b<b<b<b<b<b<b<b<b<b<b<b<b<b<b<b<b<b<b<b<b<b<b<b<b<b<b<b<b<b<b<b<b<b<b<b<b<b<b<b<b<b<b<b<b<b<b<b<b<b<b<b<b<b<b<b<b<b<b<b<b<b<b<b<b<b<b<b<b<b<b<b<b<b<b<b<b<b<b<b<b<b<b<b<b<b<b<b<b<b<b<b<b<b<b<b<b<b<b<b<b<b<b<b<b<b<b<b<b<b<b<b<b<b<b<b<b<b<b<b<b<b<b<b<b<b<b<b<b<b<b<b<b<b<b;bNb6b,cFbrcFcFcFcFcFcFcFcFcFcFcFcFcFcFcFcFcFcFcFcFcFcFcFcFcFcF",
"cFcFcFcFcFcFcFcFcFcFcFcFcFcFcFcFcFcFcFcFcFcFcFcFcFcDcFb4b#bNb<b<b<b<b<b<b<b<b<b<b<b<b<b<b<b<b<b<b<b<b<b<b<b<b<b<b<b<b<b<b<b<b<b<b<b<b<b<b<b<b<b<b<b<b<b<b<b<b<b<b<b<b<b<b<b<b<b<b<b<b<b<b<b<b<b<b<b<b<b<b<b<b<b<b<b<b<b<b<b<b<b<b<b<b<b<b<b<b<b<b<b<b<b<b<b<b<b<b<b<b<b<b<b<b<b<b<b<b<b<b<b<b<b<b<b<b<b<b<b<b<b<b<b<b<b<b<b<b<b<b<b<b<b<b<b<b<b<b<b<b<b<b<b<b<b<b<b<b<b<b<b<b<b<b<b<b<b<b<b<b<b<b<b<b<b<b<b<b<b<b<b<b<b<b<b<b<b<b<b<b<b<b<b<b<b<b<b<b<b<b<b<b<b<b<b;bPbUb9cFbDcFcFcFcFcFcFcFcFcFcFcFcFcFcFcFcFcFcFcFcFcFcFcFcFcF",
"cFcFcFcFcFcFcFcFcFcFcFcFcFcFcFcFcFcFcFcFcFcFcFcFcDcFb4b7bQb:b.b.b.b.b.b.b.b.b.b.b.b.b.b.b.b.b.b.b.b.b.b.b.b.b.b.b.b.b.b.b.b.b.b.b.b.b.b.b.b.b.b.b.b.b.b.b.b.b.b.b.b.b.b.b.b.b.b.b.b.b.b.b.b.b.b.b.b.b.b.b.b.b.b.b.b.b.b.b.b.b.b.b.b.b.b.b.b.b.b.b.b.b.b.b.b.b.b.b.b.b.b.b.b.b.b.b.b.b.b.b.b.b.b.b.b.b.b.b.b.b.b.b.b.b.b.b.b.b.b.b.b.b.b.b.b.b.b.b.b.b.b.b.b.b.b.b.b.b.b.b.b.b.b.b.b.b.b.b.b.b.b.b.b.b.b.b.b.b.b.b.b.b.b.b.b.b.b.b.b.b.b.b.b.b.b.b.b.b.b.b.b.b.b.b.b.b:b6bUbWcFcEcFcFcFcFcFcFcFcFcFcFcFcFcFcFcFcFcFcFcFcFcFcFcFcF",
"cFcFcFcFcFcFcFcFcFcFcFcFcFcFcFcFcFcFcFcFcFcFcFcFcFb4b.bPb:b.b.b.b.b.b.b.b.b.b.b.b.b.b.b.b.b.b.b.b.b.b.b.b.b.b.b.b.b.b.b.b.b.b.b.b.b.b.b.b.b.b.b.b.b.b.b.b.b.b.b.b.b.b.b.b.b.b.b.b.b.b.b.b.b.b.b.b.b.b.b.b.b.b.b.b.b.b.b.b.b.b.b.b.b.b.b.b.b.b.b.b.b.b.b.b.b.b.b.b.b.b.b.b.b.b.b.b.b.b.b.b.b.b.b.b.b.b.b.b.b.b.b.b.b.b.b.b.b.b.b.b.b.b.b.b.b.b.b.b.b.b.b.b.b.b.b.b.b.b.b.b.b.b.b.b.b.b.b.b.b.b.b.b.b.b.b.b.b.b.b.b.b.b.b.b.b.b.b.b.b.b.b.b.b.b.b.b.b.b.b.b.b.b.b.b.b.b.b:b6bUb9cFcDcFcFcFcFcFcFcFcFcFcFcFcFcFcFcFcFcFcFcFcFcFcFcF",
"cFcFcFcFcFcFcFcFcFcFcFcFcFcFcFcFcFcFcFcFcFcFcFcFbKb.bPb:b.b.b.b.b.b.b.b.b.b.b.b.b.b.b.b.b.b.b.b.b.b.b.b.b.b.b.b.b.b.b.b.b.b.b.b.b.b.b.b.b.b.b.b.b.b.b.b.b.b.b.b.b.b.b.b.b.b.b.b.b.b.b.b.b.b.b.b.b.b.b.b.b.b.b.b.b.b.b.b.b.b.b.b.b.b.b.b.b.b.b.b.b.b.b.b.b.b.b.b.b.b.b.b.b.b.b.b.b.b.b.b.b.b.b.b.b.b.b.b.b.b.b.b.b.b.b.b.b.b.b.b.b.b.b.b.b.b.b.b.b.b.b.b.b.b.b.b.b.b.b.b.b.b.b.b.b.b.b.b.b.b.b.b.b.b.b.b.b.b.b.b.b.b.b.b.b.b.b.b.b.b.b.b.b.b.b.b.b.b.b.b.b.b.b.b.b.b.b.b.b:b6bUb0cFcDcFcFcFcFcFcFcFcFcFcFcFcFcFcFcFcFcFcFcFcFcFcF",
"cFcFcFcFcFcFcFcFcFcFcFcFcFcFcFcFcFcFcFcFcFcFbrceb#bPb:b.b7b7b7b7b7b7b7b7b7b7b7b7b7b7b7b7b7b7b7b7b7b7b7b7b7b7b7b7b7b7b7b7b7b7b7b7b7b7b7b7b7b7b7b7b7b7b7b7b7b7b7b7b7b7b7b7b7b7b7b7b7b7b7b7b7b7b7b7b7b7b7b7b7b7b7b7b7b7b7b7b7b7b7b7b7b7b7b7b7b7b7b7b7b7b7b7b7b7b7b7b7b7b7b7b7b7b7b7b7b7b7b7b7b7b7b7b7b7b7b7b7b7b7b7b7b7b7b7b7b7b7b7b7b7b7b7b7b7b7b7b7b7b7b7b7b7b7b7b7b7b7b7b7b7b7b7b7b7b7b7b7b7b7b7b7b7b7b7b7b7b7b7b7b7b7b7b7b7b7b7b7b7b7b7b7b7b7b7b7b7b7b7b7b7b7b7b7b7b7b7b.b:bQb6bKcFcFcFcFcFcFcFcFcFcFcFcFcFcFcFcFcFcFcFcFcFcFcF",
"cFcFcFcFcFcFcFcFcFcFcFcFcFcFcFcFcFcFcFcFcFbDcFb.bGb:b7b7b7b7b7b7b7b7b7b7b7b7b7b7b7b7b7b7b7b7b7b7b7b7b7b7b7b7b7b7b7b7b7b7b7b7b7b7b7b7b7b7b7b7b7b7b7b7b7b7b7b7b7b7b7b7b7b7b7b7b7b7b7b7b7b7b7b7b7b7b7b7b7b7b7b7b7b7b7b7b7b7b7b7b7b7b7b7b7b7b7b7b7b7b7b7b7b7b7b7b7b7b7b7b7b7b7b7b7b7b7b7b7b7b7b7b7b7b7b7b7b7b7b7b7b7b7b7b7b7b7b7b7b7b7b7b7b7b7b7b7b7b7b7b7b7b7b7b7b7b7b7b7b7b7b7b7b7b7b7b7b7b7b7b7b7b7b7b7b7b7b7b7b7b7b7b7b7b7b7b7b7b7b7b7b7b7b7b7b7b7b7b7b7b7b7b7b7b7b7b7b7b7b7b:bPb7cDbrcFcFcFcFcFcFcFcFcFcFcFcFcFcFcFcFcFcFcFcFcF",
"cFcFcFcFcFcFcFcFcFcFcFcFcFcFcFcFcFcFcFcFbDcFb<bGb:b7b7b7b7b7b7b7b7b7b7b7b7b7b7b7b7b7b7b7b7b7b7b7b7b7b7b7b7b7b7b7b7b7b7b7b7b7b7b7b7b7b7b7b7b7b7b7b7b7b7b7b7b7b7b7b7b7b7b7b7b7b7b7b7b7b7b7b7b7b7b7b7b7b7b7b7b7b7b7b7b7b7b7b7b7b7b7b7b7b7b7b7b7b7b7b7b7b7b7b7b7b7b7b7b7b7b7b7b7b7b7b7b7b7b7b7b7b7b7b7b7b7b7b7b7b7b7b7b7b7b7b7b7b7b7b7b7b7b7b7b7b7b7b7b7b7b7b7b7b7b7b7b7b7b7b7b7b7b7b7b7b7b7b7b7b7b7b7b7b7b7b7b7b7b7b7b7b7b7b7b7b7b7b7b7b7b7b7b7b7b7b7b7b7b7b7b7b7b7b7b7b7b7b7b7b7b1bGb7cFbDcFcFcFcFcFcFcFcFcFcFcFcFcFcFcFcFcFcFcFcF",
"cFcFcFcFcFcFcFcFcFcFcFcFcFcFcFcFcFcFcFcDcFb:b6b6b7b7b7b7b7b7b7b7b7b7b7b7b7b7b7b7b7b7b7b7b7b7b7b7b7b7b7b7b7b7b7b7b7b7b7b7b7b7b7b7b7b7b7b7b7b7b7b7b7b7b7b7b7b7b7b7b7b7b7b7b7b7b7b7b7b7b7b7b7b7b7b7b7b7b7b7b7b7b7b7b7b7b7b7b7b7b7b7b7b7b7b7b7b7b7b7b7b7b7b7b7b7b7b7b7b7b7b7b7b7b7b7b7b7b7b7b7b7b7b7b7b7b7b7b7b7b7b7b7b7b7b7b7b7b7b7b7b7b7b7b7b7b7b7b7b7b7b7b7b7b7b7b7b7b7b7b7b7b7b7b7b7b7b7b7b7b7b7b7b7b7b7b7b7b7b7b7b7b7b7b7b7b7b7b7b7b7b7b7b7b7b7b7b7b7b7b7b7b7b7b7b7b7b7b7b7b7b7b:bHb2cFbrcFcFcFcFcFcFcFcFcFcFcFcFcFcFcFcFcFcFcF",
"cFcFcFcFcFcFcFcFcFcFcFcFcFcFcFcFcFcFcFcFb4b6b6b6b7b7b7b7b7b7b7b7b7b7b7b7b7b7b7b7b7b7b7b7b7b7b7b7b7b7b7b7b7b7b7b7b7b7b7b7b7b7b7b7b7b7b7b7b7b7b7b7b7b7b7b7b7b7b7b7b7b7b7b7b7b7b7b7b7b7b7b7b7b7b7b7b7b7b7b7b7b7b7b7b7b7b7b7b7b7b7b7b7b7b7b7b7b7b7b7b7b7b7b7b7b7b7b7b7b7b7b7b7b7b7b7b7b7b7b7b7b7b7b7b7b7b7b7b7b7b7b7b7b7b7b7b7b7b7b7b7b7b7b7b7b7b7b7b7b7b7b7b7b7b7b7b7b7b7b7b7b7b7b7b7b7b7b7b7b7b7b7b7b7b7b7b7b7b7b7b7b7b7b7b7b7b7b7b7b7b7b7b7b7b7b7b7b7b7b7b7b7b7b7b7b7b7b7b7b7b7b7b6b7bUb#cFcFcFcFcFcFcFcFcFcFcFcFcFcFcFcFcFcFcFcF",
"cFcFcFcFcFcFcFcFcFcFcFcFcFcFcFcFcFcFbDcFbVbPb:b7b7b7b7b7b7b7b7b7b7b7b7b7b7b7b7b7b7b7b7b7b7b7b7b7b7b7b7b7b7b7b7b7b7b7b7b7b7b7b7b7b7b7b7b7b7b7b7b7b7b7b7b7b7b7b7b7b7b7b7b7b7b7b7b7b7b7b7b7b7b7b7b7b7b7b7b7b7b7b7b7b7b7b7b7b7b7b7b7b7b7b7b7b7b7b7b7b7b7b7b7b7b7b7b7b7b7b7b7b7b7b7b7b7b7b7b7b7b7b7b7b7b7b7b7b7b7b7b7b7b7b7b7b7b7b7b7b7b7b7b7b7b7b7b7b7b7b7b7b7b7b7b7b7b7b7b7b7b7b7b7b7b7b7b7b7b7b7b7b7b7b7b7b7b7b7b7b7b7b7b7b7b7b7b7b7b7b7b7b7b7b7b7b7b7b7b7b7b7b7b7b7b7b7b7b7b7b7b7b7b7bQb.cicDcFcFcFcFcFcFcFcFcFcFcFcFcFcFcFcFcFcF",
"cFcFcFcFcFcFcFcFcFcFcFcFcFcFcFcFcFbrcFb.bPb:b7b7b7b7b7b7b7b7b7b7b7b7b7b7b7b7b7b7b7b7b7b7b7b7b7b7b7b7b7b7b7b7b7b7b7b7b7b7b7b7b7b7b7b7b7b7b7b7b7b7b7b7b7b7b7b7b7b7b7b7b7b7b7b7b7b7b7b7b7b7b7b7b7b7b7b7b7b7b7b7b7b7b7b7b7b7b7b7b7b7b7b7b7b7b7b7b7b7b7b7b7b7b7b7b7b7b7b7b7b7b7b7b7b7b7b7b7b7b7b7b7b7b7b7b7b7b7b7b7b7b7b7b7b7b7b7b7b7b7b7b7b7b7b7b7b7b7b7b7b7b7b7b7b7b7b7b7b7b7b7b7b7b7b7b7b7b7b7b7b7b7b7b7b7b7b7b7b7b7b7b7b7b7b7b7b7b7b7b7b7b7b7b7b7b7b7b7b7b7b7b7b7b7b7b7b7b7b7b7b7b7b7b:bHb;cFbrcFcFcFcFcFcFcFcFcFcFcFcFcFcFcFcFcF",
"cFcFcFcFcFcFcFcFcFcFcFcFcFcFcFcFcFcFbKb6b2b;b7b7b7b7b7b7b7b7b7b7b7b7b7b7b7b7b7b7b7b7b7b7b7b7b7b7b7b7b7b7b7b7b7b7b7b7b7b7b7b7b7b7b7b7b7b7b7b7b7b7b7b7b7b7b7b7b7b7b7b7b7b7b7b7b7b7b7b7b7b7b7b7b7b7b7b7b7b7b7b7b7b7b7b7b7b7b7b7b7b7b7b7b7b7b7b7b7b7b7b7b7b7b7b7b7b7b7b7b7b7b7b7b7b7b7b7b7b7b7b7b7b7b7b7b7b7b7b7b7b7b7b7b7b7b7b7b7b7b7b7b7b7b7b7b7b7b7b7b7b7b7b7b7b7b7b7b7b7b7b7b7b7b7b7b7b7b7b7b7b7b7b7b7b7b7b7b7b7b7b7b7b7b7b7b7b7b7b7b7b7b7b7b7b7b7b7b7b7b7b7b7b7b7b7b7b7b7b7b7b7b7b7b6b6b6b8cFcDcFcFcFcFcFcFcFcFcFcFcFcFcFcFcFcF",
"cFcFcFcFcFcFcFcFcFcFcFcFcFcFcFcFbrcFb5b1b:b;b;b;b;b;b;b;b;b;b;b;b;b;b;b;b;b;b;b;b;b;b;b;b;b;b;b;b;b;b;b;b;b;b;b;b;b;b;b;b;b;b;b;b;b;b;b;b;b;b;b;b;b;b;b;b;b;b;b;b;b;b;b;b;b;b;b;b;b;b;b;b;b;b;b;b;b;b;b;b;b;b;b;b;b;b;b;b;b;b;b;b;b;b;b;b;b;b;b;b;b;b;b;b;b;b;b;b;b;b;b;b;b;b;b;b;b;b;b;b;b;b;b;b;b;b;b;b;b;b;b;b;b;b;b;b;b;b;b;b;b;b;b;b;b;b;b;b;b;b;b;b;b;b;b;b;b;b;b;b;b;b;b;b;b;b;b;b;b;b;b;b;b;b;b;b;b;b;b;b;b;b;b;b;b;b;b;b;b;b;b;b;b;b;b;b;b;b;b;b;b;b;b;b;b;b;b;b;b;b;b;b;b;b;b5b2b6cFbrcFcFcFcFcFcFcFcFcFcFcFcFcFcFcFcF",
"cFcFcFcFcFcFcFcFcFcFcFcFcFcFcFcDcFbPb;b;b;b;b;b;b;b;b;b;b;b;b;b;b;b;b;b;b;b;b;b;b;b;b;b;b;b;b;b;b;b;b;b;b;b;b;b;b;b;b;b;b;b;b;b;b;b;b;b;b;b;b;b;b;b;b;b;b;b;b;b;b;b;b;b;b;b;b;b;b;b;b;b;b;b;b;b;b;b;b;b;b;b;b;b;b;b;b;b;b;b;b;b;b;b;b;b;b;b;b;b;b;b;b;b;b;b;b;b;b;b;b;b;b;b;b;b;b;b;b;b;b;b;b;b;b;b;b;b;b;b;b;b;b;b;b;b;b;b;b;b;b;b;b;b;b;b;b;b;b;b;b;b;b;b;b;b;b;b;b;b;b;b;b;b;b;b;b;b;b;b;b;b;b;b;b;b;b;b;b;b;b;b;b;b;b;b;b;b;b;b;b;b;b;b;b;b;b;b;b;b;b;b;b;b;b;b;b;b;b;b;b;b;b;b;b;b;b:b1b.cFbrcFcFcFcFcFcFcFcFcFcFcFcFcFcFcF",
"cFcFcFcFcFcFcFcFcFcFcFcFcFcFcFcFcFb;b2b:b;b;b;b;b;b;b;b;b;b;b;b;b;b;b;b;b;b;b;b;b;b;b;b;b;b;b;b;b;b;b;b;b;b;b;b;b;b;b;b;b;b;b;b;b;b;b;b;b;b;b;b;b;b;b;b;b;b;b;b;b;b;b;b;b;b;b;b;b;b;b;b;b;b;b;b;b;b;b;b;b;b;b;b;b;b;b;b;b;b;b;b;b;b;b;b;b;b;b;b;b;b;b;b;b;b;b;b;b;b;b;b;b;b;b;b;b;b;b;b;b;b;b;b;b;b;b;b;b;b;b;b;b;b;b;b;b;b;b;b;b;b;b;b;b;b;b;b;b;b;b;b;b;b;b;b;b;b;b;b;b;b;b;b;b;b;b;b;b;b;b;b;b;b;b;b;b;b;b;b;b;b;b;b;b;b;b;b;b;b;b;b;b;b;b;b;b;b;b;b;b;b;b;b;b;b;b;b;b;b;b;b;b;b;b;b;b;b;b:cycFcFcFcFcFcFcFcFcFcFcFcFcFcFcFcF",
"cFcFcFcFcFcFcFcFcFcFcFcFcFcFbrcFb=b1b:b;b;b;b;b;b;b;b;b;b;b;b;b;b;b;b;b;b;b;b;b;b;b;b;b;b;b;b;b;b;b;b;b;b;b;b;b;b;b;b;b;b;b;b;b;b;b;b;b;b;b;b;b;b;b;b;b;b;b;b;b;b;b;b;b;b;b;b;b;b;b;b;b;b;b;b;b;b;b;b;b;b;b;b;b;b;b;b;b;b;b;b;b;b;b;b;b;b;b;b;b;b;b;b;b;b;b;b;b;b;b;b;b;b;b;b;b;b;b;b;b;b;b;b;b;b;b;b;b;b;b;b;b;b;b;b;b;b;b;b;b;b;b;b;b;b;b;b;b;b;b;b;b;b;b;b;b;b;b;b;b;b;b;b;b;b;b;b;b;b;b;b;b;b;b;b;b;b;b;b;b;b;b;b;b;b;b;b;b;b;b;b;b;b;b;b;b;b;b;b;b;b;b;b;b;b;b;b;b;b;b;b;b;b;b;b;b;b;b*b1b<cFbrcFcFcFcFcFcFcFcFcFcFcFcFcFcF",
"cFcFcFcFcFcFcFcFcFcFcFcFcFcFcFbAb<b;b;b;b;b;b;b;b;b;b;b;b;b;b;b;b;b;b;b;b;b;b;b;b;b;b;b;b;b;b;b;b;b;b;b;b;b;b;b;b;b;b;b;b;b;b;b;b;b;b;b;b;b;b;b;b;b;b;b;b;b;b;b;b;b;b;b;b;b;b;b;b;b;b;b;b;b;b;b;b;b;b;b;b;b;b;b;b;b;b;b;b;b;b;b;b;b;b;b;b;b;b;b;b;b;b;b;b;b;b;b;b;b;b;b;b;b;b;b;b;b;b;b;b;b;b;b;b;b;b;b;b;b;b;b;b;b;b;b;b;b;b;b;b;b;b;b;b;b;b;b;b;b;b;b;b;b;b;b;b;b;b;b;b;b;b;b;b;b;b;b;b;b;b;b;b;b;b;b;b;b;b;b;b;b;b;b;b;b;b;b;b;b;b;b;b;b;b;b;b;b;b;b;b;b;b;b;b;b;b;b;b;b;b;b;b;b;b;b;b;b;b2b;bKcFcFcFcFcFcFcFcFcFcFcFcFcFcFcF",
"cFcFcFcFcFcFcFcFcFcFcFcFcFbDcFb9b1b*b;b;b;b;b;b;b;b;b;b;b;b;b;b;b;b;b;b;b;b;b;b;b;b;b;b;b;b;b;b;b;b;b;b;b;b;b;b;b;b;b;b;b;b;b;b;b;b;b;b;b;b;b;b;b;b;b;b;b;b;b;b;b;b;b;b;b;b;b;b;b;b;b;b;b;b;b;b;b;b;b;b;b;b;b;b;b;b;b;b;b;b;b;b;b;b;b;b;b;b;b;b;b;b;b;b;b;b;b;b;b;b;b;b;b;b;b;b;b;b;b;b;b;b;b;b;b;b;b;b;b;b;b;b;b;b;b;b;b;b;b;b;b;b;b;b;b;b;b;b;b;b;b;b;b;b;b;b;b;b;b;b;b;b;b;b;b;b;b;b;b;b;b;b;b;b;b;b;b;b;b;b;b;b;b;b;b;b;b;b;b;b;b;b;b;b;b;b;b;b;b;b;b;b;b;b;b;b;b;b;b;b;b;b;b;b;b;b;b;b;b*bPb-cFbDcFcFcFcFcFcFcFcFcFcFcFcFcF",
"cFcFcFcFcFcFcFcFcFcFcFcFcFcFcFb1b6b7b;b;b;b;b;b;b;b;b;b;b;b;b;b;b;b;b;b;b;b;b;b;b;b;b;b;b;b;b;b;b;b;b;b;b;b;b;b;b;b;b;b;b;b;b;b;b;b;b;b;b;b;b;b;b;b;b;b;b;b;b;b;b;b;b;b;b;b;b;b;b;b;b;b;b;b;b;b;b;b;b;b;b;b;b;b;b;b;b;b;b;b;b;b;b;b;b;b;b;b;b;b;b;b;b;b;b;b;b;b;b;b;b;b;b;b;b;b;b;b;b;b;b;b;b;b;b;b;b;b;b;b;b;b;b;b;b;b;b;b;b;b;b;b;b;b;b;b;b;b;b;b;b;b;b;b;b;b;b;b;b;b;b;b;b;b;b;b;b;b;b;b;b;b;b;b;b;b;b;b;b;b;b;b;b;b;b;b;b;b;b;b;b;b;b;b;b;b;b;b;b;b;b;b;b;b;b;b;b;b;b;b;b;b;b;b;b;b;b;b;b;b;b<cycFcFcFcFcFcFcFcFcFcFcFcFcFcF",
"cFcFcFcFcFcFcFcFcFcFcFcFcDcFb6b<b#b<b<b<b<b<b<b<b<b<b<b<b<b<b<b<b<b<b<b<b<b<b<b<b<b<b<b<b<b<b<b<b<b<b<b<b<b<b<b<b<b<b<b<b<b<b<b<b<b<b<b<b<b<b<b<b<b<b<b<b<b<b<b<b<b<b<b<b<b<b<b<b<b<b<b<b<b<b<b<b<b<b<b<b<b<b<b<b<b<b<b<b<b<b<b<b<b<b<b<b<b<b<b<b<b<b<b<b<b<b<b<b<b<b<b<b<b<b<b<b<b<b<b<b<b<b<b<b<b<b<b<b<b<b<b<b<b<b<b<b<b<b<b<b<b<b<b<b<b<b<b<b<b<b<b<b<b<b<b<b<b<b<b<b<b<b<b<b<b<b<b<b<b<b<b<b<b<b<b<b<b<b<b<b<b<b<b<b<b<b<b<b<b<b<b<b<b<b<b<b<b<b<b<b<b<b<b<b<b<b<b<b<b<b<b<b<b<b<b<b<b<b<b;b5b0cFbDcFcFcFcFcFcFcFcFcFcFcFcF",
"cFcFcFcFcFcFcFcFcFcFcFcFbrcFb<b5b;b<b<b<b<b<b<b<b<b<b<b<b<b<b<b<b<b<b<b<b<b<b<b<b<b<b<b<b<b<b<b<b<b<b<b<b<b<b<b<b<b<b<b<b<b<b<b<b<b<b<b<b<b<b<b<b<b<b<b<b<b<b<b<b<b<b<b<b<b<b<b<b<b<b<b<b<b<b<b<b<b<b<b<b<b<b<b<b<b<b<b<b<b<b<b<b<b<b<b<b<b<b<b<b<b<b<b<b<b<b<b<b<b<b<b<b<b<b<b<b<b<b<b<b<b<b<b<b<b<b<b<b<b<b<b<b<b<b<b<b<b<b<b<b<b<b<b<b<b<b<b<b<b<b<b<b<b<b<b<b<b<b<b<b<b<b<b<b<b<b<b<b<b<b<b<b<b<b<b<b<b<b<b<b<b<b<b<b<b<b<b<b<b<b<b<b<b<b<b<b<b<b<b<b<b<b<b<b<b<b<b<b<b<b<b<b<b<b<b<b<b<b<b#b6b1cFcFcFcFcFcFcFcFcFcFcFcFcFcF",
"cFcFcFcFcFcFcFcFcFcFcFcFcFb4b#b<b<b<b<b<b<b<b<b<b<b<b<b<b<b<b<b<b<b<b<b<b<b<b<b<b<b<b<b<b<b<b<b<b<b<b<b<b<b<b<b<b<b<b<b<b<b<b<b<b<b<b<b<b<b<b<b<b<b<b<b<b<b<b<b<b<b<b<b<b<b<b<b<b<b<b<b<b<b<b<b<b<b<b<b<b<b<b<b<b<b<b<b<b<b<b<b<b<b<b<b<b<b<b<b<b<b<b<b<b<b<b<b<b<b<b<b<b<b<b<b<b<b<b<b<b<b<b<b<b<b<b<b<b<b<b<b<b<b<b<b<b<b<b<b<b<b<b<b<b<b<b<b<b<b<b<b<b<b<b<b<b<b<b<b<b<b<b<b<b<b<b<b<b<b<b<b<b<b<b<b<b<b<b<b<b<b<b<b<b<b<b<b<b<b<b<b<b<b<b<b<b<b<b<b<b<b<b<b<b<b<b<b<b<b<b<b<b<b<b<b<b<b<b<b<b<b#b,cFcCcFcFcFcFcFcFcFcFcFcFcF",
"cFcFcFcFcFcFcFcFcFcFcFbDcFb1b5b;b<b<b<b<b<b<b<b<b<b<b<b<b<b<b<b<b<b<b<b<b<b<b<b<b<b<b<b<b<b<b<b<b<b<b<b<b<b<b<b<b<b<b<b<b<b<b<b<b<b<b<b<b<b<b<b<b<b<b<b<b<b<b<b<b<b<b<b<b<b<b<b<b<b<b<b<b<b<b<b<b<b<b<b<b<b<b<b<b<b<b<b<b<b<b<b<b<b<b<b<b<b<b<b<b<b<b<b<b<b<b<b<b<b<b<b<b<b<b<b<b<b<b<b<b<b<b<b<b<b<b<b<b<b<b<b<b<b<b<b<b<b<b<b<b<b<b<b<b<b<b<b<b<b<b<b<b<b<b<b<b<b<b<b<b<b<b<b<b<b<b<b<b<b<b<b<b<b<b<b<b<b<b<b<b<b<b<b<b<b<b<b<b<b<b<b<b<b<b<b<b<b<b<b<b<b<b<b<b<b<b<b<b<b<b<b<b<b<b<b<b<b<b<b<b;b5b.cFbDcFcFcFcFcFcFcFcFcFcFcF",
"cFcFcFcFcFcFcFcFcFcFcFcFcFb.b7b7b1b1b1b1b1b1b1b1b1b1b1b1b1b1b1b1b1b1b1b1b1b1b1b1b1b1b1b1b1b1b1b1b1b1b1b1b1b1b1b1b1b1b1b1b1b1b1b1b1b1b1b1b1b1b1b1b1b1b1b1b1b1b1b1b1b1b1b1b1b1b1b1b1b1b1b1b1b1b1b1b1b1b1b1b1b1b1b1b1b1b1b1b1b1b1b1b1b1b1b1b1b1b1b1b1b1b1b1b1b1b1b1b1b1b1b1b1b1b1b1b1b1b1b1b1b1b1b1b1b1b1b1b1b1b1b1b1b1b1b1b1b1b1b1b1b1b1b1b1b1b1b1b1b1b1b1b1b1b1b1b1b1b1b1b1b1b1b1b1b1b1b1b1b1b1b1b1b1b1b1b1b1b1b1b1b1b1b1b1b1b1b1b1b1b1b1b1b1b1b1b1b1b1b1b1b1b1b1b1b1b1b1b1b1b1b1b1b1b1b1b1b1b1b1b#b1b1bvcFcFcFcFcFcFcFcFcFcFcFcF",
"cFcFcFcFcFcFcFcFcFcFcFcFbYb6b1b1b1b1b1b1b1b1b1b1b1b1b1b1b1b1b1b1b1b1b1b1b1b1b1b1b1b1b1b1b1b1b1b1b1b1b1b1b1b1b1b1b1b1b1b1b1b1b1b1b1b1b1b1b1b1b1b1b1b1b1b1b1b1b1b1b1b1b1b1b1b1b1b1b1b1b1b1b1b1b1b1b1b1b1b1b1b1b1b1b1b1b1b1b1b1b1b1b1b1b1b1b1b1b1b1b1b1b1b1b1b1b1b1b1b1b1b1b1b1b1b1b1b1b1b1b1b1b1b1b1b1b1b1b1b1b1b1b1b1b1b1b1b1b1b1b1b1b1b1b1b1b1b1b1b1b1b1b1b1b1b1b1b1b1b1b1b1b1b1b1b1b1b1b1b1b1b1b1b1b1b1b1b1b1b1b1b1b1b1b1b1b1b1b1b1b1b1b1b1b1b1b1b1b1b1b1b1b1b1b1b1b1b1b1b1b1b1b1b1b1b1b1b1b1b1b1b#b<b<cFcDcFcFcFcFcFcFcFcFcFcF",
"cFcFcFcFcFcFcFcFcFcFbDcFb<b6b:b1b1b1b1b1b1b1b1b1b1b1b1b1b1b1b1b1b1b1b1b1b1b1b1b1b1b1b1b1b1b1b1b1b1b1b1b1b1b1b1b1b1b1b1b1b1b1b1b1b1b1b1b1b1b1b1b1b1b1b1b1b1b1b1b1b1b1b1b1b1b1b1b1b1b1b1b1b1b1b1b1b1b1b1b1b1b1b1b1b1b1b1b1b1b1b1b1b1b1b1b1b1b1b1b1b1b1b1b1b1b1b1b1b1b1b1b1b1b1b1b1b1b1b1b1b1b1b1b1b1b1b1b1b1b1b1b1b1b1b1b1b1b1b1b1b1b1b1b1b1b1b1b1b1b1b1b1b1b1b1b1b1b1b1b1b1b1b1b1b1b1b1b1b1b1b1b1b1b1b1b1b1b1b1b1b1b1b1b1b1b1b1b1b1b1b1b1b1b1b1b1b1b1b1b1b1b1b1b1b1b1b1b1b1b1b1b1b1b1b1b1b1b1b1b1b1b:bUb3cFbDcFcFcFcFcFcFcFcFcFcF",
"cFcFcFcFcFcFcFcFcFcFbDcFb1b6b:b.b.b.b.b.b.b.b.b.b.b.b.b.b.b.b.b.b.b.b.b.b.b.b.b.b.b.b.b.b.b.b.b.b.b.b.b.b.b.b.b.b.b.b.b.b.b.b.b.b.b.b.b.b.b.b.b.b.b.b.b.b.b.b.b.b.b.b.b.b.b.b.b.b.b.b.b.b.b.b.b.b.b.b.b.b.b.b.b.b.b.b.b.b.b.b.b.b.b.b.b.b.b.b.b.b.b.b.b.b.b.b.b.b.b.b.b.b.b.b.b.b.b.b.b.b.b.b.b.b.b.b.b.b.b.b.b.b.b.b.b.b.b.b.b.b.b.b.b.b.b.b.b.b.b.b.b.b.b.b.b.b.b.b.b.b.b.b.b.b.b.b.b.b.b.b.b.b.b.b.b.b.b.b.b.b.b.b.b.b.b.b.b.b.b.b.b.b.b.b.b.b.b.b.b.b.b.b.b.b.b.b.b.b.b.b.b.b.b.b.b.b.b.b.b.b.b6b:b:cFcFcFcFcFcFcFcFcFcFcFcF",
"cFcFcFcFcFcFcFcFcFcFcFcyb:b7b#b.b.b.b.b.b.b.b.b.b.b.b.b.b.b.b.b.b.b.b.b.b.b.b.b.b.b.b.b.b.b.b.b.b.b.b.b.b.b.b.b.b.b.b.b.b.b.b.b.b.b.b.b.b.b.b.b.b.b.b.b.b.b.b.b.b.b.b.b.b.b.b.b.b.b.b.b.b.b.b.b.b.b.b.b.b.b.b.b.b.b.b.b.b.b.b.b.b.b.b.b.b.b.b.b.b.b.b.b.b.b.b#b#b#b#b.b.b.b.b.b.b.b.b.b.b.b.b.b.b.b.b.b.b.b.b.b.b.b.b.b.b.b.b.b.b.b.b.b.b.b.b.b.b.b.b.b.b.b.b.b.b.b.b.b.b.b.b.b.b.b.b.b.b.b.b.b.b.b.b.b.b.b.b.b.b.b.b.b.b.b.b.b.b.b.b.b.b.b.b.b.b.b.b.b.b.b.b.b.b.b.b.b.b.b.b.b.b.b.b.b.b.b.b.b.b.b.b1b7b0cFcFcFcFcFcFcFcFcFcFcF",
"cFcFcFcFcFcFcFcFcFcDcFb@b<b#b.b.b.b.b.b.b.b.b.b.b.b.b.b.b.b.b.b.b.b.b.b.b.b.b.b.b.b.b.b.b.b.b.b.b.b.b.b.b.b.b.b.b.b.b.b.b.b.b.b.b.b.b.b.b.b.b.b.b.b.b.b.b.b.b.b.b.b.b.b.b.b.b.b.b.b.b.b.b.b.b.b.b.b.b.b.b.b.b.b.b.b.b.b.b.b.b.b.b.b.b.b.b.b.b.b.b.b#bTbGbTb.b2cbcbb2b.bTbGbTbXb.b.b.b.b.b.b.b.b.b.b.b.b.b.b.b.b.b.b.b.b.b.b.b.b.b.b.b.b.b.b.b.b.b.b.b.b.b.b.b.b.b.b.b.b.b.b.b.b.b.b.b.b.b.b.b.b.b.b.b.b.b.b.b.b.b.b.b.b.b.b.b.b.b.b.b.b.b.b.b.b.b.b.b.b.b.b.b.b.b.b.b.b.b.b.b.b.b.b.b.b.b.b.b.b.b.b.b:b6b#cFbDcFcFcFcFcFcFcFcFcF",
"cFcFcFcFcFcFcFcFcFbDcFb#b6b:b.b.b.b.b.b.b.b.b.b.b.b.b.b.b.b.b.b.b.b.b.b.b.b.b.b.b.b.b.b.b.b.b.b.b.b.b.b.b.b.b.b.b.b.b.b.b.b.b.b.b.b.b.b.b.b.b.b.b.b.b.b.b.b.b.b.b.b.b.b.b.b.b.b.b.b.b.b.b.b.b.b.b.b.b.b.b.b.b.b.b.b.b.b.b.b.b.b.b.b.b.b.b.b.b.bTbSb2chcmchb2bEbzbzbzb2chcmckcdbTbTb.b.b.b.b.b.b.b.b.b.b.b.b.b.b.b.b.b.b.b.b.b.b.b.b.b.b.b.b.b.b.b.b.b.b.b.b.b.b.b.b.b.b.b.b.b.b.b.b.b.b.b.b.b.b.b.b.b.b.b.b.b.b.b.b.b.b.b.b.b.b.b.b.b.b.b.b.b.b.b.b.b.b.b.b.b.b.b.b.b.b.b.b.b.b.b.b.b.b.b.b.b.b.b.b.b:bUb1cFbDcFcFcFcFcFcFcFcFcF",
"cFcFcFcFcFcFcFcFcFbrcFb7b6b:b#b#b#b#b#b#b#b#b#b#b#b#b#b#b#b#b#b#b#b#b#b#b#b#b#b#b#b#b#b#b#b#b#b#b#b#b#b#b#b#b#b#b#b#b#b#b#b#b#b#b#b#b#b#b#b#b#b#b#b#b#b#b#b#b#b#b#b#b#b#b#b#b#b#b#b#b#b#b#b#b#b#b#b#b#b#b#b#b#b#b#b#b#b#b#b#b#b#b#b#b#b#b#bNbXchchbzbqbpbhbfbfbfbfbfbfbhbpbqbxchchb#bMb#b#b#b#b#b#b#b#b#b#b#b#b#b#b#b#b#b#b#b#b#b#b#b#b#b#b#b#b#b#b#b#b#b#b#b#b#b#b#b#b#b#b#b#b#b#b#b#b#b#b#b#b#b#b#b#b#b#b#b#b#b#b#b#b#b#b#b#b#b#b#b#b#b#b#b#b#b#b#b#b#b#b#b#b#b#b#b#b#b#b#b#b#b#b#b#b#b#b#b#b#b#b#b7b7b3cFcFcFcFcFcFcFcFcFcFcF",
"cFcFcFcFcFcFcFcFcFcFcFb6b<b6b#b#b#b#b#b#b#b#b#b#b#b#b#b#b#b#b#b#b#b#b#b#b#b#b#b#b#b#b#b#b#b#b#b#b#b#b#b#b#b#b#b#b#b#b#b#b#b#b#b#b#b#b#b#b#b#b#b#b#b#b#b#b#b#b#b#b#b#b#b#b#b#b#b#b#b#b#b#b#b#b#b#b#b#b#b#b#b#b#b#b#b#b#b#b#b#b#b#b#b#b#bXbNchcdbubhbfa+a#a+a@a*a*a*a*a@a+a#a+bfbhbqb2chbXbNb#b#b#b#b#b#b#b#b#b#b#b#b#b#b#b#b#b#b#b#b#b#b#b#b#b#b#b#b#b#b#b#b#b#b#b#b#b#b#b#b#b#b#b#b#b#b#b#b#b#b#b#b#b#b#b#b#b#b#b#b#b#b#b#b#b#b#b#b#b#b#b#b#b#b#b#b#b#b#b#b#b#b#b#b#b#b#b#b#b#b#b#b#b#b#b#b#b#b#b#b#b6b6b7cycFcFcFcFcFcFcFcFcFcF",
"cFcFcFcFcFcFcFcFcFcFcyb#b6b6b#b#b#b#b#b#b#b#b#b#b#b#b#b#b#b#b#b#b#b#b#b#b#b#b#b#b#b#b#b#b#b#b#b#b#b#b#b#b#b#b#b#b#b#b#b#b#b#b#b#b#b#b#b#b#b#b#b#b#b#b#b#b#b#b#b#b#b#b#b#b#b#b#b#b#b#b#b#b#b#b#b#b#b#b#b#b#b#b#b#b#b#b#b#b#b#b#b#b#b#bGcdchbqbha@a#a*bbbdbba2a2a:a:a2a2bbbdbba*a+a+bfbqcecdbGb#b#b#b#b#b#b#b#b#b#b#b#b#b#b#b#b#b#b#b#b#b#b#b#b#b#b#b#b#b#b#b#b#b#b#b#b#b#b#b#b#b#b#b#b#b#b#b#b#b#b#b#b#b#b#b#b#b#b#b#b#b#b#b#b#b#b#b#b#b#b#b#b#b#b#b#b#b#b#b#b#b#b#b#b#b#b#b#b#b#b#b#b#b#b#b#b#b#b#b#b#b#b1b#cFcFcFcFcFcFcFcFcFcF",
"cFcFcFcFcFcFcFcFcFcFb0b<b#b#b#b#b#b#b#b#b#b#b#b#b#b#b#b#b#b#b#b#b#b#b#b#b#b#b#b#b#b#b#b#b#b#b#b#b#b#b#b#b#b#b#b#b#b#b#b#b#b#b#b#b#b#b#b#b#b#b#b#b#b#b#b#b#b#b#b#b#b#b#b#b#b#b#b#b#b#b#b#b#b#b#b#b#b#b#b#b#b#b#b#b#b#b#b#b#b#b#b#b#bGchbzbha+a+a2bda:a;a;a;a;a;a;a;a;a;a;a;a;a:bcbba@a#bhbxcmbGb#b#b#b#b#b#b#b#b#b#b#b#b#b#b#b#b#b#b#b#b#b#b#b#b#b#b#b#b#b#b#b#b#b#b#b#b#b#b#b#b#b#b#b#b#b#b#b#b#b#b#b#b#b#b#b#b#b#b#b#b#b#b#b#b#b#b#b#b#b#b#b#b#b#b#b#b#b#b#b#b#b#b#b#b#b#b#b#b#b#b#b#b#b#b#b#b#b#b#b#b6b1b,cFcDcFcFcFcFcFcFcFcF",
"cFcFcFcFcFcFcFcFcEcFbUb;b6b6b6b6b6b6b6b6b6b6b6b6b6b6b6b6b6b6b6b6b6b6b6b6b6b6b6b6b6b6b6b6b6b6b6b6b6b6b6b6b6b6b6b6b6b6b6b6b6b6b6b6b6b6b6b6b6b6b6b6b6b6b6b6b6b6b6b6b6b6b6b6b6b6b6b6b6b6b6b6b6b6b6b6b6b6b6b6b6b6b6b6b6b6b6b6b6b6b6b6bMcmbqbfa#bbbba;a;a;a;a;a;a;a;a;a;a;a;a;a;a;a;a;a;bbbda+bdbqcmbSb5b6b6b6b6b6b6b6b6b6b6b6b6b6b6b6b6b6b6b6b6b6b6b6b6b6b6b6b6b6b6b6b6b6b6b6b6b6b6b6b6b6b6b6b6b6b6b6b6b6b6b6b6b6b6b6b6b6b6b6b6b6b6b6b6b6b6b6b6b6b6b6b6b6b6b6b6b6b6b6b6b6b6b6b6b6b6b6b6b6b6b6b6b6b6b6b6b6b6b:bUb+cFbDcFcFcFcFcFcFcFcF",
"cFcFcFcFcFcFcFcFbDcFbYb6b:b6b6b6b6b6b6b6b6b6b6b6b6b6b6b6b6b6b6b6b6b6b6b6b6b6b6b6b6b6b6b6b6b6b6b6b6b6b6b6b6b6b6b6b6b6b6b6b6b6b6b6b6b6b6b6b6b6b6b6b6b6b6b6b6b6b6b6b6b6b6b6b6b6b6b6b6b6b6b6b6b6b6b6b6b6b6b6b6b6b6b6b6b6b6b6b6b6b6bNcmbqa@a*bda;a;a;a;a;a;a;a;a;a;a;a;a;a;a;a;a;a;a;a;a;a;bda*a+bpchb5b5b6b6b6b6b6b6b6b6b6b6b6b6b6b6b6b6b6b6b6b6b6b6b6b6b6b6b6b6b6b6b6b6b6b6b6b6b6b6b6b6b6b6b6b6b6b6b6b6b6b6b6b6b6b6b6b6b6b6b6b6b6b6b6b6b6b6b6b6b6b6b6b6b6b6b6b6b6b6b6b6b6b6b6b6b6b6b6b6b6b6b6b6b6b6b6b6b6b:bUb+cFbDcFcFcFcFcFcFcFcF",
"cFcFcFcFcFcFcFcFbDcFb3bUb:b6b6b6b6b6b6b6b6b6b6b6b6b6b6b6b6b6b6b6b6b6b6b6b6b6b6b6b6b6b6b6b6b6b6b6b6b6b6b6b6b6b6b6b6b6b6b6b6b6b6b6b6b6b6b6b6b6b6b6b6b6b6b6b6b6b6b6b6b6b6b6b6b6b6b6b6b6b6b6b6b6b6b6b6b6b6b6b6b6b6b6b6b6b6b6b6b6bMcmbpa#a;bba;a;a;a;a;a;a;a;a;a;a;a;a;a;a;a;a;a;a;a;a;a;a;a;a2bba9bpchbSb6b6b6b6b6b6b6b6b6b6b6b6b6b6b6b6b6b6b6b6b6b6b6b6b6b6b6b6b6b6b6b6b6b6b6b6b6b6b6b6b6b6b6b6b6b6b6b6b6b6b6b6b6b6b6b6b6b6b6b6b6b6b6b6b6b6b6b6b6b6b6b6b6b6b6b6b6b6b6b6b6b6b6b6b6b6b6b6b6b6b6b6b6b6b6b6b6b:b6b6cFbDcFcFcFcFcFcFcFcF",
"cFcFcFcFcFcFcFcFcEcFb7b;b;b;b;b;b;b;b;b;b;b;b;b;b;b;b;b;b;b;b;b;b;b;b;b;b;b;b;b;b;b;b;b;b;b;b;b;b;b;b;b;b;b;b;b;b;b;b;b;b;b;b;b;b;b;b;b;b;b;b;b;b;b;b;b;b;b;b;b;b;b;b;b;b;b;b;b;b;b;b;b;b;b;b;b;b;b;b;b;b;b;b;b;b;b;b;b;b;bMckbqa#a2a2a;a;a;a;a;a;a;a;a;a;a;a;a;a;a;a;a;a;a;a;a;a;a;a;a;a;a;bda9bpckbMb;b;b;b;b;b;b;b;b;b;b;b;b;b;b;b;b;b;b;b;b;b;b;b;b;b;b;b;b;b;b;b;b;b;b;b;b;b;b;b;b;b;b;b;b;b;b;b;b;b;b;b;b;b;b;b;b;b;b;b;b;b;b;b;b;b;b;b;b;b;b;b;b;b;b;b;b;b;b;b;b;b;b;b;b;b;b;b;b;b;b;b;b;b;b;b;b:b:b=cFcFcFcFcFcFcFcFcFcF",
"cFcFcFcFcFcFcFcFcEcFb6b;b;b;b;b;b;b;b;b;b;b;b;b;b;b;b;b;b;b;b;b;b;b;b;b;b;b;b;b;b;b;b;b;b;b;b;b;b;b;b;b;b;b;b;b;b;b;b;b;b;b;b;b;b;b;b;b;b;b;b;b;b;b;b;b;b;b;b;b;b;b;b;b;b;b;b;b;b;b;b;b;b;b;b;b;b;b;b;b;b;b;b;b;b;b;b;b;b0chbwa*a;a2a;a;a;a;a;a;a;a;a;a;a;a;a;a;a;a;a;a;a;a;a;a;a;a;a;a;a;a;a;bba+bqckbMb;b;b;b;b;b;b;b;b;b;b;b;b;b;b;b;b;b;b;b;b;b;b;b;b;b;b;b;b;b;b;b;b;b;b;b;b;b;b;b;b;b;b;b;b;b;b;b;b;b;b;b;b;b;b;b;b;b;b;b;b;b;b;b;b;b;b;b;b;b;b;b;b;b;b;b;b;b;b;b;b;b;b;b;b;b;b;b;b;b;b;b;b;b;b;b:b;b*cFcFcFcFcFcFcFcFcFcF",
"cFcFcFcFcFcFcFcFcFcFb5b:b:b;b;b;b;b;b;b;b;b;b;b;b;b;b;b;b;b;b;b;b;b;b;b;b;b;b;b;b;b;b;b;b;b;b;b;b;b;b;b;b;b;b;b;b;b;b;b;b;b;b;b;b;b;b;b;b;b;b;b;b;b;b;b;b;b;b;b;b;b;b;b;b;b;b;b;b;b;b;b;b;b;b;b;b;b;b;b;b;b;b;b;b;b;b;b-b6bMbfa@bba;a;a;a;a;a;a;a;a;a;a;a;a;a;a;a;a;a;a;a;a;a;a;a;a;a;a;a;a;a;a2a*bdbxcbb5b;b;b;b;b;b;b;b;b;b;b;b;b;b;b;b;b;b;b;b;b;b;b;b;b;b;b;b;b;b;b;b;b;b;b;b;b;b;b;b;b;b;b;b;b;b;b;b;b;b;b;b;b;b;b;b;b;b;b;b;b;b;b;b;b;b;b;b;b;b;b;b;b;b;b;b;b;b;b;b;b;b;b;b;b;b;b;b;b;b;b;b;b;b;b;b;b;cFcFcFcFcFcFcFcFcFcF",
"cFcFcFcFcFcFcFcFcFcFb5b:b:b;b;b;b;b;b;b;b;b;b;b;b;b;b;b;b;b;b;b;b;b;b;b;b;b;b;b;b;b;b;b;b;b;b;b;b;b;b;b;b;b;b;b;b;b;b;b;b;b;b;b;b;b;b;b;b;b;b;b;b;b;b;b;b;b;b;b;b;b;b;b;b;b;b;b;b;b;b;b;b;b;b;b;b;b;b;b;b;b;b;b;b;b;b;bMckbpa9bda;a;a;a;a;a;a;a;a;a;a;a;a;a;a;a;a;a;a;a;a;a;a;a;a;a;a;a;a;a;a;a;bda#bhchb0b;b;b;b;b;b;b;b;b;b;b;b;b;b;b;b;b;b;b;b;b;b;b;b;b;b;b;b;b;b;b;b;b;b;b;b;b;b;b;b;b;b;b;b;b;b;b;b;b;b;b;b;b;b;b;b;b;b;b;b;b;b;b;b;b;b;b;b;b;b;b;b;b;b;b;b;b;b;b;b;b;b;b;b;b;b;b;b;b;b;b;b;b;b;b;b;b;cFcFcFcFcFcFcFcFcFcF",
"cFcFcFcFcFcFcFcFcFcFb*b:b7b:b:b:b:b:b:b:b:b:b:b:b:b:b:b:b:b:b:b:b:b:b:b:b:b:b:b:b:b:b:b:b:b:b:b:b:b:b:b:b:b:b:b:b:b:b:b:b:b:b:b:b:b:b:b:b:b:b:b:b:b:b:b:b:b:b:b:b:b:b:b:b:b:b:b:b:b:b:b:b:b:b:b:b:b:b:b:b:b:b:b:b:b:b5cebwa*a;a;a;a;a;a;a;a;a;a;a;a;a;a;a;a;a;a;a;a;a;a;a;a;a;a;a;a;a;a;a;a;a;a;a;bca+bqchb1b:b:b:b:b:b:b:b:b:b:b:b:b:b:b:b:b:b:b:b:b:b:b:b:b:b:b:b:b:b:b:b:b:b:b:b:b:b:b:b:b:b:b:b:b:b:b:b:b:b:b:b:b:b:b:b:b:b:b:b:b:b:b:b:b:b:b:b:b:b:b:b:b:b:b:b:b:b:b:b:b:b:b:b:b:b:b:b:b:b:b:b:b:b:b;b:cFcFcFcFcFcFcFcFcFcF",
"cFcFcFcFcFcFcFcFcFcFb*b:b7b:b:b:b:b:b:b:b:b:b:b:b:b:b:b:b:b:b:b:b:b:b:b:b:b:b:b:b:b:b:b:b:b:b:b:b:b:b:b:b:b:b:b:b:b:b:b:b:b:b:b:b:b:b:b:b:b:b:b:b:b:b:b:b:b:b:b:b:b:b:b:b:b:b:b:b:b:b:b:b:b:b:b:b:b:b:b:b:b:b:b:b:b:b0ckbha#bda;a;a;a;a;a;a;a;a;a;a;a;a;a;a;a;a;a;a;a;a;a;a;a;a;a;a;a;a;a;a;a;a;a;bba+bhceb5b:b:b:b:b:b:b:b:b:b:b:b:b:b:b:b:b:b:b:b:b:b:b:b:b:b:b:b:b:b:b:b:b:b:b:b:b:b:b:b:b:b:b:b:b:b:b:b:b:b:b:b:b:b:b:b:b:b:b:b:b:b:b:b:b:b:b:b:b:b:b:b:b:b:b:b:b:b:b:b:b:b:b:b:b:b:b:b:b:b:b:b:b:b:b;b:cFcFcFcFcFcFcFcFcFcF",
"cFcFcFcFcFcFcFcFcFcFb*b:b7b:b:b:b:b:b:b:b:b:b:b:b:b:b:b:b:b:b:b:b:b:b:b:b:b:b:b:b:b:b:b:b:b:b:b:b:b:b:b:b:b:b:b:b:b:b:b:b:b:b:b:b:b:b:b:b:b:b:b:b:b:b:b:b:b:b:b:b:b:b:b:b:b:b:b:b:b:b:b:b:b:b:b:b:b:b:b:b:b:b:b:b:b6cdbxbca;a;a;a;a;a;a;a;a;a;a;a;a;a;a;a;a;a;a;a;a;a;a;a;a;a;a;a;a;a;a;a;a;a;a;a;a;a2a@buchb1b:b:b:b:b:b:b:b:b:b:b:b:b:b:b:b:b:b:b:b:b:b:b:b:b:b:b:b:b:b:b:b:b:b:b:b:b:b:b:b:b:b:b:b:b:b:b:b:b:b:b:b:b:b:b:b:b:b:b:b:b:b:b:b:b:b:b:b:b:b:b:b:b:b:b:b:b:b:b:b:b:b:b:b:b:b:b:b:b:b:b:b:b:b;b:cFcFcFcFcFcFcFcFcFcF",
"cFcFcFcFcFcFcFcFcFcFb*b:b7b:b:b:b:b:b:b:b:b:b:b:b:b:b:b:b:b:b:b:b:b:b:b:b:b:b:b:b:b:b:b:b:b:b:b:b:b:b:b:b:b:b:b:b:b:b:b:b:b:b:b:b:b:b:b:b:b:b:b:b:b:b:b:b:b:b:b:b:b:b:b:b:b:b:b:b:b:b:b:b:b:b:b:b:b:b:b:b:b:b:b:b:bMckbpa#bda;a;a;a;a;a;a;a;a;a;a;a;a;a;a;a;a;a;a;a;a;a;a;a;a;a;a;a;a;a;a;a;a;a;a;a;bda#bpckbNb:b:b:b:b:b:b:b:b:b:b:b:b:b:b:b:b:b:b:b:b:b:b:b:b:b:b:b:b:b:b:b:b:b:b:b:b:b:b:b:b:b:b:b:b:b:b:b:b:b:b:b:b:b:b:b:b:b:b:b:b:b:b:b:b:b:b:b:b:b:b:b:b:b:b:b:b:b:b:b:b:b:b:b:b:b:b:b:b:b:b:b:b6b;b=cFcFcFcFcFcFcFcFcFcF",
"cFcFcFcFcFcFcFcFcFcFb*b:b7b:b:b:b:b:b:b:b:b:b:b:b:b:b:b:b:b:b:b:b:b:b:b:b:b:b:b:b:b:b:b:b:b:b:b:b:b:b:b:b:b:b:b:b:b:b:b:b:b:b:b:b:b:b:b:b:b:b:b:b:b:b:b:b:b:b:b:b:b:b:b:b:b:b:b:b:b:b:b:b:b:b:b:b:b:b:b:b:b:b:b:b:b;cdbha@a2a;a;a;a;a;a;a;a;a;a;a;a;a;a;a;a;a;a;a;a;a;a;a;a;a;a;a;a;a;a;a;a;a;a;a;a;a:a*bfbGb6b:b:b:b:b:b:b:b:b:b:b:b:b:b:b:b:b:b:b:b:b:b:b:b:b:b:b:b:b:b:b:b:b:b:b:b:b:b:b:b:b:b:b:b:b:b:b:b:b:b:b:b:b:b:b:b:b:b:b:b:b:b:b:b:b:b:b:b:b:b:b:b:b:b:b:b:b:b:b:b:b:b:b:b:b:b:b:b:b:b:b:b:b6b;b=cFcFcFcFcFcFcFcFcFcF",
"cFcFcFcFcFcFcFcFcFcFb*b:b7b:b:b:b:b:b:b:b:b:b:b:b:b:b:b:b:b:b:b:b:b:b:b:b:b:b:b:b:b:b:b:b:b:b:b:b:b:b:b:b:b:b:b:b:b:b:b:b:b:b:b:b:b:b:b:b:b:b:b:b:b:b:b:b:b:b:b:b:b:b:b:b:b:b:b:b:b:b:b:b:b:b:b:b:b:b:b:b:b:b:b:b6cdbxbba-a;a;a;a;a;a;a;a;a;a;a;a;a;a;a;a;a;a;a;a;a;a;a;a;a;a;a;a;a;a;a;a;a;a;a;a;a;a;a2a@buchb1b:b:b:b:b:b:b:b:b:b:b:b:b:b:b:b:b:b:b:b:b:b:b:b:b:b:b:b:b:b:b:b:b:b:b:b:b:b:b:b:b:b:b:b:b:b:b:b:b:b:b:b:b:b:b:b:b:b:b:b:b:b:b:b:b:b:b:b:b:b:b:b:b:b:b:b:b:b:b:b:b:b:b:b:b:b:b:b:b:b:b:b6b;b=cFcFcFcFcFcFcFcFcFcF",
"cFcFcFcFcFcFcFcFcFcFb*b:b7b:b:b:b:b:b:b:b:b:b:b:b:b:b:b:b:b:b:b:b:b:b:b:b:b:b:b:b:b:b:b:b:b:b:b:b:b:b:b:b:b:b:b:b:b:b:b:b:b:b:b:b:b:b:b:b:b:b:b:b:b:b:b:b:b:b:b:b:b:b:b:b:b:b:b:b:b:b:b:b:b:b:b:b:b:b:b:b:b:b:b:bPckbqa+bca;a;a;a;a;a;a;a;a;a;a;a;a;a;a;a;a;a;a;a;a;a;a;a;a;a;a;a;a;a;a;a;a;a;a;a;a;a;bda#bpckbMb:b:b:b:b:b:b:b:b:b:b:b:b:b:b:b:b:b:b:b:b:b:b:b:b:b:b:b:b:b:b:b:b:b:b:b:b:b:b:b:b:b:b:b:b:b:b:b:b:b:b:b:b:b:b:b:b:b:b:b:b:b:b:b:b:b:b:b:b:b:b:b:b:b:b:b:b:b:b:b:b:b:b:b:b:b:b:b:b:b:b:b6b;b=cFcFcFcFcFcFcFcFcFcF",
"cFcFcFcFcFcFcFcFcFcFb<b.b.b1b1b1b1b1b1b1b1b1b1b1b1b1b1b1b1b1b1b1b1b1b1b1b1b1b1b1b1b1b1b1b1b1b1b1b1b1b1b1b1b1b1b1b1b1b1b1b1b1b1b1b1b1b1b1b1b1b1b1b1b1b1b1b1b1b1b1b1b1b1b1b1b1b1b1b1b1b1b1b1b1b1b1b1b1b1b1b1b1b1b1bGcmbpa#bda;a;a;a;a;a;a;a;a;a;a;a;a;a;a;a;a;a;a;a;a;a;a;a;a;a;a;a;a;a;a;a;a;a;a;a;a;a;bda#bhcmbSb1b1b1b1b1b1b1b1b1b1b1b1b1b1b1b1b1b1b1b1b1b1b1b1b1b1b1b1b1b1b1b1b1b1b1b1b1b1b1b1b1b1b1b1b1b1b1b1b1b1b1b1b1b1b1b1b1b1b1b1b1b1b1b1b1b1b1b1b1b1b1b1b1b1b1b1b1b1b1b1b1b1b1b1b1b1b1b1b1b1b1b#b<b.cFcFcFcFcFcFcFcFcFcF",
"cFcFcFcFcFcFcFcFcFcFb<b@b.b1b1b1b1b1b1b1b1b1b1b1b1b1b1b1b1b1b1b1b1b1b1b1b1b1b1b1b1b1b1b1b1b1b1b1b1b1b1b1b1b1b1b1b1b1b1b1b1b1b1b1b1b1b1b1b1b1b1b1b1b1b1b1b1b1b1b1b1b1b1b1b1b1b1b1b1b1b1b1b1b1b1b1b1b1b1b1b1b1b1b1bScmbha#bda;a;a;a;a;a;a;a;a;a;a;a;a;a;a;a;a;a;a;a;a;a;a;a;a;a;a;a;a;a;a;a;a;a;a;a;a;a;bba+bhcebXb1b1b1b1b1b1b1b1b1b1b1b1b1b1b1b1b1b1b1b1b1b1b1b1b1b1b1b1b1b1b1b1b1b1b1b1b1b1b1b1b1b1b1b1b1b1b1b1b1b1b1b1b1b1b1b1b1b1b1b1b1b1b1b1b1b1b1b1b1b1b1b1b1b1b1b1b1b1b1b1b1b1b1b1b1b1b1b1b1b1b1b#b<b.cFcFcFcFcFcFcFcFcFcF",
"cFcFcFcFcFcFcFcFcFcFb<b@b.b1b1b1b1b1b1b1b1b1b1b1b1b1b1b1b1b1b1b1b1b1b1b1b1b1b1b1b1b1b1b1b1b1b1b1b1b1b1b1b1b1b1b1b1b1b1b1b1b1b1b1b1b1b1b1b1b1b1b1b1b1b1b1b1b1b1b1b1b1b1b1b1b1b1b1b1b1b1b1b1b1b1b1b1b1b1b1b1b1b1b1bXchbha+bba;a;a;a;a;a;a;a;a;a;a;a;a;a;a;a;a;a;a;a;a;a;a;a;a;a;a;a;a;a;a;a;a;a;a;a;a;a;a2a@bfb6b1b1b1b1b1b1b1b1b1b1b1b1b1b1b1b1b1b1b1b1b1b1b1b1b1b1b1b1b1b1b1b1b1b1b1b1b1b1b1b1b1b1b1b1b1b1b1b1b1b1b1b1b1b1b1b1b1b1b1b1b1b1b1b1b1b1b1b1b1b1b1b1b1b1b1b1b1b1b1b1b1b1b1b1b1b1b1b1b1b1b1b1b#b<b.cFcFcFcFcFcFcFcFcFcF",
"cFcFcFcFcFcFcFcFcFcFb<b@b.b1b1b1b1b1b1b1b1b1b1b1b1b1b1b1b1b1b1b1b1b1b1b1b1b1b1b1b1b1b1b1b1b1b1b1b1b1b1b1b1b1b1b1b1b1b1b1b1b1b1b1b1b1b1b1b1b1b1b1b1b1b1b1b1b1b1b1b1b1b1b1b1b1b1b1b1b1b1b1b1b1b1b1b1b1b1b1b1b1b1b1bXcebha+bba;a;a;a;a;a;a;a;a;a;a;a;a;a;a;a;a;a;a;a;a;a;a;a;a;a;a;a;a;a;a;a;a;a;a;a;a;a;a2a@bfb1b1b1b1b1b1b1b1b1b1b1b1b1b1b1b1b1b1b1b1b1b1b1b1b1b1b1b1b1b1b1b1b1b1b1b1b1b1b1b1b1b1b1b1b1b1b1b1b1b1b1b1b1b1b1b1b1b1b1b1b1b1b1b1b1b1b1b1b1b1b1b1b1b1b1b1b1b1b1b1b1b1b1b1b1b1b1b1b1b1b1b1b1b#b<b.cFcFcFcFcFcFcFcFcFcF",
"cFcFcFcFcFcFcFcFcFcFb<b.b7b#b#b#b#b#b#b#b#b#b#b#b#b#b#b#b#b#b#b#b#b#b#b#b#b#b#b#b#b#b#b#b#b#b#b#b#b#b#b#b#b#b#b#b#b#b#b#b#b#b#b#b#b#b#b#b#b#b#b#b#b#b#b#b#b#b#b#b#b#b#b#b#b#b#b#b#b#b#b#b#b#b#b#b#b#b#b#b#b#b#b#bXcebha+bba;a;a;a;a;a;a;a;a;a;a;a;a;a;a;a;a;a;a;a;a;a;a;a;a;a;a;a;a;a;a;a;a;a;a;a;a;a;a2a@bfb#b#b#b#b#b#b#b#b#b#b#b#b#b#b#b#b#b#b#b#b#b#b#b#b#b#b#b#b#b#b#b#b#b#b#b#b#b#b#b#b#b#b#b#b#b#b#b#b#b#b#b#b#b#b#b#b#b#b#b#b#b#b#b#b#b#b#b#b#b#b#b#b#b#b#b#b#b#b#b#b#b#b#b#b#b#b#b#b#b#b#b#b#b#b<b7cFcFcFcFcFcFcFcFcFcF",
"cFcFcFcFcFcFcFcFcFcFb<b.b7b#b#b#b#b#b#b#b#b#b#b#b#b#b#b#b#b#b#b#b#b#b#b#b#b#b#b#b#b#b#b#b#b#b#b#b#b#b#b#b#b#b#b#b#b#b#b#b#b#b#b#b#b#b#b#b#b#b#b#b#b#b#b#b#b#b#b#b#b#b#b#b#b#b#b#b#b#b#b#b#b#b#b#b#b#b#b#b#b#b#b#bXchbha+bba;a;a;a;a;a;a;a;a;a;a;a;a;a;a;a;a;a;a;a;a;a;a;a;a;a;a;a;a;a;a;a;a;a;a;a;a;a;bba@bhcdbXb#b#b#b#b#b#b#b#b#b#b#b#b#b#b#b#b#b#b#b#b#b#b#b#b#b#b#b#b#b#b#b#b#b#b#b#b#b#b#b#b#b#b#b#b#b#b#b#b#b#b#b#b#b#b#b#b#b#b#b#b#b#b#b#b#b#b#b#b#b#b#b#b#b#b#b#b#b#b#b#b#b#b#b#b#b#b#b#b#b#b#b#b<b7cFcFcFcFcFcFcFcFcFcF",
"cFcFcFcFcFcFcFcFcFcFb<b.b7b#b#b#b#b#b#b#b#b#b#b#b#b#b#b#b#b#b#b#b#b#b#b#b#b#b#b#b#b#b#b#b#b#b#b#b#b#b#b#b#b#b#b#b#b#b#b#b#b#b#b#b#b#b#b#b#b#b#b#b#b#b#b#b#b#b#b#b#b#b#b#b#b#b#b#b#b#b#b#b#b#b#b#b#b#b#b#b#b#b#b#bScmbpa#bda;a;a;a;a;a;a;a;a;a;a;a;a;a;a;a;a;a;a;a;a;a;a;a;a;a;a;a;a;a;a;a;a;a;a;a;a;a;bba+bhchbSb#b#b#b#b#b#b#b#b#b#b#b#b#b#b#b#b#b#b#b#b#b#b#b#b#b#b#b#b#b#b#b#b#b#b#b#b#b#b#b#b#b#b#b#b#b#b#b#b#b#b#b#b#b#b#b#b#b#b#b#b#b#b#b#b#b#b#b#b#b#b#b#b#b#b#b#b#b#b#b#b#b#b#b#b#b#b#b#b#b#b#b#b<b7cFcFcFcFcFcFcFcFcFcF",
"cFcFcFcFcFcFcFcFcFcFb;b#b7b#b#b#b#b#b#b#b#b#b#b#b#b#b#b#b#b#b#b#b#b#b#b#b#b#b#b#b#b#b#b#b#b#b#b#b#b#b#b#b#b#b#b#b#b#b#b#b#b#b#b#b#b#b#b#b#b#b#b#b#b#b#b#b#b#b#b#b#b#b#b#b#b#b#b#b#b#b#b#b#b#b#b#b#b#b#b#b#b#b#b#bGcmbpa#bca;a;a;a;a;a;a;a;a;a;a;a;a;a;a;a;a;a;a;a;a;a;a;a;a;a;a;a;a;a;a;a;a;a;a;a;a;a;bda#bpcmbGb#b#b#b#b#b#b#b#b#b#b#b#b#b#b#b#b#b#b#b#b#b#b#b#b#b#b#b#b#b#b#b#b#b#b#b#b#b#b#b#b#b#b#b#b#b#b#b#b#b#b#b#b#b#b#b#b#b#b#b#b#b#b#b#b#b#b#b#b#b#b#b#b#b#b#b#b#b#b#b#b#b#b#b#b#b#b#b#b#b#b#b6b#b6cFcFcFcFcFcFcFcFcFcF",
"cFcFcFcFcFcFcFcFcFcFb;b#b7b#b#b#b#b#b#b#b#b#b#b#b#b#b#b#b#b#b#b#b#b#b#b#b#b#b#b#b#b#b#b#b#b#b#b#b#b#b#b#b#b#b#b#b#b#b#b#b#b#b#b#b#b#b#b#b#b#b#b#b#b#b#b#b#b#b#b#b#b#b#b#b#b#b#b#b#b#b#b#b#b#b#b#b#b#b#b#b#b#b#b#bSchbqa@a2a;a;a;a;a;a;a;a;a;a;a;a;a;a;a;a;a;a;a;a;a;a;a;a;a;a;a;a;a;a;a;a;a;a;a;a;a;a;bca#bqcmbGb#b#b#b#b#b#b#b#b#b#b#b#b#b#b#b#b#b#b#b#b#b#b#b#b#b#b#b#b#b#b#b#b#b#b#b#b#b#b#b#b#b#b#b#b#b#b#b#b#b#b#b#b#b#b#b#b#b#b#b#b#b#b#b#b#b#b#b#b#b#b#b#b#b#b#b#b#b#b#b#b#b#b#b#b#b#b#b#b#b#b#b6b#b6cFcFcFcFcFcFcFcFcFcF",
"cFcFcFcFcFcFcFcFcFcFb;b#b7b#b#b#b#b#b#b#b#b#b#b#b#b#b#b#b#b#b#b#b#b#b#b#b#b#b#b#b#b#b#b#b#b#b#b#b#b#b#b#b#b#b#b#b#b#b#b#b#b#b#b#b#b#b#b#b#b#b#b#b#b#b#b#b#b#b#b#b#b#b#b#b#b#b#b#b#b#b#b#b#b#b#b#b#b#b#b#b#b#b#b#b9b7bzbfa*a:a;a;a;a;a;a;a;a;a;a;a;a;a;a;a;a;a;a;a;a;a;a;a;a;a;a;a;a;a;a;a;a;a;a;a;a;a;a;a;bwcdbXb#b#b#b#b#b#b#b#b#b#b#b#b#b#b#b#b#b#b#b#b#b#b#b#b#b#b#b#b#b#b#b#b#b#b#b#b#b#b#b#b#b#b#b#b#b#b#b#b#b#b#b#b#b#b#b#b#b#b#b#b#b#b#b#b#b#b#b#b#b#b#b#b#b#b#b#b#b#b#b#b#b#b#b#b#b#b#b#b#b#b#b6b#b6cFcFcFcFcFcFcFcFcFcF",
"cFcFcFcFcFcFcFcFcFcFb;b#b7b#b#b#b#b#b#b#b#b#b#b#b#b#b#b#b#b#b#b#b#b#b#b#b#b#b#b#b#b#b#b#b#b#b#b#b#b#b#b#b#b#b#b#b#b#b#b#b#b#b#b#b#b#b#b#b#b#b#b#b#b#b#b#b#b#b#b#b#b#b#b#b#b#b#b#b#b#b#b#b#b#b#b#b#b#b#b#b#b#b#b#b#bSchbha+bda;a;a;a;a;a;a;a;a;a;a;a;a;a;a;a;a;a;a;a;a;a;a;a;a;a;a;a;a;a;a;a;a;a;a;a;bba@bhcbb9b#b#b#b#b#b#b#b#b#b#b#b#b#b#b#b#b#b#b#b#b#b#b#b#b#b#b#b#b#b#b#b#b#b#b#b#b#b#b#b#b#b#b#b#b#b#b#b#b#b#b#b#b#b#b#b#b#b#b#b#b#b#b#b#b#b#b#b#b#b#b#b#b#b#b#b#b#b#b#b#b#b#b#b#b#b#b#b#b#b#b#b#b6b#b6cFcFcFcFcFcFcFcFcFcF",
"cFcFcFcFcFcFcFcFcFcFb:b.b8b.b.b.b.b.b.b.b.b.b.b.b.b.b.b.b.b.b.b.b.b.b.b.b.b.b.b.b.b.b.b.b.b.b.b.b.b.b.b.b.b.b.b.b.b.b.b.b.b.b.b.b.b.b.b.b.b.b.b.b.b.b.b.b.b.b.b.b.b.b.b.b.b.b.b.b.b.b.b.b.b.b.b.b.b.b.b.b.b.b.b.b.bGcmbqa#bda;a;a;a;a;a;a;a;a;a;a;a;a;a;a;a;a;a;a;a;a;a;a;a;a;a;a;a;a;a;a;a;a;a;a;a;bda#bpcmbGb.b.b.b.b.b.b.b.b.b.b.b.b.b.b.b.b.b.b.b.b.b.b.b.b.b.b.b.b.b.b.b.b.b.b.b.b.b.b.b.b.b.b.b.b.b.b.b.b.b.b.b.b.b.b.b.b.b.b.b.b.b.b.b.b.b.b.b.b.b.b.b.b.b.b.b.b.b.b.b.b.b.b.b.b.b.b.b.b.b.b.b.b7b#b7cFcFcFcFcFcFcFcFcFcF",
"cFcFcFcFcFcFcFcFcFcFb:b.b8b.b.b.b.b.b.b.b.b.b.b.b.b.b.b.b.b.b.b.b.b.b.b.b.b.b.b.b.b.b.b.b.b.b.b.b.b.b.b.b.b.b.b.b.b.b.b.b.b.b.b.b.b.b.b.b.b.b.b.b.b.b.b.b.b.b.b.b.b.b.b.b.b.b.b.b.b.b.b.b.b.b.b.b.b.b.b.b.b.b.b.b.b.b3bGbfa@a2a;a;a;a;a;a;a;a;a;a;a;a;a;a;a;a;a;a;a;a;a;a;a;a;a;a;a;a;a;a;a;a;a;a;a;a-bdbxcdbXb.b.b.b.b.b.b.b.b.b.b.b.b.b.b.b.b.b.b.b.b.b.b.b.b.b.b.b.b.b.b.b.b.b.b.b.b.b.b.b.b.b.b.b.b.b.b.b.b.b.b.b.b.b.b.b.b.b.b.b.b.b.b.b.b.b.b.b.b.b.b.b.b.b.b.b.b.b.b.b.b.b.b.b.b.b.b.b.b.b.b.b.b7b#b7cFcFcFcFcFcFcFcFcFcF",
"cFcFcFcFcFcFcFcFcFcFb:b.b8b.b.b.b.b.b.b.b.b.b.b.b.b.b.b.b.b.b.b.b.b.b.b.b.b.b.b.b.b.b.b.b.b.b.b.b.b.b.b.b.b.b.b.b.b.b.b.b.b.b.b.b.b.b.b.b.b.b.b.b.b.b.b.b.b.b.b.b.b.b.b.b.b.b.b.b.b.b.b.b.b.b.b.b.b.b.b.b.b.b.b.b.b.bGcmbpa9bda;a;a;a;a;a;a;a;a;a;a;a;a;a;a;a;a;a;a;a;a;a;a;a;a;a;a;a;a;a;a;a;a;a;bda#bpcmbGb.b.b.b.b.b.b.b.b.b.b.b.b.b.b.b.b.b.b.b.b.b.b.b.b.b.b.b.b.b.b.b.b.b.b.b.b.b.b.b.b.b.b.b.b.b.b.b.b.b.b.b.b.b.b.b.b.b.b.b.b.b.b.b.b.b.b.b.b.b.b.b.b.b.b.b.b.b.b.b.b.b.b.b.b.b.b.b.b.b.b.b.b.b7b#b7cFcFcFcFcFcFcFcFcFcF",
"cFcFcFcFcFcFcFcFcFcFb:b.b8b.b.b.b.b.b.b.b.b.b.b.b.b.b.b.b.b.b.b.b.b.b.b.b.b.b.b.b.b.b.b.b.b.b.b.b.b.b.b.b.b.b.b.b.b.b.b.b.b.b.b.b.b.b.b.b.b.b.b.b.b.b.b.b.b.b.b.b.b.b.b.b.b.b.b.b.b.b.b.b.b.b.b.b.b.b.b.b.b.b.b.b.b.b.b3bGbfa@a2a;a;a;a;a;a;a;a;a;a;a;a;a;a;a;a;a;a;a;a;a;a;a;a;a;a;a;a;a;a;a;a;a:a-bdbxcdb#b.b.b.b.b.b.b.b.b.b.b.b.b.b.b.b.b.b.b.b.b.b.b.b.b.b.b.b.b.b.b.b.b.b.b.b.b.b.b.b.b.b.b.b.b.b.b.b.b.b.b.b.b.b.b.b.b.b.b.b.b.b.b.b.b.b.b.b.b.b.b.b.b.b.b.b.b.b.b.b.b.b.b.b.b.b.b.b.b.b.b.b.b.b7b#b7cFcFcFcFcFcFcFcFcFcF",
"cFcFcFcFcFcFcFcFcFcFb:b1b:b:b:b:b:b:b:b:b:b:b:b:b:b:b:b:b:b:b:b:b:b:b:b:b:b:b:b:b:b:b:b:b:b:b:b:b:b:b:b:b:b:b:b:b:b:b:b:b:b:b:b:b:b:b:b:b:b:b:b:b:b:b:b:b:b:b:b:b:b:b:b:b:b:b:b:b:b:b:b:b:b:b:b:b:b:b:b:b:b:b:b:b:b:b:bMckbqa#bda;a;a;a;a;a;a;a;a;a;a;a;a;a;a;a;a;a;a;a;a;a;a;a;a;a;a;a;a;a;a;a;bda9bpcmbMb:b:b:b:b:b:b:b:b:b:b:b:b:b:b:b:b:b:b:b:b:b:b:b:b:b:b:b:b:b:b:b:b:b:b:b:b:b:b:b:b:b:b:b:b:b:b:b:b:b:b:b:b:b:b:b:b:b:b:b:b:b:b:b:b:b:b:b:b:b:b:b:b:b:b:b:b:b:b:b:b:b:b:b:b:b:b:b:b:b:b:b:b:b:b;b;b:cFcFcFcFcFcFcFcFcFcF",
"cFcFcFcFcFcFcFcFcFcFb:b1b:b:b:b:b:b:b:b:b:b:b:b:b:b:b:b:b:b:b:b:b:b:b:b:b:b:b:b:b:b:b:b:b:b:b:b:b:b:b:b:b:b:b:b:b:b:b:b:b:b:b:b:b:b:b:b:b:b:b:b:b:b:b:b:b:b:b:b:b:b:b:b:b:b:b:b:b:b:b:b:b:b:b:b:b:b:b:b:b:b:b:b:b:b:b:b:b1ckbha9bda;a;a;a;a;a;a;a;a;a;a;a;a;a;a;a;a;a;a;a;a;a;a;a;a;a;a;a;a;a;bda+bhcdb;b:b:b:b:b:b:b:b:b:b:b:b:b:b:b:b:b:b:b:b:b:b:b:b:b:b:b:b:b:b:b:b:b:b:b:b:b:b:b:b:b:b:b:b:b:b:b:b:b:b:b:b:b:b:b:b:b:b:b:b:b:b:b:b:b:b:b:b:b:b:b:b:b:b:b:b:b:b:b:b:b:b:b:b:b:b:b:b:b:b:b:b:b:b:b:b;b;b:cFcFcFcFcFcFcFcFcFcF",
"cFcFcFcFcFcFcFcFcFcFb:b1b:b:b:b:b:b:b:b:b:b:b:b:b:b:b:b:b:b:b:b:b:b:b:b:b:b:b:b:b:b:b:b:b:b:b:b:b:b:b:b:b:b:b:b:b:b:b:b:b:b:b:b:b:b:b:b:b:b:b:b:b:b:b:b:b:b:b:b:b:b:b:b:b:b:b:b:b:b:b:b:b:b:b:b:b:b:b:b:b:b:b:b:b:b:b:b:b;b7bMbfa+bda;a;a;a;a;a;a;a;a;a;a;a;a;a;a;a;a;a;a;a;a;a;a;a;a;a;a;a;bca@bfbxcdb5b:b:b:b:b:b:b:b:b:b:b:b:b:b:b:b:b:b:b:b:b:b:b:b:b:b:b:b:b:b:b:b:b:b:b:b:b:b:b:b:b:b:b:b:b:b:b:b:b:b:b:b:b:b:b:b:b:b:b:b:b:b:b:b:b:b:b:b:b:b:b:b:b:b:b:b:b:b:b:b:b:b:b:b:b:b:b:b:b:b:b:b:b:b:b:b;b;b:cFcFcFcFcFcFcFcFcFcF",
"cFcFcFcFcFcFcFcFcFcFb6b1b7b:b:b:b:b:b:b:b:b:b:b:b:b:b:b:b:b:b:b:b:b:b:b:b:b:b:b:b:b:b:b:b:b:b:b:b:b:b:b:b:b:b:b:b:b:b:b:b:b:b:b:b:b:b:b:b:b:b:b:b:b:b:b:b:b:b:b:b:b:b:b:b:b:b:b:b:b:b:b:b:b:b:b:b:b:b:b:b:b:b:b:b:b:b:b:b:b1cebxbfa@bda;a;a;a;a;a;a;a;a;a;a;a;a;a;a;a;a;a;a;a;a;a;a;a;a;a;bca*a:bwckbMb:b:b:b:b:b:b:b:b:b:b:b:b:b:b:b:b:b:b:b:b:b:b:b:b:b:b:b:b:b:b:b:b:b:b:b:b:b:b:b:b:b:b:b:b:b:b:b:b:b:b:b:b:b:b:b:b:b:b:b:b:b:b:b:b:b:b:b:b:b:b:b:b:b:b:b:b:b:b:b:b:b:b:b:b:b:b:b:b:b:b:b:b:b:b:b:b;b;b:cFcFcFcFcFcFcFcFcFcF",
"cFcFcFcFcFcFcFcFcFcFb6b1b7b:b:b:b:b:b:b:b:b:b:b:b:b:b:b:b:b:b:b:b:b:b:b:b:b:b:b:b:b:b:b:b:b:b:b:b:b:b:b:b:b:b:b:b:b:b:b:b:b:b:b:b:b:b:b:b:b:b:b:b:b:b:b:b:b:b:b:b:b:b:b:b:b:b:b:b:b:b:b:b:b:b:b:b:b:b:b:b:b:b:b:b:b:b:b:b:b:bMchbwbfa+a2a;a;a;a;a;a;a;a;a;a;a;a;a;a;a;a;a;a;a;a;a;a;a;a;a2a@a2bucmbMb:b:b:b:b:b:b:b:b:b:b:b:b:b:b:b:b:b:b:b:b:b:b:b:b:b:b:b:b:b:b:b:b:b:b:b:b:b:b:b:b:b:b:b:b:b:b:b:b:b:b:b:b:b:b:b:b:b:b:b:b:b:b:b:b:b:b:b:b:b:b:b:b:b:b:b:b:b:b:b:b:b:b:b:b:b:b:b:b:b:b:b:b:b:b:b:b:b;b;b:cFcFcFcFcFcFcFcFcFcF",
"cFcFcFcFcFcFcFcFcFcFb6b1b7b:b:b:b:b:b:b:b:b:b:b:b:b:b:b:b:b:b:b:b:b:b:b:b:b:b:b:b:b:b:b:b:b:b:b:b:b:b:b:b:b:b:b:b:b:b:b:b:b:b:b:b:b:b:b:b:b:b:b:b:b:b:b:b:b:b:b:b:b:b:b:b:b:b:b:b:b:b:b:b:b:b:b:b:b:b:b:b:b:b:b:b:b:b:b:b:b:b:bMchbxbfa=a2a:a;a;a;a;a;a;a;a;a;a;a;a;a;a;a;a;a;a;a;a;a:a2a=bfbwckbMb:b:b:b:b:b:b:b:b:b:b:b:b:b:b:b:b:b:b:b:b:b:b:b:b:b:b:b:b:b:b:b:b:b:b:b:b:b:b:b:b:b:b:b:b:b:b:b:b:b:b:b:b:b:b:b:b:b:b:b:b:b:b:b:b:b:b:b:b:b:b:b:b:b:b:b:b:b:b:b:b:b:b:b:b:b:b:b:b:b:b:b:b:b:b:b:b:b:b;b;b:cFcFcFcFcFcFcFcFcFcF",
"cFcFcFcFcFcFcFcFcFcFb6b1b7b:b:b:b:b:b:b:b:b:b:b:b:b:b:b:b:b:b:b:b:b:b:b:b:b:b:b:b:b:b:b:b:b:b:b:b:b:b:b:b:b:b:b:b:b:b:b:b:b:b:b:b:b:b:b:b:b:b:b:b:b:b:b:b:b:b:b:b:b:b:b:b:b:b:b:b:b:b:b:b:b:b:b:b:b:b:b:b:b:b:b:b:b:b:b:b:b:b:b:bMcebGbfa=baa:a:a;a;a;a;a;a;a;a;a;a;a;a;a;a;a;a;a:a:a-a=a.bxcmbMb:b:b:b:b:b:b:b:b:b:b:b:b:b:b:b:b:b:b:b:b:b:b:b:b:b:b:b:b:b:b:b:b:b:b:b:b:b:b:b:b:b:b:b:b:b:b:b:b:b:b:b:b:b:b:b:b:b:b:b:b:b:b:b:b:b:b:b:b:b:b:b:b:b:b:b:b:b:b:b:b:b:b:b:b:b:b:b:b:b:b:b:b:b:b:b:b:b:b:b;b;b:cFcFcFcFcFcFcFcFcFcF",
"cFcFcFcFcFcFcFcFcFcFb6b.b7b;b;b;b;b;b;b;b;b;b;b;b;b;b;b;b;b;b;b;b;b;b;b;b;b;b;b;b;b;b;b;b;b;b;b;b;b;b;b;b;b;b;b;b;b;b;b;b;b;b;b;b;b;b;b;b;b;b;b;b;b;b;b;b;b;b;b;b;b;b;b;b;b;b;b;b;b;b;b;b;b;b;b;b;b;b;b;b;b;b;b;b;b;b;b;b;b;b;b;b1cgbuaxa8a.babaa:a2a2a;a;a;a;a;a;a;a;a;a;a2a2a:babaa.a8axbocob1b;b;b;b;b;b;b;b;b;b;b;b;b;b;b;b;b;b;b;b;b;b;b;b;b;b;b;b;b;b;b;b;b;b;b;b;b;b;b;b;b;b;b;b;b;b;b;b;b;b;b;b;b;b;b;b;b;b;b;b;b;b;b;b;b;b;b;b;b;b;b;b;b;b;b;b;b;b;b;b;b;b;b;b;b;b;b;b;b;b;b;b;b;b;b;b;b;b;b;b6b;b:cFcFcFcFcFcFcFcFcFcF",
"cFcFcFcFcFcFcFcFcFcFb6b.b7b;b;b;b;b;b;b;b;b;b;b;b;b;b;b;b;b;b;b;b;b;b;b;b;b;b;b;b;b;b;b;b;b;b;b;b;b;b;b;b;b;b;b;b;b;b;b;b;b;b;b;b;b;b;b;b;b;b;b;b;b;b;b;b;b;b;b;b;b;b;b;b;b;b;b;b;b;b;b;b;b;b;b;b;b;b;b;b;b;b;b;b;b;b;b;b;b;b;b;b;caa,aBaIaKa8a.baa=a@a;bbbdbdbdbdbdbdbca:a@a=baa.a8a5aIaBa<b;b;b;b;b;b;b;b;b;b;b;b;b;b;b;b;b;b;b;b;b;b;b;b;b;b;b;b;b;b;b;b;b;b;b;b;b;b;b;b;b;b;b;b;b;b;b;b;b;b;b;b;b;b;b;b;b;b;b;b;b;b;b;b;b;b;b;b;b;b;b;b;b;b;b;b;b;b;b;b;b;b;b;b;b;b;b;b;b;b;b;b;b;b;b;b;b;b;b;b;b;b6b;b:cFcFcFcFcFcFcFcFcFcF",
"cFcFcFcFcFcFcFcFcFcFb6b.b7b;b;b;b;b;b;b;b;b;b;b;b;b;b;b;b;b;b;b;b;b;b;b;b;b;b;b;b;b;b;b;b;b;b;b;b;b;b;b;b;b;b;b;b;b;b;b;b;b;b;b;b;b;b;b;b;b;b;b;b;b;b;b;b;b;b;b;b;b;b;b;b;b;b;b;b;b;b;b;b;b;b;b;b;b;b;b;b;b;b;b;b;b;b;b;b;b;b;b1cpboawa3aKaKaIaLa8bfbfa*a+a#a#a#a#a#a#a+a*bfbfa8a5aIaHaKa3aubocub1b;b;b;b;b;b;b;b;b;b;b;b;b;b;b;b;b;b;b;b;b;b;b;b;b;b;b;b;b;b;b;b;b;b;b;b;b;b;b;b;b;b;b;b;b;b;b;b;b;b;b;b;b;b;b;b;b;b;b;b;b;b;b;b;b;b;b;b;b;b;b;b;b;b;b;b;b;b;b;b;b;b;b;b;b;b;b;b;b;b;b;b;b;b;b;b;b;b;b6b;b:cFcFcFcFcFcFcFcFcFcF",
"cFcFcFcFcFcFcFcFcFcFb6b.b7b;b;b;b;b;b;b;b;b;b;b;b;b;b;b;b;b;b;b;b;b;b;b;b;b;b;b;b;b;b;b;b;b;b;b;b;b;b;b;b;b;b;b;b;b;b;b;b;b;b;b;b;b;b;b;b;b;b;b;b;b;b;b;b;b;b;b;b;b;b;b;b;b;b;b;b;b;b;b;b;b;b;b;b;b;b;b;b;b;b;b;b;b;b;b;b;b;b;b;b7a,aAa3aKaKaKa3axbvcabwbqbpbpbhbhbpbpbqbwb4bya7aGa5aKaKa3aCa<b;b;b;b;b;b;b;b;b;b;b;b;b;b;b;b;b;b;b;b;b;b;b;b;b;b;b;b;b;b;b;b;b;b;b;b;b;b;b;b;b;b;b;b;b;b;b;b;b;b;b;b;b;b;b;b;b;b;b;b;b;b;b;b;b;b;b;b;b;b;b;b;b;b;b;b;b;b;b;b;b;b;b;b;b;b;b;b;b;b;b;b;b;b;b;b;b;b;b;b;b6b;b:cFcFcFcFcFcFcFcFcFcF",
"cFcFcFcFcFcFcFcFcFcFb6b#b7b;b;b;b;b;b;b;b;b;b;b;b;b;b;b;b;b;b;b;b;b;b;b;b;b;b;b;b;b;b;b;b;b;b;b;b;b;b;b;b;b;b;b;b;b;b;b;b;b;b;b;b;b;b;b;b;b;b;b;b;b;b;b;b;b;b;b;b;b;b;b;b;b;b;b;b;b;b;b;b;b;b;b;b;b;b;b;b;b;b;b;b;b;b;b;b;b;bPcpboawa3aKaKaKa3aza3cgbQceckckckckckckckckceb*coa6aua3aKaKaKa3aubncubPb;b;b;b;b;b;b;b;b;b;b;b;b;b;b;b;b;b;b;b;b;b;b;b;b;b;b;b;b;b;b;b;b;b;b;b;b;b;b;b;b;b;b;b;b;b;b;b;b;b;b;b;b;b;b;b;b;b;b;b;b;b;b;b;b;b;b;b;b;b;b;b;b;b;b;b;b;b;b;b;b;b;b;b;b;b;b;b;b;b;b;b;b;b;b;b;b;b6b;b:cFcFcFcFcFcFcFcFcFcF",
"cFcFcFcFcFcFcFcFcFcFb6b#b7b;b;b;b;b;b;b;b;b;b;b;b;b;b;b;b;b;b;b;b;b;b;b;b;b;b;b;b;b;b;b;b;b;b;b;b;b;b;b;b;b;b;b;b;b;b;b;b;b;b;b;b;b;b;b;b;b;b;b;b;b;b;b;b;b;b;b;b;b;b;b;b;b;b;b;b;b;b;b;b;b;b;b;b;b;b;b;b;b;b;b;b;b;b;b;b;b;b;b7a,aAa3aKaKaKaKaDbucfbPbSbMbGbGbMbMbGbGbMbSbPb7bxa7aFaKaKaKa3aCa<b;b;b;b;b;b;b;b;b;b;b;b;b;b;b;b;b;b;b;b;b;b;b;b;b;b;b;b;b;b;b;b;b;b;b;b;b;b;b;b;b;b;b;b;b;b;b;b;b;b;b;b;b;b;b;b;b;b;b;b;b;b;b;b;b;b;b;b;b;b;b;b;b;b;b;b;b;b;b;b;b;b;b;b;b;b;b;b;b;b;b;b;b;b;b;b;b;b;b;b6b;b:cFcFcFcFcFcFcFcFcFcF",
"cFcFcFcFcFcFcFcFcFcFb6b#b7b;b;b;b;b;b;b;b;b;b;b;b;b;b;b;b;b;b;b;b;b;b;b;b;b;b;b;b;b;b;b;b;b;b;b;b;b;b;b;b;b;b;b;b;b;b;b;b;b;b;b;b;b;b;b;b;b;b;b;b;b;b;b;b;b;b;b;b;b;b;b;b;b;b;b;b;b;b;b;b;b;b;b;b;b;b;b;b;b;b;b;b;b;b;b;b;bPcpboawa3aKaKaKa3awa3cgbPb;b;b;b;b;b;b;b;b;b;b;b;bPcva6aua3aKaKaKa3aubncubPb;b;b;b;b;b;b;b;b;b;b;b;b;b;b;b;b;b;b;b;b;b;b;b;b;b;b;b;b;b;b;b;b;b;b;b;b;b;b;b;b;b;b;b;b;b;b;b;b;b;b;b;b;b;b;b;b;b;b;b;b;b;b;b;b;b;b;b;b;b;b;b;b;b;b;b;b;b;b;b;b;b;b;b;b;b;b;b;b;b;b;b;b;b;b;b;b6b;b:cFcFcFcFcFcFcFcFcFcF",
"cFcFcFcFcFcFcFcFcFcFb#b#b#b#b#b#b#b#b#b#b#b#b#b#b#b#b#b#b#b#b#b#b#b#b#b#b#b#b#b#b#b#b#b#b#b#b#b#b#b#b#b#b#b#b#b#b#b#b#b#b#b#b#b#b#b#b#b#b#b#b#b#b#b#b#b#b#b#b#b#b#b#b#b#b#b#b#b#b#b#b#b#b#b#b#b#b#b#b#b#b#b#b#b#b#b#b#b6b;b6b7a,aAa3aKaKaKaKaDbucgbTb6b#b#b#b#b#b#b#b#b#b#b6b;b7bxa7aFaKaKaKa3aCa<b#b<b;b6b#b#b#b#b#b#b#b#b#b#b#b#b#b#b#b#b#b#b#b#b#b#b#b#b#b#b#b#b#b#b#b#b#b#b#b#b#b#b#b#b#b#b#b#b#b#b#b#b#b#b#b#b#b#b#b#b#b#b#b#b#b#b#b#b#b#b#b#b#b#b#b#b#b#b#b#b#b#b#b#b#b#b#b#b#b#b#b#b#b#b#b#b#b#b#b,b#cFcFcFcFcFcFcFcFcFcF",
"cFcFcFcFcFcFcFcFcFcFb#b#b#b#b#b#b#b#b#b#b#b#b#b#b#b#b#b#b#b#b#b#b#b#b#b#b#b#b#b#b#b#b#b#b#b#b#b#b#b#b#b#b#b#b#b#b#b#b#b#b#b#b#b#b#b#b#b#b#b#b#b#b#b#b#b#b#b#b#b#b#b#b#b#b#b#b#b#b#b#b#b#b#b#b#b#b#b#b#b#b#b#b#b#b#b#b#b#bTcpboawa3aKaKaKa3awa3cobTb#b#b#b#b#b#b#b#b#b#b#b#b#b#bTcsa6aua3aKaKaKa3aubncsbTb#b#b#b#b#b#b#b#b#b#b#b#b#b#b#b#b#b#b#b#b#b#b#b#b#b#b#b#b#b#b#b#b#b#b#b#b#b#b#b#b#b#b#b#b#b#b#b#b#b#b#b#b#b#b#b#b#b#b#b#b#b#b#b#b#b#b#b#b#b#b#b#b#b#b#b#b#b#b#b#b#b#b#b#b#b#b#b#b#b#b#b#b#b#b#b#b,b#cFcFcFcFcFcFcFcFcFcF",
"cFcFcFcFcFcFcFcFcFcFb#b#b#b#b#b#b#b#b#b#b#b#b#b#b#b#b#b#b#b#b#b#b#b#b#b#b#b#b#b#b#b#b#b#b#b#b#b#b#b#b#b#b#b#b#b#b#b#b#b#b#b#b#b#b#b#b#b#b#b#b#b#b#b#b#b#b#b#b#b#b#b#b#b#b#b#b#b#b#b#b#b#b#b#b#b#b#b#b#b#b#b#b#b#b#b#b#b#b#b7a,aAa3aKaKaKaKaDbucgbTb#b#b#b#b#b#b#b#b#b#b#b#b#b#b#b7bxa7aFaKaKaKa3aCa<b#b#b#b#b#b#b#b#b#b#b#b#b#b#b#b#b#b#b#b#b#b#b#b#b#b#b#b#b#b#b#b#b#b#b#b#b#b#b#b#b#b#b#b#b#b#b#b#b#b#b#b#b#b#b#b#b#b#b#b#b#b#b#b#b#b#b#b#b#b#b#b#b#b#b#b#b#b#b#b#b#b#b#b#b#b#b#b#b#b#b#b#b#b#b#b#b#b#b,b#cFcFcFcFcFcFcFcFcFcF",
"cFcFcFcFcFcFcFcFcFcFb#b#b#b#b#b#b#b#b#b#b#b#b#b#b#b#b#b#b#b#b#b#b#b#b#b#b#b#b#b#b#b#b#b#b#b#b#b#b#b#b#b#b#b#b#b#b#b#b#b#b#b#b#b#b#b#b#b#b#b#b#b#b#b#b#b#b#b#b#b#b#b#b#b#b#b#b#b#b#b#b#b#b#b#b#b#b#b#b#b#b#b#b#b#b#b#b#bTcpboawa3aKaKaKa3awa3cobTb#b#b#b#b#b#b#b#b#b#b#b#b#b#b#b#bTcsa6aua3aKaKaKa3aubncsbTb#b#b#b#b#b#b#b#b#b#b#b#b#b#b#b#b#b#b#b#b#b#b#b#b#b#b#b#b#b#b#b#b#b#b#b#b#b#b#b#b#b#b#b#b#b#b#b#b#b#b#b#b#b#b#b#b#b#b#b#b#b#b#b#b#b#b#b#b#b#b#b#b#b#b#b#b#b#b#b#b#b#b#b#b#b#b#b#b#b#b#b#b#b#b#b,b#cFcFcFcFcFcFcFcFcFcF",
"cFcFcFcFcFcFcFcFcFcFb.b.b7b.b.b.b.b.b.b.b.b.b.b.b.b.b.b.b.b.b.b.b.b.b.b.b.b.b.b.b.b.b.b.b.b.b.b.b.b.b.b.b.b.b.b.b.b.b.b.b.b.b.b.b.b.b.b.b.b.b.b.b.b.b.b.b.b.b.b.b.b.b.b.b.b.b.b.b.b.b.b.b.b.b.b.b.b.b.b.b.b.b.b.b.b.b.b.caa,aAa3aKaKaKaKaDbucgbUb.b.b.b.b.b.b.b.b.b.b.b.b.b.b.b.b#cabya7aFaKaKaKa3aCa<b.b.b.b.b.b.b.b.b.b.b.b.b.b.b.b.b.b.b.b.b.b.b.b.b.b.b.b.b.b.b.b.b.b.b.b.b.b.b.b.b.b.b.b.b.b.b.b.b.b.b.b.b.b.b.b.b.b.b.b.b.b.b.b.b.b.b.b.b.b.b.b.b.b.b.b.b.b.b.b.b.b.b.b.b.b.b.b.b.b.b.b.b.b.b.b.b#b.b#cFcFcFcFcFcFcFcFcFcF",
"cFcFcFcFcFcFcFcFcFcFb.b.b7b.b.b.b.b.b.b.b.b.b.b.b.b.b.b.b.b.b.b.b.b.b.b.b.b.b.b.b.b.b.b.b.b.b.b.b.b.b.b.b.b.b.b.b.b.b.b.b.b.b.b.b.b.b.b.b.b.b.b.b.b.b.b.b.b.b.b.b.b.b.b.b.b.b.b.b.b.b.b.b.b.b.b.b.b.b.b.b.b.b.b.b.b.bUcsboawa3aKaKaKa3awa3cpbUb.b.b.b.b.b.b.b.b.b.b.b.b.b.b.b.b.b.bTcsa6aua4aKaKaKa3aubncsbUb.b.b.b.b.b.b.b.b.b.b.b.b.b.b.b.b.b.b.b.b.b.b.b.b.b.b.b.b.b.b.b.b.b.b.b.b.b.b.b.b.b.b.b.b.b.b.b.b.b.b.b.b.b.b.b.b.b.b.b.b.b.b.b.b.b.b.b.b.b.b.b.b.b.b.b.b.b.b.b.b.b.b.b.b.b.b.b.b.b.b.b.b.b#b.b#cFcFcFcFcFcFcFcFcFcF",
"cFcFcFcFcFcFcFcFcFcFb.b.b7b.b.b.b.b.b.b.b.b.b.b.b.b.b.b.b.b.b.b.b.b.b.b.b.b.b.b.b.b.b.b.b.b.b.b.b.b.b.b.b.b.b.b.b.b.b.b.b.b.b.b.b.b.b.b.b.b.b.b.b.b.b.b.b.b.b.b.b.b.b.b.b.b.b.b.b.b.b.b.b.b.b.b.b.b.b.b.b.b.b.b.b.b.b.caa,aAa3aKaKaKaKaDbucgbUb.b.b.b.b.b.b.b.b.b.b.b.b.b.b.b.b.b.b.cabya7aFaKaKaKa3aCa<b.b.b.b.b.b.b.b.b.b.b.b.b.b.b.b.b.b.b.b.b.b.b.b.b.b.b.b.b.b.b.b.b.b.b.b.b.b.b.b.b.b.b.b.b.b.b.b.b.b.b.b.b.b.b.b.b.b.b.b.b.b.b.b.b.b.b.b.b.b.b.b.b.b.b.b.b.b.b.b.b.b.b.b.b.b.b.b.b.b.b.b.b.b.b.b#b.b#cFcFcFcFcFcFcFcFcFcF",
"cFcFcFcFcFcFcFcFcFcFb.b.b7b.b.b.b.b.b.b.b.b.b.b.b.b.b.b.b.b.b.b.b.b.b.b.b.b.b.b.b.b.b.b.b.b.b.b.b.b.b.b.b.b.b.b.b.b.b.b.b.b.b.b.b.b.b.b.b.b.b.b.b.b.b.b.b.b.b.b.b.b.b.b.b.b.b.b.b.b.b.b.b.b.b.b.b.b.b.b.b.b.b.b.b.bUcsboawa3aKaKaKa3awa3cpbUb.b.b.b.b.b.b.b.b.b.b.b.b.b.b.b.b.b.b.b.bTcsa6aua4aKaKaKa3aubncsbUb.b.b.b.b.b.b.b.b.b.b.b.b.b.b.b.b.b.b.b.b.b.b.b.b.b.b.b.b.b.b.b.b.b.b.b.b.b.b.b.b.b.b.b.b.b.b.b.b.b.b.b.b.b.b.b.b.b.b.b.b.b.b.b.b.b.b.b.b.b.b.b.b.b.b.b.b.b.b.b.b.b.b.b.b.b.b.b.b.b.b.b.b#b.b#cFcFcFcFcFcFcFcFcFcF",
"cFcFcFcFcFcFcFcFcFcFb.b.b7b.b.b.b.b.b.b.b.b.b.b.b.b.b.b.b.b.b.b.b.b.b.b.b.b.b.b.b.b.b.b.b.b.b.b.b.b.b.b.b.b.b.b.b.b.b.b.b.b.b.b.b.b.b.b.b.b.b.b.b.b.b.b.b.b.b.b.b.b.b.b.b.b.b.b.b.b.b.b.b.b.b.b.b.b.b.b.b.b.b.b.b.b.caa,aAa3aKaKaKaKaDbucfbUb.b.b.b.b.b.b.b.b.b.b.b.b.b.b.b.b.b.b.b.b.cabxa7aFaKaKaKa3aCa<b.b.b.b.b.b.b.b.b.b.b.b.b.b.b.b.b.b.b.b.b.b.b.b.b.b.b.b.b.b.b.b.b.b.b.b.b.b.b.b.b.b.b.b.b.b.b.b.b.b.b.b.b.b.b.b.b.b.b.b.b.b.b.b.b.b.b.b.b.b.b.b.b.b.b.b.b.b.b.b.b.b.b.b.b.b.b.b.b.b.b.b.b.b.b6b.b#cFcFcFcFcFcFcFcFcFcF",
"cFcFcFcFcFcFcFcFcFcFb.b.b7b.b.b.b.b.b.b.b.b.b.b.b.b.b.b.b.b.b.b.b.b.b.b.b.b.b.b.b.b.b.b.b.b.b.b.b.b.b.b.b.b.b.b.b.b.b.b.b.b.b.b.b.b.b.b.b.b.b.b.b.b.b.b.b.b.b.b.b.b.b.b.b.b.b.b.b.b.b.b.b.b.b.b.b.b.b.b.b.b.b.b.bUcsboawa3aKaKaKa3awa3cpbUb.b.b.b.b.b.b.b.b.b.b.b.b.b.b.b.b.b.b.b.b.b.bScsa6aua4aKaKaKa3aubncsbUb.b.b.b.b.b.b.b.b.b.b.b.b.b.b.b.b.b.b.b.b.b.b.b.b.b.b.b.b.b.b.b.b.b.b.b.b.b.b.b.b.b.b.b.b.b.b.b.b.b.b.b.b.b.b.b.b.b.b.b.b.b.b.b.b.b.b.b.b.b.b.b.b.b.b.b.b.b.b.b.b.b.b.b.b.b.b.b.b.b.b.b6b.b#cFcFcFcFcFcFcFcFcFcF",
"cFcFcFcFcFcFcFcFcFcFb.b.b7b.b.b.b.b.b.b.b.b.b.b.b.b.b.b.b.b.b.b.b.b.b.b.b.b.b.b.b.b.b.b.b.b.b.b.b.b.b.b.b.b.b.b.b.b.b.b.b.b.b.b.b.b.b.b.b.b.b.b.b.b.b.b.b.b.b.b.b.b.b.b.b.b.b.b.b.b.b.b.b.b.b.b.b.b.b.b.b.b.b.b.bYcaa,aAa3aKaKaKaKaDbucfbUb.b.b.b.b.b.b.b.b.b.b.b.b.b.b.b.b.b.b.b.b.b.bYcabxa7aFaKaKaKa3aCa<b.b.b.b.b.b.b.b.b.b.b.b.b.b.b.b.b.b.b.b.b.b.b.b.b.b.b.b.b.b.b.b.b.b.b.b.b.b.b.b.b.b.b.b.b.b.b.b.b.b.b.b.b.b.b.b.b.b.b.b.b.b.b.b.b.b.b.b.b.b.b.b.b.b.b.b.b.b.b.b.b.b.b.b.b.b.b.b.b.b.b.b.b.b6b.b#cFcFcFcFcFcFcFcFcFcF",
"cFcFcFcFcFcFcFcFcFcFb1b1b:b<b<b<b<b<b<b<b<b<b<b<b<b<b<b<b<b<b<b<b<b<b<b<b<b<b<b<b<b<b<b<b<b<b<b<b<b<b<b<b<b<b<b<b<b<b<b<b<b<b<b<b<b<b<b<b<b<b<b<b<b<b<b<b<b<b<b<b<b<b<b<b<b<b<b<b<b<b<b<b<b<b<b<b<b<b<b<b<b<b<b1csboawa3aKaKaKa3awa3csbPb<b<b<b<b<b<b<b<b<b<b<b<b<b<b<b<b<b<b<b<b<b<b<b<bNcwa7aua4aKaKaKa3aubncvbPb<b<b<b<b<b<b<b<b<b<b<b<b<b<b<b<b<b<b<b<b<b<b<b<b<b<b<b<b<b<b<b<b<b<b<b<b<b<b<b<b<b<b<b<b<b<b<b<b<b<b<b<b<b<b<b<b<b<b<b<b<b<b<b<b<b<b<b<b<b<b<b<b<b<b<b<b<b<b<b<b<b<b<b<b<b<b<b<b<b<b;b1b;cFcFcFcFcFcFcFcFcFcF",
"cFcFcFcFcFcFcFcFcFcFb1b1b:b<b<b<b<b<b<b<b<b<b<b<b<b<b<b<b<b<b<b<b<b<b<b<b<b<b<b<b<b<b<b<b<b<b<b<b<b<b<b<b<b<b<b<b<b<b<b<b<b<b<b<b<b<b<b<b<b<b<b<b<b<b<b<b<b<b<b<b<b<b<b<b<b<b<b<b<b<b<b<b<b<b<b<b<b<b<b<b<b<b<b<caa,aAa3aKaKaKaKaDbucfb1b<b<b<b<b<b<b<b<b<b<b<b<b<b<b<b<b<b<b<b<b<b<b<b<b<cabxa7aFaKaKaKa3aCa<b<b<b<b<b<b<b<b<b<b<b<b<b<b<b<b<b<b<b<b<b<b<b<b<b<b<b<b<b<b<b<b<b<b<b<b<b<b<b<b<b<b<b<b<b<b<b<b<b<b<b<b<b<b<b<b<b<b<b<b<b<b<b<b<b<b<b<b<b<b<b<b<b<b<b<b<b<b<b<b<b<b<b<b<b<b<b<b<b<b<b<b<b;b1b;cFcFcFcFcFcFcFcFcFcF",
"cFcFcFcFcFcFcFcFcFcFb1b1b:b<b<b<b<b<b<b<b<b<b<b<b<b<b<b<b<b<b<b<b<b<b<b<b<b<b<b<b<b<b<b<b<b<b<b<b<b<b<b<b<b<b<b<b<b<b<b<b<b<b<b<b<b<b<b<b<b<b<b<b<b<b<b<b<b<b<b<b<b<b<b<b<b<b<b<b<b<b<b<b<b<b<b<b<b<b<b<b<b<b1csboawa3aKaKaKa3awa3csb1b<b<b<b<b<b<b<b<b<b<b<b<b<b<b<b<b<b<b<b<b<b<b<b<b<b<b0cwa7aua4aKaKaKa3aubncvb1b<b<b<b<b<b<b<b<b<b<b<b<b<b<b<b<b<b<b<b<b<b<b<b<b<b<b<b<b<b<b<b<b<b<b<b<b<b<b<b<b<b<b<b<b<b<b<b<b<b<b<b<b<b<b<b<b<b<b<b<b<b<b<b<b<b<b<b<b<b<b<b<b<b<b<b<b<b<b<b<b<b<b<b<b<b<b<b<b<b;b1b;cFcFcFcFcFcFcFcFcFcF",
"cFcFcFcFcFcFcFcFcFcFb1b1b:b<b<b<b<b<b<b<b<b<b<b<b<b<b<b<b<b<b<b<b<b<b<b<b<b<b<b<b<b<b<b<b<b<b<b<b<b<b<b<b<b<b<b<b<b<b<b<b<b<b<b<b<b<b<b<b<b<b<b<b<b<b<b<b<b<b<b<b<b<b<b<b<b<b<b<b<b<b<b<b<b<b<b<b<b<b<b<b<b<b<caa,aAa3aKaKaKaKaDbucfb1b<b<b<b<b<b<b<b<b<b<b<b<b<b<b<b<b<b<b<b<b<b<b<b<b<b<b<cabxa7aFaKaKaKa3aCa<b<b<b<b<b<b<b<b<b<b<b<b<b<b<b<b<b<b<b<b<b<b<b<b<b<b<b<b<b<b<b<b<b<b<b<b<b<b<b<b<b<b<b<b<b<b<b<b<b<b<b<b<b<b<b<b<b<b<b<b<b<b<b<b<b<b<b<b<b<b<b<b<b<b<b<b<b<b<b<b<b<b<b<b<b<b<b<b<b<b<b<b;b1b;cFcFcFcFcFcFcFcFcFcF",
"cFcFcFcFcFcFcFcFcFcFb1b1b7b;b;b;b;b;b;b;b;b;b;b;b;b;b;b;b;b;b;b;b;b;b;b;b;b;b;b;b;b;b;b;b;b;b;b;b;b;b;b;b;b;b;b;b;b;b;b;b;b;b;b;b;b;b;b;b;b;b;b;b;b;b;b;b;b;b;b;b;b;b;b;b;b;b;b;b;b;b;b;b;b;b;b;b;b;b;b;b;b1cpboaAa3aKaKaKa3aza3cob1b;b;b;b;b;b;b;b;b;b;b;b;b;b;b;b;b;b;b;b;b;b;b;b;b;b;b;b;b0cwa7ava4aKaKaKa3azbncub1b;b;b;b;b;b;b;b;b;b;b;b;b;b;b;b;b;b;b;b;b;b;b;b;b;b;b;b;b;b;b;b;b;b;b;b;b;b;b;b;b;b;b;b;b;b;b;b;b;b;b;b;b;b;b;b;b;b;b;b;b;b;b;b;b;b;b;b;b;b;b;b;b;b;b;b;b;b;b;b;b;b;b;b;b;b;b;b;b;b:b;cFcFcFcFcFcFcFcFcFcF",
"cFcFcFcFcFcFcFcFcFcFb1b1b7b;b;b;b;b;b;b;b;b;b;b;b;b;b;b;b;b;b;b;b;b;b;b;b;b;b;b;b;b;b;b;b;b;b;b;b;b;b;b;b;b;b;b;b;b;b;b;b;b;b;b;b;b;b;b;b;b;b;b;b;b;b;b;b;b;b;b;b;b;b;b;b;b;b;b;b;b;b;b;b;b;b;b;b;b;b;b;b;b;caa,aAa3aKaKaKaKaDbucfb1b;b;b;b;b;b;b;b;b;b;b;b;b;b;b;b;b;b;b;b;b;b;b;b;b;b;b;b;b;cabxa7aFaKaKaKa3aCa<b;b;b;b;b;b;b;b;b;b;b;b;b;b;b;b;b;b;b;b;b;b;b;b;b;b;b;b;b;b;b;b;b;b;b;b;b;b;b;b;b;b;b;b;b;b;b;b;b;b;b;b;b;b;b;b;b;b;b;b;b;b;b;b;b;b;b;b;b;b;b;b;b;b;b;b;b;b;b;b;b;b;b;b;b;b;b;b;b;b;b;b:b;cFcFcFcFcFcFcFcFcFcF",
"cFcFcFcFcFcFcFcFcFcFb1b1b7b;b;b;b;b;b;b;b;b;b;b;b;b;b;b;b;b;b;b;b;b;b;b;b;b;b;b;b;b;b;b;b;b;b;b;b;b;b;b;b;b;b;b;b;b;b;b;b;b;b;b;b;b;b;b;b;b;b;b;b;b;b;b;b;b;b;b;b;b;b;b;b;b;b;b;b;b;b;b;b;b;b;b;b;b;b;b;b1cpboaAa3aKaKaKa3aza3cob1b;b;b;b;b;b;b;b;b;b;b;b;b;b;b;b;b;b;b;b;b;b;b;b;b;b;b;b;b;b;b0cwa7ava4aKaKaKa3azbncub1b;b;b;b;b;b;b;b;b;b;b;b;b;b;b;b;b;b;b;b;b;b;b;b;b;b;b;b;b;b;b;b;b;b;b;b;b;b;b;b;b;b;b;b;b;b;b;b;b;b;b;b;b;b;b;b;b;b;b;b;b;b;b;b;b;b;b;b;b;b;b;b;b;b;b;b;b;b;b;b;b;b;b;b;b;b;b;b;b:b;cFcFcFcFcFcFcFcFcFcF",
"cFcFcFcFcFcFcFcFcFcFb1b1b7b;b;b;b;b;b;b;b;b;b;b;b;b;b;b;b;b;b;b;b;b;b;b;b;b;b;b;b;b;b;b;b;b;b;b;b;b;b;b;b;b;b;b;b;b;b;b;b;b;b;b;b;b;b;b;b;b;b;b;b;b;b;b;b;b;b;b;b;b;b;b;b;b;b;b;b;b;b;b;b;b;b;b;b;b;b;b;b;caa,aAa3aKaKaKaKaDbucfb1b;b;b;b;b;b;b;b;b;b;b;b;b;b;b;b;b;b;b;b;b;b;b;b;b;b;b;b;b;b;b;cabxa6aFaKaKaKa3aCa<b;b;b;b;b;b;b;b;b;b;b;b;b;b;b;b;b;b;b;b;b;b;b;b;b;b;b;b;b;b;b;b;b;b;b;b;b;b;b;b;b;b;b;b;b;b;b;b;b;b;b;b;b;b;b;b;b;b;b;b;b;b;b;b;b;b;b;b;b;b;b;b;b;b;b;b;b;b;b;b;b;b;b;b;b;b;b;b;b;b;b:b;cFcFcFcFcFcFcFcFcFcF",
"cFcFcFcFcFcFcFcFcFcFb;b#b7b;b;b;b;b;b;b;b;b;b;b;b;b;b;b;b;b;b;b;b;b;b;b;b;b;b;b;b;b;b;b;b;b;b;b;b;b;b;b;b;b;b;b;b;b;b;b;b;b;b;b;b;b;b;b;b;b;b;b;b;b;b;b;b;b;b;b;b;b;b;b;b;b;b;b;b;b;b;b;b;b;b;b;b;b;b;b1cpboaAa3aKaKaKa3aza3cob1b;b;b;b;b;b;b;b;b;b;b;b;b;b;b;b;b;b;b;b;b;b;b;b;b;b;b;b;b;b;b;b;b0cva5ava4aKaKaKa3azbncub1b;b;b;b;b;b;b;b;b;b;b;b;b;b;b;b;b;b;b;b;b;b;b;b;b;b;b;b;b;b;b;b;b;b;b;b;b;b;b;b;b;b;b;b;b;b;b;b;b;b;b;b;b;b;b;b;b;b;b;b;b;b;b;b;b;b;b;b;b;b;b;b;b;b;b;b;b;b;b;b;b;b;b;b;b;b;b6b:b-cFcFcFcFcFcFcFcFcFcF",
"cFcFcFcFcFcFcFcFcFcFb;b#b7b;b;b;b;b;b;b;b;b;b;b;b;b;b;b;b;b;b;b;b;b;b;b;b;b;b;b;b;b;b;b;b;b;b;b;b;b;b;b;b;b;b;b;b;b;b;b;b;b;b;b;b;b;b;b;b;b;b;b;b;b;b;b;b;b;b;b;b;b;b;b;b;b;b;b;b;b;b;b;b;b;b;b;b;b;b;b6cca,aAa3aKaKaKaKaDbucfb1b;b;b;b;b;b;b;b;b;b;b;b;b;b;b;b;b;b;b;b;b;b;b;b;b;b;b;b;b;b;b;b;b;b7bxa6aFaKaKaKa3aCa<b;b;b;b;b;b;b;b;b;b;b;b;b;b;b;b;b;b;b;b;b;b;b;b;b;b;b;b;b;b;b;b;b;b;b;b;b;b;b;b;b;b;b;b;b;b;b;b;b;b;b;b;b;b;b;b;b;b;b;b;b;b;b;b;b;b;b;b;b;b;b;b;b;b;b;b;b;b;b;b;b;b;b;b;b;b;b;b;b6b:b-cFcFcFcFcFcFcFcFcFcF",
"cFcFcFcFcFcFcFcFcFcFb;b#b7b;b;b;b;b;b;b;b;b;b;b;b;b;b;b;b;b;b;b;b;b;b;b;b;b;b;b;b;b;b;b;b;b;b;b;b;b;b;b;b;b;b;b;b;b;b;b;b;b;b;b;b;b;b;b;b;b;b;b;b;b;b;b;b;b;b;b;b;b;b;b;b;b;b;b;b;b;b;b;b;b;b;b;b;b;b1cpboaAa3aKaKaKa3aza3cob1b;b;b;b;b;b;b;b;b;b;b;b;b;b;b;b;b;b;b;b;b;b;b;b;b;b;b;b;b;b;b;b;b;b;b0cva5ava4aKaKaKa3azbncub0b;b;b;b;b;b;b;b;b;b;b;b;b;b;b;b;b;b;b;b;b;b;b;b;b;b;b;b;b;b;b;b;b;b;b;b;b;b;b;b;b;b;b;b;b;b;b;b;b;b;b;b;b;b;b;b;b;b;b;b;b;b;b;b;b;b;b;b;b;b;b;b;b;b;b;b;b;b;b;b;b;b;b;b;b;b6b:b-cFcFcFcFcFcFcFcFcFcF",
"cFcFcFcFcFcFcFcFcFcFb>b.b6b:b:b:b:b:b:b:b:b:b:b:b:b:b:b:b:b:b:b:b:b:b:b:b:b:b:b:b:b:b:b:b:b:b:b:b:b:b:b:b:b:b:b:b:b:b:b:b:b:b:b:b:b:b:b:b:b:b:b:b:b:b:b:b:b:b:b:b:b:b:b:b:b:b:b:b:b:b:b:b:b:b:b:b:b:b:b:a<aCa3aKaKaKaKaDbucgbQb:b:b:b:b:b:b:b:b:b:b:b:b:b:b:b:b:b:b:b:b:b:b:b:b:b:b:b:b:b:b:b:b:b:b;cabya7aFaKaKaKa3aCa<b:b:b:b:b:b:b:b:b:b:b:b:b:b:b:b:b:b:b:b:b:b:b:b:b:b:b:b:b:b:b:b:b:b:b:b:b:b:b:b:b:b:b:b:b:b:b:b:b:b:b:b:b:b:b:b:b:b:b:b:b:b:b:b:b:b:b:b:b:b:b:b:b:b:b:b:b:b:b:b:b:b:b:b:b:b:b:b7b>b:cFcFcFcFcFcFcFcFcFcF",
"cFcFcFcFcFcFcFcFcFcFb>b.b6b:b:b:b:b:b:b:b:b:b:b:b:b:b:b:b:b:b:b:b:b:b:b:b:b:b:b:b:b:b:b:b:b:b:b:b:b:b:b:b:b:b:b:b:b:b:b:b:b:b:b:b:b:b:b:b:b:b:b:b:b:b:b:b:b:b:b:b:b:b:b:b:b:b:b:b:b:b:b:b:b:b:b:b:bQcubnaza3aKaKaKa3aza3cpbQb:b:b:b:b:b:b:b:b:b:b:b:b:b:b:b:b:b:b:b:b:b:b:b:b:b:b:b:b:b:b:b:b:b:b:b:bPcwa6ava4aKaKaKa3azbncubQb:b:b:b:b:b:b:b:b:b:b:b:b:b:b:b:b:b:b:b:b:b:b:b:b:b:b:b:b:b:b:b:b:b:b:b:b:b:b:b:b:b:b:b:b:b:b:b:b:b:b:b:b:b:b:b:b:b:b:b:b:b:b:b:b:b:b:b:b:b:b:b:b:b:b:b:b:b:b:b:b:b:b:b:b7b>b:cFcFcFcFcFcFcFcFcFcF",
"cFcFcFcFcFcFcFcFcFcFb>b.b6b:b:b:b:b:b:b:b:b:b:b:b:b:b:b:b:b:b:b:b:b:b:b:b:b:b:b:b:b:b:b:b:b:b:b:b:b:b:b:b:b:b:b:b:b:b:b:b:b:b:b:b:b:b:b:b:b:b:b:b:b:b:b:b:b:b:b:b:b:b:b:b:b:b:b:b:b:b:b:b:b:b:b:b:b:b:a<aCa3aKaKaKaKaEbucgbQb:b:b:b:b:b:b:b:b:b:b:b:b:b:b:b:b:b:b:b:b:b:b:b:b:b:b:b:b:b:b:b:b:b:b:b:b;cabya7aFaKaKaKa3aCa<b:b:b:b:b:b:b:b:b:b:b:b:b:b:b:b:b:b:b:b:b:b:b:b:b:b:b:b:b:b:b:b:b:b:b:b:b:b:b:b:b:b:b:b:b:b:b:b:b:b:b:b:b:b:b:b:b:b:b:b:b:b:b:b:b:b:b:b:b:b:b:b:b:b:b:b:b:b:b:b:b:b:b:b:b:b:b7b>b:cFcFcFcFcFcFcFcFcFcF",
"cFcFcFcFcFcFcFcFcFcFb>b.b6b:b:b:b:b:b:b:b:b:b:b:b:b:b:b:b:b:b:b:b:b:b:b:b:b:b:b:b:b:b:b:b:b:b:b:b:b:b:b:b:b:b:b:b:b:b:b:b:b:b:b:b:b:b:b:b:b:b:b:b:b:b:b:b:b:b:b:b:b:b:b:b:b:b:b:b:b:b:b:b:b:b:b:bQcubnaza3aKaKaKa3aza5cubQb:b:b:b:b:b:b:b:b:b:b:b:b:b:b:b:b:b:b:b:b:b:b:b:b:b:b:b:b:b:b:b:b:b:b:b:b:b:bPcwa6ava4aKaKaKa3azbncubQb:b:b:b:b:b:b:b:b:b:b:b:b:b:b:b:b:b:b:b:b:b:b:b:b:b:b:b:b:b:b:b:b:b:b:b:b:b:b:b:b:b:b:b:b:b:b:b:b:b:b:b:b:b:b:b:b:b:b:b:b:b:b:b:b:b:b:b:b:b:b:b:b:b:b:b:b:b:b:b:b:b:b:b7b>b:cFcFcFcFcFcFcFcFcFcF",
"cFcFcFcFcFcFcFcFcFcFb7b.b6b7b7b7b7b7b7b7b7b7b7b7b7b7b7b7b7b7b7b7b7b7b7b7b7b7b7b7b7b7b7b7b7b7b7b7b7b7b7b7b7b7b7b7b7b7b7b7b7b7b7b7b7b7b7b7b7b7b7b7b7b7b7b7b7b7b7b7b7b7b7b7b7b7b7b7b7b7b7b7b7b7b7b7b7b7a<aCa3aKaKaKaKaKbvccbQb7b7b7b7b7b7b7b7b7b7b7b7b7b7b7b7b7b7b7b7b7b7b7b7b7b7b7b7b7b7b7b7b7b7b7b7b7b7b7cabya7aFaKaKaKa3aCa<b7b7b7b7b7b7b7b7b7b7b7b7b7b7b7b7b7b7b7b7b7b7b7b7b7b7b7b7b7b7b7b7b7b7b7b7b7b7b7b7b7b7b7b7b7b7b7b7b7b7b7b7b7b7b7b7b7b7b7b7b7b7b7b7b7b7b7b7b7b7b7b7b7b7b7b7b7b7b7b7b7b7b7b7b7b6b:b;cFcFcFcFcFcFcFcFcFcF",
"cFcFcFcFcFcFcFcFcFcFb7b.b6b7b7b7b7b7b7b7b7b7b7b7b7b7b7b7b7b7b7b7b7b7b7b7b7b7b7b7b7b7b7b7b7b7b7b7b7b7b7b7b7b7b7b7b7b7b7b7b7b7b7b7b7b7b7b7b7b7b7b7b7b7b7b7b7b7b7b7b7b7b7b7b7b7b7b7b7b7b7b7b7b7b7bQcubnaza3aKaKaKa3aza5cubQb7b7b7b7b7b7b7b7b7b7b7b7b7b7b7b7b7b7b7b7b7b7b7b7b7b7b7b7b7b7b7b7b7b7b7b7b7b7b7b7bNcwa6ava4aKaKaKa3azbncubQb7b7b7b7b7b7b7b7b7b7b7b7b7b7b7b7b7b7b7b7b7b7b7b7b7b7b7b7b7b7b7b7b7b7b7b7b7b7b7b7b7b7b7b7b7b7b7b7b7b7b7b7b7b7b7b7b7b7b7b7b7b7b7b7b7b7b7b7b7b7b7b7b7b7b7b7b7b7b7b7b7b7b6b:b;cFcFcFcFcFcFcFcFcFcF",
"cFcFcFcFcFcFcFcFcFcFb7b.b6b7b7b7b7b7b7b7b7b7b7b7b7b7b7b7b7b7b7b7b7b7b7b7b7b7b7b7b7b7b7b7b7b7b7b7b7b7b7b7b7b7b7b7b7b7b7b7b7b7b7b7b7b7b7b7b7b7b7b7b7b7b7b7b7b7b7b7b7b7b7b7b7b7b7b7b7b7b7b7b7b7b7b7b7a<aCa3aKaKaKaKaKbvccbQb7b7b7b7b7b7b7b7b7b7b7b7b7b7b7b7b7b7b7b7b7b7b7b7b7b7b7b7b7b7b7b7b7b7b7b7b7b7b7b7b7b7bya7aFaKaKaKa3aCa<b7b7b7b7b7b7b7b7b7b7b7b7b7b7b7b7b7b7b7b7b7b7b7b7b7b7b7b7b7b7b7b7b7b7b7b7b7b7b7b7b7b7b7b7b7b7b7b7b7b7b7b7b7b7b7b7b7b7b7b7b7b7b7b7b7b7b7b7b7b7b7b7b7b7b7b7b7b7b7b7b7b7b7b7b6b:b;cFcFcFcFcFcFcFcFcFcF",
"cFcFcFcFcFcFcFcFcFcFb7b.b6b7b7b7b7b7b7b7b7b7b7b7b7b7b7b7b7b7b7b7b7b7b7b7b7b7b7b7b7b7b7b7b7b7b7b7b7b7b7b7b7b7b7b7b7b7b7b7b7b7b7b7b7b7b7b7b7b7b7b7b7b7b7b7b7b7b7b7b7b7b7b7b7b7b7b7b7b7b7b7b7b7bQcubnaza3aKaKaKa3aza5cubQb7b7b7b7b7b7b7b7b7b7b7b7b7b7b7b7b7b7b7b7b7b7b7b7b7b7b7b7b7b7b7b7b7b7b7b7b7b7b7b7b7b7bNcwa6ava4aKaKaKa3azbncubQb7b7b7b7b7b7b7b7b7b7b7b7b7b7b7b7b7b7b7b7b7b7b7b7b7b7b7b7b7b7b7b7b7b7b7b7b7b7b7b7b7b7b7b7b7b7b7b7b7b7b7b7b7b7b7b7b7b7b7b7b7b7b7b7b7b7b7b7b7b7b7b7b7b7b7b7b7b7b7b7b7b6b:b;cFcFcFcFcFcFcFcFcFcF",
"cFcFcFcFcFcFcFcFcFcFb7b7b2b7b7b7b7b7b7b7b7b7b7b7b7b7b7b7b7b7b7b7b7b7b7b7b7b7b7b7b7b7b7b7b7b7b7b7b7b7b7b7b7b7b7b7b7b7b7b7b7b7b7b7b7b7b7b7b7b7b7b7b7b7b7b7b7b7b7b7b7b7b7b7b7b7b7b7b7b7b7b7b7b7b7b7a<aCa3aKaKaKaKaKbvccbPb7b7b7b7b7b7b7b7b7b7b7b7b7b7b7b7b7b7b7b7b7b7b7b7b7b7b7b7b7b7b7b7b7b7b7b7b7b7b7b7b7b7b7b7bxa7aFaKaKaKa3aCa<b7b7b7b7b7b7b7b7b7b7b7b7b7b7b7b7b7b7b7b7b7b7b7b7b7b7b7b7b7b7b7b7b7b7b7b7b7b7b7b7b7b7b7b7b7b7b7b7b7b7b7b7b7b7b7b7b7b7b7b7b7b7b7b7b7b7b7b7b7b7b7b7b7b7b7b7b7b7b7b7b7b7b7b6b7b6cFcFcFcFcFcFcFcFcFcF",
"cFcFcFcFcFcFcFcFcFcFb7b7b2b7b7b7b7b7b7b7b7b7b7b7b7b7b7b7b7b7b7b7b7b7b7b7b7b7b7b7b7b7b7b7b7b7b7b7b7b7b7b7b7b7b7b7b7b7b7b7b7b7b7b7b7b7b7b7b7b7b7b7b7b7b7b7b7b7b7b7b7b7b7b7b7b7b7b7b7b7b7b7b7bPcqbnaza3aKaKaKa3aza5cqbPb7b7b7b7b7b7b7b7b7b7b7b7b7b7b7b7b7b7b7b7b7b7b7b7b7b7b7b7b7b7b7b7b7b7b7b7b7b7b7b7b7b7b7b7bNcsa6ava4aKaKaKa3azbncqbPb7b7b7b7b7b7b7b7b7b7b7b7b7b7b7b7b7b7b7b7b7b7b7b7b7b7b7b7b7b7b7b7b7b7b7b7b7b7b7b7b7b7b7b7b7b7b7b7b7b7b7b7b7b7b7b7b7b7b7b7b7b7b7b7b7b7b7b7b7b7b7b7b7b7b7b7b7b7b7b7b6b7b6cFcFcFcFcFcFcFcFcFcF",
"cFcFcFcFcFcFcFcFcFcFb7b7b2b7b7b7b7b7b7b7b7b7b7b7b7b7b7b7b7b7b7b7b7b7b7b7b7b7b7b7b7b7b7b7b7b7b7b7b7b7b7b7b7b7b7b7b7b7b7b7b7b7b7b7b7b7b7b7b7b7b7b7b7b7b7b7b7b7b7b7b7b7b7b7b7b7b7b7b7b7b7b7b7b7b7a<aCa3aKaKaKaKaKbvccbPb7b7b7b7b7b7b7b7b7b7b7b7b7b7b7b7b7b7b7b7b7b7b7b7b7b7b7b7b7b7b7b7b7b7b7b7b7b7b7b7b7b7b7b7b3b7bxa7aFaKaKaKa3aCa<b7b7b7b7b7b7b7b7b7b7b7b7b7b7b7b7b7b7b7b7b7b7b7b7b7b7b7b7b7b7b7b7b7b7b7b7b7b7b7b7b7b7b7b7b7b7b7b7b7b7b7b7b7b7b7b7b7b7b7b7b7b7b7b7b7b7b7b7b7b7b7b7b7b7b7b7b7b7b7b7b7b7b6b7b6cFcFcFcFcFcFcFcFcFcF",
"cFcFcFcFcFcFcFcFcFcFb.b.b#b#b#b#b#b#b#b#b#b#b#b#b#b#b#b#b#b#b#b#b#b#b#b#b#b#b#b#b#b#b#b#b#b#b#b#b#b#b#b#b#b#b#b#b#b#b#b#b#b#b#b#b#b#b#b#b#b#b#b#b#b#b#b#b#b#b#b#b#b#b#b#b#b#b#b#b#b#b#b#bPcsbnaza3aKaKaKa3ava5csbPb#b#b#b#b#b#b#b#b#b#b#b#b#b#b#b#b#b#b#b#b#b#b#b#b#b#b#b#b#b#b#b#b#b#b#b#b#b#b#b#b#b#b#b#b#b#bNcsa6ava4aKaKaKa3azbncsbPb#b#b#b#b#b#b#b#b#b#b#b#b#b#b#b#b#b#b#b#b#b#b#b#b#b#b#b#b#b#b#b#b#b#b#b#b#b#b#b#b#b#b#b#b#b#b#b#b#b#b#b#b#b#b#b#b#b#b#b#b#b#b#b#b#b#b#b#b#b#b#b#b#b#b#b#b#b#b#b#b.b#cFcFcFcFcFcFcFcFcFcF",
"cFcFcFcFcFcFcFcFcFcFb.b.b#b#b#b#b#b#b#b#b#b#b#b#b#b#b#b#b#b#b#b#b#b#b#b#b#b#b#b#b#b#b#b#b#b#b#b#b#b#b#b#b#b#b#b#b#b#b#b#b#b#b#b#b#b#b#b#b#b#b#b#b#b#b#b#b#b#b#b#b#b#b#b#b#b#b#b#b#b#b#b#b#b#a<aCa3aKaKaKaKaKbvccbTb#b#b#b#b#b#b#b#b#b#b#b#b#b#b#b#b#b#b#b#b#b#b#b#b#b#b#b#b#b#b#b#b#b#b#b#b#b#b#b#b#b#b#b#b#b#b#cabxa7aFaKaKaKa3aCa<b#b#b#b#b#b#b#b#b#b#b#b#b#b#b#b#b#b#b#b#b#b#b#b#b#b#b#b#b#b#b#b#b#b#b#b#b#b#b#b#b#b#b#b#b#b#b#b#b#b#b#b#b#b#b#b#b#b#b#b#b#b#b#b#b#b#b#b#b#b#b#b#b#b#b#b#b#b#b#b#b#b#b.b#cFcFcFcFcFcFcFcFcFcF",
"cFcFcFcFcFcFcFcFcFcFb.b.b#b#b#b#b#b#b#b#b#b#b#b#b#b#b#b#b#b#b#b#b#b#b#b#b#b#b#b#b#b#b#b#b#b#b#b#b#b#b#b#b#b#b#b#b#b#b#b#b#b#b#b#b#b#b#b#b#b#b#b#b#b#b#b#b#b#b#b#b#b#b#b#b#b#b#b#b#b#b#bTcsbnaza3aKaKaKa3ava5csbTb#b#b#b#b#b#b#b#b#b#b#b#b#b#b#b#b#b#b#b#b#b#b#b#b#b#b#b#b#b#b#b#b#b#b#b#b#b#b#b#b#b#b#b#b#b#b#b#bScsa5ava4aKaKaKa3azbncsbTb#b#b#b#b#b#b#b#b#b#b#b#b#b#b#b#b#b#b#b#b#b#b#b#b#b#b#b#b#b#b#b#b#b#b#b#b#b#b#b#b#b#b#b#b#b#b#b#b#b#b#b#b#b#b#b#b#b#b#b#b#b#b#b#b#b#b#b#b#b#b#b#b#b#b#b#b#b#b#b.b#cFcFcFcFcFcFcFcFcFcF",
"cFcFcFcFcFcFcFcFcFcFb.b.b#b#b#b#b#b#b#b#b#b#b#b#b#b#b#b#b#b#b#b#b#b#b#b#b#b#b#b#b#b#b#b#b#b#b#b#b#b#b#b#b#b#b#b#b#b#b#b#b#b#b#b#b#b#b#b#b#b#b#b#b#b#b#b#b#b#b#b#b#b#b#b#b#b#b#b#b#b#b#b#b#a<aCa3aKaKaKaKaKbvccbTb#b#b#b#b#b#b#b#b#b#b#b#b#b#b#b#b#b#b#b#b#b#b#b#b#b#b#b#b#b#b#b#b#b#b#b#b#b#b#b#b#b#b#b#b#b#b#b#b#cabxa7aFaKaKaKa3aCa<b#b#b#b#b#b#b#b#b#b#b#b#b#b#b#b#b#b#b#b#b#b#b#b#b#b#b#b#b#b#b#b#b#b#b#b#b#b#b#b#b#b#b#b#b#b#b#b#b#b#b#b#b#b#b#b#b#b#b#b#b#b#b#b#b#b#b#b#b#b#b#b#b#b#b#b#b#b#b#b#b#b.b#cFcFcFcFcFcFcFcFcFcF",
"cFcFcFcFcFcFcFcFcFcFb1b<b-b<b<b<b<b<b<b<b<b<b<b<b<b<b<b<b<b<b<b<b<b<b<b<b<b<b<b<b<b<b<b<b<b<b<b<b<b<b<b<b<b<b<b<b<b<b<b<b<b<b<b<b<b<b<b<b<b<b<b<b<b<b<b<b<b<b<b<b<b<b<b<b<b<b<b<b<b<b5cxbmaza3aKaKaKa3ava5cvb5b<b<b<b<b<b<b<b<b<b<b<b<b<b<b<b<b<b<b<b<b<b<b<b<b<b<b<b<b<b<b<b<b<b<b<b<b<b<b<b<b<b<b<b<b<b<b<b<b<b<b4cwa5ava4aKaKaKa3azbmcxb5b<b<b<b<b<b<b<b<b<b<b<b<b<b<b<b<b<b<b<b<b<b<b<b<b<b<b<b<b<b<b<b<b<b<b<b<b<b<b<b<b<b<b<b<b<b<b<b<b<b<b<b<b<b<b<b<b<b<b<b<b<b<b<b<b<b<b<b<b<b<b<b<b<b<b<b<b<b<b1b6cFcFcFcFcFcFcFcFcFcF",
"cFcFcFcFcFcFcFcFcFcFb1b<b-b<b<b<b<b<b<b<b<b<b<b<b<b<b<b<b<b<b<b<b<b<b<b<b<b<b<b<b<b<b<b<b<b<b<b<b<b<b<b<b<b<b<b<b<b<b<b<b<b<b<b<b<b<b<b<b<b<b<b<b<b<b<b<b<b<b<b<b<b<b<b<b<b<b<b<b<b<b<b<a<aCa3aKaKaKaKaKbxccb5b<b<b<b<b<b<b<b<b<b<b<b<b<b<b<b<b<b<b<b<b<b<b<b<b<b<b<b<b<b<b<b<b<b<b<b<b<b<b<b<b<b<b<b<b<b<b<b<b<b<b<b7bxa7aFaKaKaKa3aCa<b<b<b<b<b<b<b<b<b<b<b<b<b<b<b<b<b<b<b<b<b<b<b<b<b<b<b<b<b<b<b<b<b<b<b<b<b<b<b<b<b<b<b<b<b<b<b<b<b<b<b<b<b<b<b<b<b<b<b<b<b<b<b<b<b<b<b<b<b<b<b<b<b<b<b<b<b<b<b<b<b1b6cFcFcFcFcFcFcFcFcFcF",
"cFcFcFcFcFcFcFcFcFcFb1b<b-b<b<b<b<b<b<b<b<b<b<b<b<b<b<b<b<b<b<b<b<b<b<b<b<b<b<b<b<b<b<b<b<b<b<b<b<b<b<b<b<b<b<b<b<b<b<b<b<b<b<b<b<b<b<b<b<b<b<b<b<b<b<b<b<b<b<b<b<b<b<b<b<b<b<b<b<b5cxbmaza3aKaKaKa3ava5cvb4b<b<b<b<b<b<b<b<b<b<b<b<b<b<b<b<b<b<b<b<b<b<b<b<b<b<b<b<b<b<b<b<b<b<b<b<b<b<b<b<b<b<b<b<b<b<b<b<b<b<b<b<b4cwa5ava4aKaKaKa3azbmcxb5b<b<b<b<b<b<b<b<b<b<b<b<b<b<b<b<b<b<b<b<b<b<b<b<b<b<b<b<b<b<b<b<b<b<b<b<b<b<b<b<b<b<b<b<b<b<b<b<b<b<b<b<b<b<b<b<b<b<b<b<b<b<b<b<b<b<b<b<b<b<b<b<b<b<b<b<b<b1b6cFcFcFcFcFcFcFcFcFcF",
"cFcFcFcFcFcFcFcFcFcFb1b<b-b<b<b<b<b<b<b<b<b<b<b<b<b<b<b<b<b<b<b<b<b<b<b<b<b<b<b<b<b<b<b<b<b<b<b<b<b<b<b<b<b<b<b<b<b<b<b<b<b<b<b<b<b<b<b<b<b<b<b<b<b<b<b<b<b<b<b<b<b<b<b<b<b<b<b<b<b<b<a<aCa3aKaKaKaKaKbvcfb6b<b<b<b<b<b<b<b<b<b<b<b<b<b<b<b<b<b<b<b<b<b<b<b<b<b<b<b<b<b<b<b<b<b<b<b<b<b<b<b<b<b<b<b<b<b<b<b<b<b<b<b<b<cbbya7aFaKaKaKa3aCa<b<b<b<b<b<b<b<b<b<b<b<b<b<b<b<b<b<b<b<b<b<b<b<b<b<b<b<b<b<b<b<b<b<b<b<b<b<b<b<b<b<b<b<b<b<b<b<b<b<b<b<b<b<b<b<b<b<b<b<b<b<b<b<b<b<b<b<b<b<b<b<b<b<b<b<b<b<b<b<b1b6cFcFcFcFcFcFcFcFcFcF",
"cFcFcFcFcFcFcFcFcFcFb1b.b6b1b1b1b1b1b1b1b1b1b1b1b1b1b1b1b1b1b1b1b1b1b1b1b1b1b1b1b1b1b1b1b1b1b1b1b1b1b1b1b1b1b1b1b1b1b1b1b1b1b1b1b1b1b1b1b1b1b1b1b1b1b1b1b1b1b1b1b1b1b1b1b1b1b1b1b2cvbmaza3aKaKaKa3ava5cvb2b1b1b1b1b1b1b1b1b1b1b1b1b1b1b1b1b1b1b1b1b1b1b1b1b1b1b1b1b1b1b1b1b1b1b1b1b1b1b1b1b1b1b1b1b1b1b1b1b1b1b1b1b1b1b1cwa5ava4aKaKaKa3azbmcvb2b1b1b1b1b1b1b1b1b1b1b1b1b1b1b1b1b1b1b1b1b1b1b1b1b1b1b1b1b1b1b1b1b1b1b1b1b1b1b1b1b1b1b1b1b1b1b1b1b1b1b1b1b1b1b1b1b1b1b1b1b1b1b1b1b1b1b1b1b1b1b1b1b1b1b1b:b2b1cFcFcFcFcFcFcFcFcFcF",
"cFcFcFcFcFcFcFcFcFcFb1b.b6b1b1b1b1b1b1b1b1b1b1b1b1b1b1b1b1b1b1b1b1b1b1b1b1b1b1b1b1b1b1b1b1b1b1b1b1b1b1b1b1b1b1b1b1b1b1b1b1b1b1b1b1b1b1b1b1b1b1b1b1b1b1b1b1b1b1b1b1b1b1b1b1b1b1b1b1b1a<aCa3aKaKaKaKaKbvcfb2b1b1b1b1b1b1b1b1b1b1b1b1b1b1b1b1b1b1b1b1b1b1b1b1b1b1b1b1b1b1b1b1b1b1b1b1b1b1b1b1b1b1b1b1b1b1b1b1b1b1b1b1b1b1b1cabya7aFaKaKaKa3aCa<b1b1b1b1b1b1b1b1b1b1b1b1b1b1b1b1b1b1b1b1b1b1b1b1b1b1b1b1b1b1b1b1b1b1b1b1b1b1b1b1b1b1b1b1b1b1b1b1b1b1b1b1b1b1b1b1b1b1b1b1b1b1b1b1b1b1b1b1b1b1b1b1b1b1b1b1b1b:b2b1cFcFcFcFcFcFcFcFcFcF",
"cFcFcFcFcFcFcFcFcFcFb1b.b6b1b1b1b1b1b1b1b1b1b1b1b1b1b1b1b1b1b1b1b1b1b1b1b1b1b1b1b1b1b1b1b1b1b1b1b1b1b1b1b1b1b1b1b1b1b1b1b1b1b1b1b1b1b1b1b1b1b1b1b1b1b1b1b1b1b1b1b1b1b1b1b1b1b1b2cvbmaza3aKaKaKa3ava5cvb2b1b1b1b1b1b1b1b1b1b1b1b1b1b1b1b1b1b1b1b1b1b1b1b1b1b1b1b1b1b1b1b1b1b1b1b1b1b1b1b1b1b1b1b1b1b1b1b1b1b1b1b1b1b1b1b1b1cwa5ava4aKaKaKa3azbmcvb2b1b1b1b1b1b1b1b1b1b1b1b1b1b1b1b1b1b1b1b1b1b1b1b1b1b1b1b1b1b1b1b1b1b1b1b1b1b1b1b1b1b1b1b1b1b1b1b1b1b1b1b1b1b1b1b1b1b1b1b1b1b1b1b1b1b1b1b1b1b1b1b1b1b1b:b2b1cFcFcFcFcFcFcFcFcFcF",
"cFcFcFcFcFcFcFcFcFcFb<b.b6b1b1b1b1b1b1b1b1b1b1b1b1b1b1b1b1b1b1b1b1b1b1b1b1b1b1b1b1b1b1b1b1b1b1b1b1b1b1b1b1b1b1b1b1b1b1b1b1b1b1b1b1b1b1b1b1b1b1b1b1b1b1b1b1b1b1b1b1b1b1b1b1b1b1b1b1a<aDa3aKaKaKaKaKbvccb2b1b1b1b1b1b1b1b1b1b1b1b1b1b1b1b1b1b1b1b1b1b1b1b1b1b1b1b1b1b1b1b1b1b1b1b1b1b1b1b1b1b1b1b1b1b1b1b1b1b1b1b1b1b1b1b1b1cabya7aFaKaKaKa3aDa<b1b1b1b1b1b1b1b1b1b1b1b1b1b1b1b1b1b1b1b1b1b1b1b1b1b1b1b1b1b1b1b1b1b1b1b1b1b1b1b1b1b1b1b1b1b1b1b1b1b1b1b1b1b1b1b1b1b1b1b1b1b1b1b1b1b1b1b1b1b1b1b1b1b1b1b1b6b:b1cFcFcFcFcFcFcFcFcFcF",
"cFcFcFcFcFcFcFcFcFcFb<b.b6b1b1b1b1b1b1b1b1b1b1b1b1b1b1b1b1b1b1b1b1b1b1b1b1b1b1b1b1b1b1b1b1b1b1b1b1b1b1b1b1b1b1b1b1b1b1b1b1b1b1b1b1b1b1b1b1b1b1b1b1b1b1b1b1b1b1b1b1b1b1b1b1b1b2cvbmaza3aKaKaKa3ava5cvb2b1b1b1b1b1b1b1b1b1b1b1b1b1b1b1b1b1b1b1b1b1b1b1b1b1b1b1b1b1b1b1b1b1b1b1b1b1b1b1b1b1b1b1b1b1b1b1b1b1b1b1b1b1b1b1b1b1b1b0cwa5ava4aKaKaKa3azbmcvb2b1b1b1b1b1b1b1b1b1b1b1b1b1b1b1b1b1b1b1b1b1b1b1b1b1b1b1b1b1b1b1b1b1b1b1b1b1b1b1b1b1b1b1b1b1b1b1b1b1b1b1b1b1b1b1b1b1b1b1b1b1b1b1b1b1b1b1b1b1b1b1b1b1b6b:b1cFcFcFcFcFcFcFcFcFcF",
"cFcFcFcFcFcFcFcFcFcFb<b.b6b1b1b1b1b1b1b1b1b1b1b1b1b1b1b1b1b1b1b1b1b1b1b1b1b1b1b1b1b1b1b1b1b1b1b1b1b1b1b1b1b1b1b1b1b1b1b1b1b1b1b1b1b1b1b1b1b1b1b1b1b1b1b1b1b1b1b1b1b1b1b1b1b1b1b1a<aDa3aKaKaKaKaKbvccb2b1b1b1b1b1b1b1b1b1b1b1b1b1b1b1b1b1b1b1b1b1b1b1b1b1b1b1b1b1b1b1b1b1b1b1b1b1b1b1b1b1b1b1b1b1b1b1b1b1b1b1b1b1b1b1b1b1b1b1cabya7aFaKaKaKa3aDa<b1b1b1b1b1b1b1b1b1b1b1b1b1b1b1b1b1b1b1b1b1b1b1b1b1b1b1b1b1b1b1b1b1b1b1b1b1b1b1b1b1b1b1b1b1b1b1b1b1b1b1b1b1b1b1b1b1b1b1b1b1b1b1b1b1b1b1b1b1b1b1b1b1b1b1b6b:b1cFcFcFcFcFcFcFcFcFcF",
"cFcFcFcFcFcFcFcFcFcFb<b.b6b1b1b1b1b1b1b1b1b1b1b1b1b1b1b1b1b1b1b1b1b1b1b1b1b1b1b1b1b1b1b1b1b1b1b1b1b1b1b1b1b1b1b1b1b1b1b1b1b1b1b1b1b1b1b1b1b1b1b1b1b1b1b1b1b1b1b1b1b1b1b1b1b2cvbmaza3aKaKaKa3ava5cvb2b1b1b1b1b1b1b1b1b1b1b1b1b1b1b1b1b1b1b1b1b1b1b1b1b1b1b1b1b1b1b1b1b1b1b1b1b1b1b1b1b1b1b1b1b1b1b1b1b1b1b1b1b1b1b1b1b1b1b1b1b0cwa5ava4aKaKaKa3azbmcvb2b1b1b1b1b1b1b1b1b1b1b1b1b1b1b1b1b1b1b1b1b1b1b1b1b1b1b1b1b1b1b1b1b1b1b1b1b1b1b1b1b1b1b1b1b1b1b1b1b1b1b1b1b1b1b1b1b1b1b1b1b1b1b1b1b1b1b1b1b1b1b1b1b6b:b1cFcFcFcFcFcFcFcFcFcF",
"cFcFcFcFcFcFcFcFcFcFb<b.b6b:b:b:b:b:b:b:b:b:b:b:b:b:b:b:b:b:b:b:b:b:b:b:b:b:b:b:b:b:b:b:b:b:b:b:b:b:b:b:b:b:b:b:b:b:b:b:b:b:b:b:b:b:b:b:b:b:b:b:b:b=b3bCbCbCbObObObCbCbCbOb:b:a<aDa3aKaKaKaKaKbvccbPb:b:b:b:b:b:b:b:b:b:b:b:b:b:b:b:b:b:b:b:b:b:b:b:b:b:b:b:b:b:b:b:b:b:b:b:b:b:b:b:b:b:b:b:b:b:b:b:b:b:b:b:b:b:b:b:b:b:b:b:b:cabya7aFaKaKaKa3aDa<b:b:bTbIbIbIbTbTbTbKbIbIb#bVb:b:b:b:b:b:b:b:b:b:b:b:b:b:b:b:b:b:b:b:b:b:b:b:b:b:b:b:b:b:b:b:b:b:b:b:b:b:b:b:b:b:b:b:b:b:b:b:b:b:b:b:b:b:b:b:b:b:b:b:b6b:b;cFcFcFcFcFcFcFcFcFcF",
"cFcFcFcFcFcFcFcFcFcFb<b.b6b:b:b:b:b:b:b:b:b:b:b:b:b:b:b:b:b:b:b:b:b:b:b:b:b:b:b:b:b:b:b:b:b:b:b:b:b:b:b:b:b:b:b:b:b:b:b:b:b:b:b:b:b:b:b:b:b:b:bCbCb0ctczczcyctctctczczczb0cwbmava3aKaKaKa3ava5cubPb:b:b:b:b:b:b:b:b:b:b:b:b:b:b:b:b:b:b:b:b:b:b:b:b:b:b:b:b:b:b:b:b:b:b:b:b:b:b:b:b:b:b:b:b:b:b:b:b:b:b:b:b:b:b:b:b:b:b:b:b:b:bNcwa5ava4aKaKaKa3azbncwb8cjclcjb9b9b9cjclclcjb8bKbKb:b:b:b:b:b:b:b:b:b:b:b:b:b:b:b:b:b:b:b:b:b:b:b:b:b:b:b:b:b:b:b:b:b:b:b:b:b:b:b:b:b:b:b:b:b:b:b:b:b:b:b:b:b:b:b:b:b:b6b:b;cFcFcFcFcFcFcFcFcFcF",
"cFcFcFcFcFcFcFcFcFcFb<b.b6b:b:b:b:b:b:b:b:b:b:b:b:b:b:b:b:b:b:b:b:b:b:b:b:b:b:b:b:b:b:b:b:b:b:b:b:b:b:b:b:b:b:b:b:b:b:b:b:b:b:b:b:b:b:b:b:bCb3czczbybta0a>a>a>a>a>a>a>a0btbGa1aBa4aHaKaKaKaKbvccbPb:b:b:b:b:b:b:b:b:b:b:b:b:b:b:b:b:b:b:b:b:b:b:b:b:b:b:b:b:b:b:b:b:b:b:b:b:b:b:b:b:b:b:b:b:b:b:b:b:b:b:b:b:b:b:b:b:b:b:b:b:b:b:cabya7aFaKaKa5a3aAa<bFbxbsbibia0a0a0bibibibsbEcjcjb:bIb:b:b:b:b:b:b:b:b:b:b:b:b:b:b:b:b:b:b:b:b:b:b:b:b:b:b:b:b:b:b:b:b:b:b:b:b:b:b:b:b:b:b:b:b:b:b:b:b:b:b:b:b:b:b:b:b6b:b;cFcFcFcFcFcFcFcFcFcF",
"cFcFcFcFcFcFcFcFcFcFb<b.b6b:b:b:b:b:b:b:b:b:b:b:b:b:b:b:b:b:b:b:b:b:b:b:b:b:b:b:b:b:b:b:b:b:b:b:b:b:b:b:b:b:b:b:b:b:b:b:b:b:b:b:b:b:b:bCb:czbRa0a>a1aeababacadadadacaaacaja1aoa2a5a5aHa4aza5cubPb:b:b:b:b:b:b:b:b:b:b:b:b:b:b:b:b:b:b:b:b:b:b:b:b:b:b:b:b:b:b:b:b:b:b:b:b:b:b:b:b:b:b:b:b:b:b:b:b:b:b:b:b:b:b:b:b:b:b:b:b:b:b:b:bNcwa5ava4a5aGaGaMaMa0aVaOaNaOaPaPaPaPaNaOaRa0bibsbVclb:bJb:b:b:b:b:b:b:b:b:b:b:b:b:b:b:b:b:b:b:b:b:b:b:b:b:b:b:b:b:b:b:b:b:b:b:b:b:b:b:b:b:b:b:b:b:b:b:b:b:b:b:b:b:b:b6b:b;cFcFcFcFcFcFcFcFcFcF",
"cFcFcFcFcFcFcFcFcFcFb<b#b6b6b6b6b6b6b6b6b6b6b6b6b6b6b6b6b6b6b6b6b6b6b6b6b6b6b6b6b6b6b6b6b6b6b6b6b6b6b6b6b6b6b6b6b6b6b6b6b6b6b6b6b6b2bCcyb6a0a1adacafajanananakakakanananagaeaeagaoa2a5a5aHbvccbPb6b6b6b6b6b6b6b6b6b6b6b6b6b6b6b6b6b6b6b6b6b6b6b6b6b6b6b6b6b6b6b6b6b6b6b6b6b6b6b6b6b6b6b6b6b6b6b6b6b6b6b6b6b6b6b6b6b6b6b6b6b6b6b6b6cabxa6aGaGaMaQaTaXaRaTaYaYaYaWaWaWaWaYaYaUaRaOaPa0bib6cjbHb6b6b6b6b6b6b6b6b6b6b6b6b6b6b6b6b6b6b6b6b6b6b6b6b6b6b6b6b6b6b6b6b6b6b6b6b6b6b6b6b6b6b6b6b6b6b6b6b6b6b6b6b6b6b:b;cFcFcFcFcFcFcFcFcFcF",
"cFcFcFcFcFcFcFcFcFcFb<b#b6b6b6b6b6b6b6b6b6b6b6b6b6b6b6b6b6b6b6b6b6b6b6b6b6b6b6b6b6b6b6b6b6b6b6b6b6b6b6b6b6b6b6b6b6b6b6b6b6b6b6b6bOb6cza0a1abaeananajahahahahahahahahahahahakakahaeafaoaxa9cebOb6b6b6b6b6b6b6b6b6b6b6b6b6b6b6b6b6b6b6b6b6b6b6b6b6b6b6b6b6b6b6b6b6b6b6b6b6b6b6b6b6b6b6b6b6b6b6b6b6b6b6b6b6b6b6b6b6b6b6b6b6b6b6b6b6b6bGcqa8ayaRaXaXaTaUaUaTaTaTaTaTaTaTaTaTaTaTaUaYaWaQaNa0bsclb6bTb6b6b6b6b6b6b6b6b6b6b6b6b6b6b6b6b6b6b6b6b6b6b6b6b6b6b6b6b6b6b6b6b6b6b6b6b6b6b6b6b6b6b6b6b6b6b6b6b6b6b6b6b:b;cFcFcFcFcFcFcFcFcFcF",
"cFcFcFcFcFcFcFcFcFcFb<b#b6b6b6b6b6b6b6b6b6b6b6b6b6b6b6b6b6b6b6b6b6b6b6b6b6b6b6b6b6b6b6b6b6b6b6b6b6b6b6b6b6b6b6b6b6b6b6b6b6b6b6bCb0b0a>aeaeanakahahahahahahahahahahahahahahahahahakaiaeaia0cBbOb2b6b6b6b6b6b6b6b6b6b6b6b6b6b6b6b6b6b6b6b6b6b6b6b6b6b6b6b6b6b6b6b6b6b6b6b6b6b6b6b6b6b6b6b6b6b6b6b6b6b6b6b6b6b6b6b6b6b6b6b6b6b6b6b6bUbTclbsaQaXaTaUaTaTaTaTaTaTaTaTaTaTaTaTaTaTaTaTaTaVaWaQaQbib8b7bJb6b6b6b6b6b6b6b6b6b6b6b6b6b6b6b6b6b6b6b6b6b6b6b6b6b6b6b6b6b6b6b6b6b6b6b6b6b6b6b6b6b6b6b6b6b6b6b6b6b6b6b:b;cFcFcFcFcFcFcFcFcFcF",
"cFcFcFcFcFcFcFcFcFcFb<b6b5b6b6b6b6b6b6b6b6b6b6b6b6b6b6b6b6b6b6b6b6b6b6b6b6b6b6b6b6b6b6b6b6b6b6b6b6b6b6b6b6b6b6b6b6b6b6b6b6b6bBcrbya>aaakakahahahahahahahahahahahahahahahahahahahahahakafaea0ctbQb2b6b6b6b6b6b6b6b6b6b6b6b6b6b6b6b6b6b6b6b6b6b6b6b6b6b6b6b6b6b6b6b6b6b6b6b6b6b6b6b6b6b6b6b6b6b6b6b6b6b6b6b6b6b6b6b6b6b6b6b6b6b6bUbUcjbiaQaSaUaTaTaTaTaTaTaTaTaTaTaTaTaTaTaTaTaTaTaTaTaTaVaVaNa0bEb9bHb6b6b6b6b6b6b6b6b6b6b6b6b6b6b6b6b6b6b6b6b6b6b6b6b6b6b6b6b6b6b6b6b6b6b6b6b6b6b6b6b6b6b6b6b6b6b6b6b6b6b7b;cFcFcFcFcFcFcFcFcFcF",
"cFcFcFcFcFcFcFcFcFcFb<b6b5b6b6b6b6b6b6b6b6b6b6b6b6b6b6b6b6b6b6b6b6b6b6b6b6b6b6b6b6b6b6b6b6b6b6b6b6b6b6b6b6b6b6b6b6b6b6b6b6bIcrbya1abanahahahahahahahahahahahahahahahahahahahahahahahahajajaaa>ctbOb6b6b6b6b6b6b6b6b6b6b6b6b6b6b6b6b6b6b6b6b6b6b6b6b6b6b6b6b6b6b6b6b6b6b6b6b6b6b6b6b6b6b6b6b6b6b6b6b6b6b6b6b6b6b6b6b6b6b6b6b6b6bTcjbiaNaUaUaTaTaTaTaTaTaTaTaTaTaTaTaTaTaTaTaTaTaTaTaTaTaTaTaZaOa0bEb9bJb6b6b6b6b6b6b6b6b6b6b6b6b6b6b6b6b6b6b6b6b6b6b6b6b6b6b6b6b6b6b6b6b6b6b6b6b6b6b6b6b6b6b6b6b6b6b6b6b6b7b;cFcFcFcFcFcFcFcFcFcF",
"cFcFcFcFcFcFcFcFcFcFb<b6b5b6b6b6b6b6b6b6b6b6b6b6b6b6b6b6b6b6b6b6b6b6b6b6b6b6b6b6b6b6b6b6b6b6b6b6b6b6b6b6b6b6b6b6b6b6b6b6bOb0bAa1adanahahahahahahahahahahahahahahahahahahahahahahahahahahaianaaa>czbBb6b6b6b6b6b6b6b6b6b6b6b6b6b6b6b6b6b6b6b6b6b6b6b6b6b6b6b6b6b6b6b6b6b6b6b6b6b6b6b6b6b6b6b6b6b6b6b6b6b6b6b6b6b6b6b6b6b6b6b6bHclbiaNaYaTaTaTaTaTaTaTaTaTaTaTaTaTaTaTaTaTaTaTaTaTaTaTaTaTaTaTaZaPa0bEb6bTb6b6b6b6b6b6b6b6b6b6b6b6b6b6b6b6b6b6b6b6b6b6b6b6b6b6b6b6b6b6b6b6b6b6b6b6b6b6b6b6b6b6b6b6b6b6b6b6b7b;cFcFcFcFcFcFcFcFcFcF",
"cFcFcFcFcFcFcFcFcFcFb<b6b5b6b6b6b6b6b6b6b6b6b6b6b6b6b6b6b6b6b6b6b6b6b6b6b6b6b6b6b6b6b6b6b6b6b6b6b6b6b6b6b6b6b6b6b6b6b6b6bQcra>abanahahahahahahahahahahahahahahahahahahahahahahahahahahahahaianaba0czbAb6b6b6b6b6b6b6b6b6b6b6b6b6b6b6b6b6b6b6b6b6b6b6b6b6b6b6b6b6b6b6b6b6b6b6b6b6b6b6b6b6b6b6b6b6b6b6b6b6b6b6b6b6b6b6b6b6b6bHclbsaOaYaTaTaTaTaTaTaTaTaTaTaTaTaTaTaTaTaTaTaTaTaTaTaTaTaTaTaTaTaTaZaOa0b9bUb6b6b6b6b6b6b6b6b6b6b6b6b6b6b6b6b6b6b6b6b6b6b6b6b6b6b6b6b6b6b6b6b6b6b6b6b6b6b6b6b6b6b6b6b6b6b6b6b7b;cFcFcFcFcFcFcFcFcFcF",
"cFcFcFcFcFcFcFcFcFcFb-b6b1b6b6b6b6b6b6b6b6b6b6b6b6b6b6b6b6b6b6b6b6b6b6b6b6b6b6b6b6b6b6b6b6b6b6b6b6b6b6b6b6b6b6b6b6b6b6bAcza0aaanahahahahahahahahahahahahahahahahahahahahahahahahahahahahahahajafahbtctbOb6b6b6b6b6b6b6b6b6b6b6b6b6b6b6b6b6b6b6b6b6b6b6b6b6b6b6b6b6b6b6b6b6b6b6b6b6b6b6b6b6b6b6b6b6b6b6b6b6b6b6b6b6b6b6b6bTb9bxaTaSaUaTaTaTaTaTaTaTaTaTaTaTaTaTaTaTaTaTaTaTaTaTaTaTaTaTaTaTaTaTaTaZaNbiclbHb6b6b6b6b6b6b6b6b6b6b6b6b6b6b6b6b6b6b6b6b6b6b6b6b6b6b6b6b6b6b6b6b6b6b6b6b6b6b6b6b6b6b6b6b6b6b5b6b;cFcFcFcFcFcFcFcFcFcF",
"cFcFcFcFcFcFcFcFcFcFb-b6b1b6b6b6b6b6b6b6b6b6b6b6b6b6b6b6b6b6b6b6b6b6b6b6b6b6b6b6b6b6b6b6b6b6b6b6b6b6b6b6b6b6b6b6b6b6bOctbtafahaiahahahahahahahahahahahahahahahahahahahahahahahahahahahahahahahanada>b0b2b6b6b6b6b6b6b6b6b6b6b6b6b6b6b6b6b6b6b6b6b6b6b6b6b6b6b6b6b6b6b6b6b6b6b6b6b6b6b6b6b6b6b6b6b6b6b6b6b6b6b6b6b6b6b6b6b6b8a0aPaYaTaTaTaTaTaTaTaTaTaTaTaTaTaTaTaTaTaTaTaTaTaTaTaTaTaTaTaTaTaTaTaTaTaRbsb9bJb6b6b6b6b6b6b6b6b6b6b6b6b6b6b6b6b6b6b6b6b6b6b6b6b6b6b6b6b6b6b6b6b6b6b6b6b6b6b6b6b6b6b6b6b6b5b6b;cFcFcFcFcFcFcFcFcFcF",
"cFcFcFcFcFcFcFcFcFcFb-b6b1b6b6b6b6b6b6b6b6b6b6b6b6b6b6b6b6b6b6b6b6b6b6b6b6b6b6b6b6b6b6b6b6b6b6b6b6b6b6b6b6b6b6b6b6b6bOcta>adanahahahahahahahahahahahahahahahahahahahahahahahahahahahahahahahahahanaaa0czbAb6b6b6b6b6b6b6b6b6b6b6b6b6b6b6b6b6b6b6b6b6b6b6b6b6b6b6b6b6b6b6b6b6b6b6b6b6b6b6b6b6b6b6b6b6b6b6b6b6b6b6b6b6b6bHcjbiaNaWaTaTaTaTaTaTaTaTaTaTaTaTaTaTaTaTaTaTaTaTaTaTaTaTaTaTaTaTaTaTaTaTaTaYaPa0b9bTb6b6b6b6b6b6b6b6b6b6b6b6b6b6b6b6b6b6b6b6b6b6b6b6b6b6b6b6b6b6b6b6b6b6b6b6b6b6b6b6b6b6b6b6b6b5b6b;cFcFcFcFcFcFcFcFcFcF",
"cFcFcFcFcFcFcFcFcFcFb-b6b1b6b6b6b6b6b6b6b6b6b6b6b6b6b6b6b6b6b6b6b6b6b6b6b6b6b6b6b6b6b6b6b6b6b6b6b6b6b6b6b6b6b6b6b6bBcta0adanahahahahahahahahahahahahahahahahahahahahahahahahahahahahahahahahahahajafa1bAb<b6b6b6b6b6b6b6b6b6b6b6b6b6b6b6b6b6b6b6b6b6b6b6b6b6b6b6b6b6b6b6b6b6b6b6b6b6b6b6b6b6b6b6b6b6b6b6b6b6b6b6b6b6b6b1bJa0aRaUaTaTaTaTaTaTaTaTaTaTaTaTaTaTaTaTaTaTaTaTaTaTaTaTaTaTaTaTaTaTaTaTaTaTaYaPbscjbJb6b6b6b6b6b6b6b6b6b6b6b6b6b6b6b6b6b6b6b6b6b6b6b6b6b6b6b6b6b6b6b6b6b6b6b6b6b6b6b6b6b6b6b6b5b6b;cFcFcFcFcFcFcFcFcFcF",
"cFcFcFcFcFcFcFcFcFcFb7bYb#b.b.b.b.b.b.b.b.b.b.b.b.b.b.b.b.b.b.b.b.b.b.b.b.b.b.b.b.b.b.b.b.b.b.b.b.b.b.b.b.b.b.b.b.bRcta>adamahahahahahahahahahahahahahahahahahahahahahahahahahahahahahahahahahahahanaca0czbCb.b.b.b.b.b.b.b.b.b.b.b.b.b.b.b.b.b.b.b.b.b.b.b.b.b.b.b.b.b.b.b.b.b.b.b.b.b.b.b.b.b.b.b.b.b.b.b.b.b.b.b.bJclbsaOaYaTaTaTaTaTaTaTaTaTaTaTaTaTaTaTaTaTaTaTaTaTaTaTaTaTaTaTaTaTaTaTaTaTaTaTaWaPa0cfbXb.b.b.b.b.b.b.b.b.b.b.b.b.b.b.b.b.b.b.b.b.b.b.b.b.b.b.b.b.b.b.b.b.b.b.b.b.b.b.b.b.b.b.b.b#b.b.cFcFcFcFcFcFcFcFcFcF",
"cFcFcFcFcFcFcFcFcFcFb7bYb#b.b.b.b.b.b.b.b.b.b.b.b.b.b.b.b.b.b.b.b.b.b.b.b.b.b.b.b.b.b.b.b.b.b.b.b.b.b.b.b.b.b.b.bRctbtafaiahahahahahahahahahahahahahahahahahahahahahahahahahahahahahahahahahahahahakada>ctbRb.b.b.b.b.b.b.b.b.b.b.b.b.b.b.b.b.b.b.b.b.b.b.b.b.b.b.b.b.b.b.b.b.b.b.b.b.b.b.b.b.b.b.b.b.b.b.b.b.b.b.b.bXcfa0aPaWaTaTaTaTaTaTaTaTaTaTaTaTaTaTaTaTaTaTaTaTaTaTaTaTaTaTaTaTaTaTaTaTaTaTaTaTaTaSbxb9bXb.b.b.b.b.b.b.b.b.b.b.b.b.b.b.b.b.b.b.b.b.b.b.b.b.b.b.b.b.b.b.b.b.b.b.b.b.b.b.b.b.b.b.b#b.b.cFcFcFcFcFcFcFcFcFcF",
"cFcFcFcFcFcFcFcFcFcFb7bYb#b.b.b.b.b.b.b.b.b.b.b.b.b.b.b.b.b.b.b.b.b.b.b.b.b.b.b.b.b.b.b.b.b.b.b.b.b.b.b.b.b.b.b.bCcBa0aaanahahahahahahahahahahahahahahahahahahahahahahahahahahahahahahahahahahahahahahakbtcrbRb.b.b.b.b.b.b.b.b.b.b.b.b.b.b.b.b.b.b.b.b.b.b.b.b.b.b.b.b.b.b.b.b.b.b.b.b.b.b.b.b.b.b.b.b.b.b.b.b.b.bXb7bxaVaTaTaTaTaTaTaTaTaTaTaTaTaTaTaTaTaTaTaTaTaTaTaTaTaTaTaTaTaTaTaTaTaTaTaTaTaTaTaYaNbiclbJb.b.b.b.b.b.b.b.b.b.b.b.b.b.b.b.b.b.b.b.b.b.b.b.b.b.b.b.b.b.b.b.b.b.b.b.b.b.b.b.b.b.b.b#b.b.cFcFcFcFcFcFcFcFcFcF",
"cFcFcFcFcFcFcFcFcFcFb6b.b<b1b1b1b1b1b1b1b1b1b1b1b1b1b1b1b1b1b1b1b1b1b1b1b1b1b1b1b1b1b1b1b1b1b1b1b1b1b1b1b1b1b1b1b3cta>adakahahahahahahahahahahahahahahahahahahahahahahahahahahahahahahahahahahahahahanaba0czbBb1b1b1b1b1b1b1b1b1b1b1b1b1b1b1b1b1b1b1b1b1b1b1b1b1b1b1b1b1b1b1b1b1b1b1b1b1b1b1b1b1b1b1b1b1b1b1b1b1b1bFcjbiaNaYaTaTaTaTaTaTaTaTaTaTaTaTaTaTaTaTaTaTaTaTaTaTaTaTaTaTaTaTaTaTaTaTaTaTaTaTaTaWaQa0b9b9b1b1b1b1b1b1b1b1b1b1b1b1b1b1b1b1b1b1b1b1b1b1b1b1b1b1b1b1b1b1b1b1b1b1b1b1b1b1b1b1b1b1b1b<b1b.cFcFcFcFcFcFcFcFcFcF",
"cFcFcFcFcFcFcFcFcFcFb6b.b<b1b1b1b1b1b1b1b1b1b1b1b1b1b1b1b1b1b1b1b1b1b1b1b1b1b1b1b1b1b1b1b1b1b1b1b1b1b1b1b1b1b1b7b0byanafajahahahahahahahahahahahahahahahahahahahahahahahahahahahahahahahahahahahahahanaba>cBcdcpcpcpcpcpcpcpcpcpcpcpcpcpcpcpcpcpcpcpcpcpcpcpcpcpcpcpcpcpcpcpcpcpcpcpcpcpcpcpcpcpcpcpcpcpcpcpcpcpcpcgcAbiaOaYaTaTaTaTaTaTaTaTaTaTaTaTaTaTaTaTaTaTaTaTaTaTaTaTaTaTaTaTaTaTaTaTaTaTaTaTaTaUaRaZbEb7b.b1b1b1b1b1b1b1b1b1b1b1b1b1b1b1b1b1b1b1b1b1b1b1b1b1b1b1b1b1b1b1b1b1b1b1b1b1b1b1b1b1b1b<b1b.cFcFcFcFcFcFcFcFcFcF",
"cFcFcFcFcFcFcFcFcFcFb6b.b<b1b1b1b1b1b1b1b1b1b1b1b1b1b1b1b1b1b1b1b1b1b1b1b1b1b1b1b1b1b1b1b1b1b1b1b1b1b1b1b1b1b1b3ctbtafajahahahahahahahahahahahahahahahahahahahahahahahahahahahahahahahahahahahahahahajaea1bkbjblblblblblblblblblblblblblblblblblblblblblblblblblblblblblblblblblblblblblblblblblblblblblblblblblblbkbla0aQaUaTaTaTaTaTaTaTaTaTaTaTaTaTaTaTaTaTaTaTaTaTaTaTaTaTaTaTaTaTaTaTaTaTaTaTaTaTaTaVaRbscjbXb1b1b1b1b1b1b1b1b1b1b1b1b1b1b1b1b1b1b1b1b1b1b1b1b1b1b1b1b1b1b1b1b1b1b1b1b1b1b1b1b1b1b<b1b.cFcFcFcFcFcFcFcFcFcF",
"cFcFcFcFcFcFcFcFcFcFb6b.b<b1b1b1b1b1b1b1b1b1b1b1b1b1b1b1b1b1b1b1b1b1b1b1b1b1b1b1b1b1b1b1b1b1b1b1b1b1b1b1b1b1b1bCcza0adanahahahahahahahahahahahahahahahahahahahahahahahahahahahahahahahahahahahahahahaiafaiaparaqapapapapapapapapapapapapapapapapapapapapapapapapapapapapapapapapapapapapapapapapapapapapapapapapaqapayaRaSaTaTaTaTaTaTaTaTaTaTaTaTaTaTaTaTaTaTaTaTaTaTaTaTaTaTaTaTaTaTaTaTaTaTaTaTaTaTaTaYaPbsclbUb1b1b1b1b1b1b1b1b1b1b1b1b1b1b1b1b1b1b1b1b1b1b1b1b1b1b1b1b1b1b1b1b1b1b1b1b1b1b1b1b1b1b<b1b.cFcFcFcFcFcFcFcFcFcF",
"cFcFcFcFcFcFcFcFcFcFb6b.b6b<b<b<b<b<b<b<b<b<b<b<b<b<b<b<b<b<b<b<b<b<b<b<b<b<b<b<b<b<b<b<b<b<b<b<b<b<b<b<b<b<b<bCcBa0aaanahahahahahahahahahahahahahahahahahahahahahahahahahahahahahahahahahahahahahahahagala2a5a6a6a6a6a6a6a6a6a6a6a6a6a6a6a6a6a6a6a6a6a6a6a6a6a6a6a6a6a6a6a6a6a6a6a6a6a6a6a6a6a6a6a6a6a6a6a6a6a6a6a3aMaVaTaTaTaTaTaTaTaTaTaTaTaTaTaTaTaTaTaTaTaTaTaTaTaTaTaTaTaTaTaTaTaTaTaTaTaTaTaTaTaTaYaNbiclbJb<b<b<b<b<b<b<b<b<b<b<b<b<b<b<b<b<b<b<b<b<b<b<b<b<b<b<b<b<b<b<b<b<b<b<b<b<b<b<b<b<b<b6b1b#cFcFcFcFcFcFcFcFcFcF",
"cFcFcFcFcFcFcFcFcFcFb6b.b6b<b<b<b<b<b<b<b<b<b<b<b<b<b<b<b<b<b<b<b<b<b<b<b<b<b<b<b<b<b<b<b<b<b<b<b<b<b<b<b<b<b<bCcBa0aaanahahahahahahahahahahahahahahahahahahahahahahahahahahahahahahahahahahahahahahahahaha2a5aHaHaHaHaHaHaHaHaHaHaHaHaHaHaHaHaHaHaHaHaHaHaHaHaHaHaHaHaHaHaHaHaHaHaHaHaHaHaHaHaHaHaHaHaHaHaHaHaHaJaGaMaTaTaTaTaTaTaTaTaTaTaTaTaTaTaTaTaTaTaTaTaTaTaTaTaTaTaTaTaTaTaTaTaTaTaTaTaTaTaTaTaTaYaNbiclbJb<b<b<b<b<b<b<b<b<b<b<b<b<b<b<b<b<b<b<b<b<b<b<b<b<b<b<b<b<b<b<b<b<b<b<b<b<b<b<b<b<b<b6b1b#cFcFcFcFcFcFcFcFcFcF",
"cFcFcFcFcFcFcFcFcFcFb6b.b6b<b<b<b<b<b<b<b<b<b<b<b<b<b<b<b<b<b<b<b<b<b<b<b<b<b<b<b<b<b<b<b<b<b<b<b<b<b<b<b<b<b<bCcBa0aaanahahahahahahahahahahahahahahahahahahahahahahahahahahahahahahahahahahahahahahahahaha2a5aHaHaHaHaHaHaHaHaHaHaHaHaHaHaHaHaHaHaHaHaHaHaHaHaHaHaHaHaHaHaHaHaHaHaHaHaHaHaHaHaHaHaHaHaHaHaHaHaHaJaGaMaTaTaTaTaTaTaTaTaTaTaTaTaTaTaTaTaTaTaTaTaTaTaTaTaTaTaTaTaTaTaTaTaTaTaTaTaTaTaTaTaTaYaNbiclbJb<b<b<b<b<b<b<b<b<b<b<b<b<b<b<b<b<b<b<b<b<b<b<b<b<b<b<b<b<b<b<b<b<b<b<b<b<b<b<b<b<b<b6b1b#cFcFcFcFcFcFcFcFcFcF",
"cFcFcFcFcFcFcFcFcFcFb6b.b6b<b<b<b<b<b<b<b<b<b<b<b<b<b<b<b<b<b<b<b<b<b<b<b<b<b<b<b<b<b<b<b<b<b<b<b<b<b<b<b<b<b<bCcBa0aaanahahahahahahahahahahahahahahahahahahahahahahahahahahahahahahahahahahahahahahahagaia2a5a6a6a6a6a6a6a6a6a6a6a6a6a6a6a6a6a6a6a6a6a6a6a6a6a6a6a6a6a6a6a6a6a6a6a6a6a6a6a6a6a6a6a6a6a6a6a6a6a6a6aHaMaVaTaTaTaTaTaTaTaTaTaTaTaTaTaTaTaTaTaTaTaTaTaTaTaTaTaTaTaTaTaTaTaTaTaTaTaTaTaTaTaTaYaNbiclbJb<b<b<b<b<b<b<b<b<b<b<b<b<b<b<b<b<b<b<b<b<b<b<b<b<b<b<b<b<b<b<b<b<b<b<b<b<b<b<b<b<b<b6b1b#cFcFcFcFcFcFcFcFcFcF",
"cFcFcFcFcFcFcFcFcFcFb6b#b6b<b<b<b<b<b<b<b<b<b<b<b<b<b<b<b<b<b<b<b<b<b<b<b<b<b<b<b<b<b<b<b<b<b<b<b<b<b<b<b<b<b<bBcza0acanahahahahahahahahahahahahahahahahahahahahahahahahahahahahahahahahahahahahahahaiafalaxataqasasasasasasasasasasasasasasasasasasasasasasasasasasasasasasasasasasasasasasasasasasasasasasasasasaqayaRaSaTaTaTaTaTaTaTaTaTaTaTaTaTaTaTaTaTaTaTaTaTaTaTaTaTaTaTaTaTaTaTaTaTaTaTaTaTaTaTaYaObsclbHb<b<b<b<b<b<b<b<b<b<b<b<b<b<b<b<b<b<b<b<b<b<b<b<b<b<b<b<b<b<b<b<b<b<b<b<b<b<b<b<b<b<b6b:b#cFcFcFcFcFcFcFcFcFcF",
"cFcFcFcFcFcFcFcFcFcFb6b#b6b<b<b<b<b<b<b<b<b<b<b<b<b<b<b<b<b<b<b<b<b<b<b<b<b<b<b<b<b<b<b<b<b<b<b<b<b<b<b<b<b<b<bOctbtaeakahahahahahahahahahahahahahahahahahahahahahahahahahahahahahahahahahahahahahahajafa1a8a8a8a8a8a8a8a8a8a8a8a8a8a8a8a8a8a8a8a8a8a8a8a8a8a8a8a8a8a8a8a8a8a8a8a8a8a8a8a8a8a8a8a8a8a8a8a8a8a8a8a8a8a8aZaRaUaTaTaTaTaTaTaTaTaTaTaTaTaTaTaTaTaTaTaTaTaTaTaTaTaTaTaTaTaTaTaTaTaTaTaTaTaTaTaVaQbscjbXb<b<b<b<b<b<b<b<b<b<b<b<b<b<b<b<b<b<b<b<b<b<b<b<b<b<b<b<b<b<b<b<b<b<b<b<b<b<b<b<b<b<b6b:b#cFcFcFcFcFcFcFcFcFcF",
"cFcFcFcFcFcFcFcFcFcFb6b#b6b<b<b<b<b<b<b<b<b<b<b<b<b<b<b<b<b<b<b<b<b<b<b<b<b<b<b<b<b<b<b<b<b<b<b<b<b<b<b<b<b<b<bQb0bvanafajahahahahahahahahahahahahahahahahahahahahahahahahahahahahahahahahahahahahahanaca>cBcdcgcgcgcgcgcgcgcgcgcgcgcgcgcgcgcgcgcgcgcgcgcgcgcgcgcgcgcgcgcgcgcgcgcgcgcgcgcgcgcgcgcgcgcgcgcgcgcgcgcgcccAbiaOaYaTaTaTaTaTaTaTaTaTaTaTaTaTaTaTaTaTaTaTaTaTaTaTaTaTaTaTaTaTaTaTaTaTaTaTaTaTaUaSaZbzb7bXb<b<b<b<b<b<b<b<b<b<b<b<b<b<b<b<b<b<b<b<b<b<b<b<b<b<b<b<b<b<b<b<b<b<b<b<b<b<b<b<b<b<b6b:b#cFcFcFcFcFcFcFcFcFcF",
"cFcFcFcFcFcFcFcFcFcFb6b#b6b6b6b6b6b6b6b6b6b6b6b6b6b6b6b6b6b6b6b6b6b6b6b6b6b6b6b6b6b6b6b6b6b6b6b6b6b6b6b6b6b6b6b6bQb0a1aeakahahahahahahahahahahahahahahahahahahahahahahahahahahahahahahahahahahahahahanaaa0czbBbNbNbNbNbNbNbNbNbNbNbNbNbNbNbNbNbNbNbNbNbNbNbNbNbNbNbNbNbNbNbNbNbNbNbNbNbNbNbNbNbNbNbNbNbNbNbNbNbNbNbGcjbiaNaYaTaTaTaTaTaTaTaTaTaTaTaTaTaTaTaTaTaTaTaTaTaTaTaTaTaTaTaTaTaTaTaTaTaTaTaTaTaWaQa0b8bTb6b6b6b6b6b6b6b6b6b6b6b6b6b6b6b6b6b6b6b6b6b6b6b6b6b6b6b6b6b6b6b6b6b6b6b6b6b6b6b6b6b6b6b6b6b#cFcFcFcFcFcFcFcFcFcF",
"cFcFcFcFcFcFcFcFcFcFb6b#b6b6b6b6b6b6b6b6b6b6b6b6b6b6b6b6b6b6b6b6b6b6b6b6b6b6b6b6b6b6b6b6b6b6b6b6b6b6b6b6b6b6b6b6bBcBa>aaanahahahahahahahahahahahahahahahahahahahahahahahahahahahahahahahahahahahahahaiagbtctbOb6b6b6b6b6b6b6b6b6b6b6b6b6b6b6b6b6b6b6b6b6b6b6b6b6b6b6b6b6b6b6b6b6b6b6b6b6b6b6b6b6b6b6b6b6b6b6b6b6b6bTb9bsaSaTaTaTaTaTaTaTaTaTaTaTaTaTaTaTaTaTaTaTaTaTaTaTaTaTaTaTaTaTaTaTaTaTaTaTaTaTaTaYaNbiclbHb6b6b6b6b6b6b6b6b6b6b6b6b6b6b6b6b6b6b6b6b6b6b6b6b6b6b6b6b6b6b6b6b6b6b6b6b6b6b6b6b6b6b6b6b6b#cFcFcFcFcFcFcFcFcFcF",
"cFcFcFcFcFcFcFcFcFcFb6b#b6b6b6b6b6b6b6b6b6b6b6b6b6b6b6b6b6b6b6b6b6b6b6b6b6b6b6b6b6b6b6b6b6b6b6b6b6b6b6b6b6b6b6b6bOctbtafajahahahahahahahahahahahahahahahahahahahahahahahahahahahahahahahahahahahahakaea1b0bQb6b6b6b6b6b6b6b6b6b6b6b6b6b6b6b6b6b6b6b6b6b6b6b6b6b6b6b6b6b6b6b6b6b6b6b6b6b6b6b6b6b6b6b6b6b6b6b6b6b6b6b6bTb9a0aQaWaTaTaTaTaTaTaTaTaTaTaTaTaTaTaTaTaTaTaTaTaTaTaTaTaTaTaTaTaTaTaTaTaTaTaTaTaVaRbscjbXb6b6b6b6b6b6b6b6b6b6b6b6b6b6b6b6b6b6b6b6b6b6b6b6b6b6b6b6b6b6b6b6b6b6b6b6b6b6b6b6b6b6b6b6b6b#cFcFcFcFcFcFcFcFcFcF",
"cFcFcFcFcFcFcFcFcFcFb6b#b6b6b6b6b6b6b6b6b6b6b6b6b6b6b6b6b6b6b6b6b6b6b6b6b6b6b6b6b6b6b6b6b6b6b6b6b6b6b6b6b6b6b6b6b6bQb0a1aeakahahahahahahahahahahahahahahahahahahahahahahahahahahahahahahahahahahahanaba0czbBb6b6b6b6b6b6b6b6b6b6b6b6b6b6b6b6b6b6b6b6b6b6b6b6b6b6b6b6b6b6b6b6b6b6b6b6b6b6b6b6b6b6b6b6b6b6b6b6b6b6b6b6bHclbiaOaYaTaTaTaTaTaTaTaTaTaTaTaTaTaTaTaTaTaTaTaTaTaTaTaTaTaTaTaTaTaTaTaTaTaTaTaWaQa0b9bUb6b6b6b6b6b6b6b6b6b6b6b6b6b6b6b6b6b6b6b6b6b6b6b6b6b6b6b6b6b6b6b6b6b6b6b6b6b6b6b6b6b6b6b6b6b6b#cFcFcFcFcFcFcFcFcFcF",
"cFcFcFcFcFcFcFcFcFcFbRb.b7b7b7b7b7b7b7b7b7b7b7b7b7b7b7b7b7b7b7b7b7b7b7b7b7b7b7b7b7b7b7b7b7b7b7b7b7b7b7b7b7b7b7b7b7bCcBa0abanahahahahahahahahahahahahahahahahahahahahahahahahahahahahahahahahahahajafa1byb0bRb7b7b7b7b7b7b7b7b7b7b7b7b7b7b7b7b7b7b7b7b7b7b7b7b7b7b7b7b7b7b7b7b7b7b7b7b7b7b7b7b7b7b7b7b7b7b7b7b7b7b7b7bVb7bEaZaRaUaTaTaTaTaTaTaTaTaTaTaTaTaTaTaTaTaTaTaTaTaTaTaTaTaTaTaTaTaTaTaTaTaTaTaYaObsclbIb7b7b7b7b7b7b7b7b7b7b7b7b7b7b7b7b7b7b7b7b7b7b7b7b7b7b7b7b7b7b7b7b7b7b7b7b7b7b7b7b7b7b7b7b7b7b.cFcFcFcFcFcFcFcFcFcF",
"cFcFcFcFcFcFcFcFcFcFbRb.b7b7b7b7b7b7b7b7b7b7b7b7b7b7b7b7b7b7b7b7b7b7b7b7b7b7b7b7b7b7b7b7b7b7b7b7b7b7b7b7b7b7b7b7b7b7b3b0a1aeakahahahahahahahahahahahahahahahahahahahahahahahahahahahahahahahahahanaaa0czbCb7b7b7b7b7b7b7b7b7b7b7b7b7b7b7b7b7b7b7b7b7b7b7b7b7b7b7b7b7b7b7b7b7b7b7b7b7b7b7b7b7b7b7b7b7b7b7b7b7b7b7b7b7b7bIclbiaNaZaTaTaTaTaTaTaTaTaTaTaTaTaTaTaTaTaTaTaTaTaTaTaTaTaTaTaTaTaTaTaTaTaTaWaQa0b7b7b7b7b7b7b7b7b7b7b7b7b7b7b7b7b7b7b7b7b7b7b7b7b7b7b7b7b7b7b7b7b7b7b7b7b7b7b7b7b7b7b7b7b7b7b7b7b7b.cFcFcFcFcFcFcFcFcFcF",
"cFcFcFcFcFcFcFcFcFcFbRb.b7b7b7b7b7b7b7b7b7b7b7b7b7b7b7b7b7b7b7b7b7b7b7b7b7b7b7b7b7b7b7b7b7b7b7b7b7b7b7b7b7b7b7b7b7b7bCcya0aeakahahahahahahahahahahahahahahahahahahahahahahahahahahahahahahahahamaea1bRb.b3b7b7b7b7b7b7b7b7b7b7b7b7b7b7b7b7b7b7b7b7b7b7b7b7b7b7b7b7b7b7b7b7b7b7b7b7b7b7b7b7b7b7b7b7b7b7b7b7b7b7b7b7b7b7b7b:bVa0aQaWaTaTaTaTaTaTaTaTaTaTaTaTaTaTaTaTaTaTaTaTaTaTaTaTaTaTaTaTaTaTaTaTaVaQbscjbJb7b7b7b7b7b7b7b7b7b7b7b7b7b7b7b7b7b7b7b7b7b7b7b7b7b7b7b7b7b7b7b7b7b7b7b7b7b7b7b7b7b7b7b7b7b7b7b.cFcFcFcFcFcFcFcFcFcF",
"cFcFcFcFcFcFcFcFcFcFbRb.b7b7b7b7b7b7b7b7b7b7b7b7b7b7b7b7b7b7b7b7b7b7b7b7b7b7b7b7b7b7b7b7b7b7b7b7b7b7b7b7b7b7b7b7b7b7b7bAcza>aaanahahahahahahahahahahahahahahahahahahahahahahahahahahahahahahaiaiaebtctbAb7b7b7b7b7b7b7b7b7b7b7b7b7b7b7b7b7b7b7b7b7b7b7b7b7b7b7b7b7b7b7b7b7b7b7b7b7b7b7b7b7b7b7b7b7b7b7b7b7b7b7b7b7b7b7b7bIcjbsaRaTaTaTaTaTaTaTaTaTaTaTaTaTaTaTaTaTaTaTaTaTaTaTaTaTaTaTaTaTaTaTaTaZaNbiclbIb7b7b7b7b7b7b7b7b7b7b7b7b7b7b7b7b7b7b7b7b7b7b7b7b7b7b7b7b7b7b7b7b7b7b7b7b7b7b7b7b7b7b7b7b7b7b7b7b.cFcFcFcFcFcFcFcFcFcF",
"cFcFcFcFcFcFcFcFcFcFbRb.b6b7b7b7b7b7b7b7b7b7b7b7b7b7b7b7b7b7b7b7b7b7b7b7b7b7b7b7b7b7b7b7b7b7b7b7b7b7b7b7b7b7b7b7b7b7b7b3b.b.a1adanahahahahahahahahahahahahahahahahahahahahahahahahahahahahahanaaa0cBbAb7b7b7b7b7b7b7b7b7b7b7b7b7b7b7b7b7b7b7b7b7b7b7b7b7b7b7b7b7b7b7b7b7b7b7b7b7b7b7b7b7b7b7b7b7b7b7b7b7b7b7b7b7b7b7b7b7b7bIclbiaNaZaTaTaTaTaTaTaTaTaTaTaTaTaTaTaTaTaTaTaTaTaTaTaTaTaTaTaTaTaTaWaPa0b:b:b7b7b7b7b7b7b7b7b7b7b7b7b7b7b7b7b7b7b7b7b7b7b7b7b7b7b7b7b7b7b7b7b7b7b7b7b7b7b7b7b7b7b7b7b7b7b7b6b7bVcFcFcFcFcFcFcFcFcFcF",
"cFcFcFcFcFcFcFcFcFcFbRb.b6b7b7b7b7b7b7b7b7b7b7b7b7b7b7b7b7b7b7b7b7b7b7b7b7b7b7b7b7b7b7b7b7b7b7b7b7b7b7b7b7b7b7b7b7b7b7b7bOcrbvanaeanahahahahahahahahahahahahahahahahahahahahahahahahahahahanaaa>ctbOb7b7b7b7b7b7b7b7b7b7b7b7b7b7b7b7b7b7b7b7b7b7b7b7b7b7b7b7b7b7b7b7b7b7b7b7b7b7b7b7b7b7b7b7b7b7b7b7b7b7b7b7b7b7b7b7b7b7b7b7bUcjbiaNaZaTaTaTaTaTaTaTaTaTaTaTaTaTaTaTaTaTaTaTaTaTaTaTaTaTaTaTaWaQaZbzb9bUb7b7b7b7b7b7b7b7b7b7b7b7b7b7b7b7b7b7b7b7b7b7b7b7b7b7b7b7b7b7b7b7b7b7b7b7b7b7b7b7b7b7b7b7b7b7b7b6b7bVcFcFcFcFcFcFcFcFcFcF",
"cFcFcFcFcFcFcFcFcFcFbRb.b6b7b7b7b7b7b7b7b7b7b7b7b7b7b7b7b7b7b7b7b7b7b7b7b7b7b7b7b7b7b7b7b7b7b7b7b7b7b7b7b7b7b7b7b7b7b7b7b7bActbtanadanahahahahahahahahahahahahahahahahahahahahahahahahajanaaa>crb7bRb7b7b7b7b7b7b7b7b7b7b7b7b7b7b7b7b7b7b7b7b7b7b7b7b7b7b7b7b7b7b7b7b7b7b7b7b7b7b7b7b7b7b7b7b7b7b7b7b7b7b7b7b7b7b7b7b7b7b7b7bVb7b9biaNaWaUaTaTaTaTaTaTaTaTaTaTaTaTaTaTaTaTaTaTaTaTaTaTaTaTaZaPaZbxcfbIb7b7b7b7b7b7b7b7b7b7b7b7b7b7b7b7b7b7b7b7b7b7b7b7b7b7b7b7b7b7b7b7b7b7b7b7b7b7b7b7b7b7b7b7b7b7b7b7b6b7bVcFcFcFcFcFcFcFcFcFcF",
"cFcFcFcFcFcFcFcFcFcFbRbVb6b7b7b7b7b7b7b7b7b7b7b7b7b7b7b7b7b7b7b7b7b7b7b7b7b7b7b7b7b7b7b7b7b7b7b7b7b7b7b7b7b7b7b7b7b7b7b7b7b7bActbva1aaanajahahahahahahahahahahahahahahahahahahahahahanagaaa>crb3bRb7b7b7b7b7b7b7b7b7b7b7b7b7b7b7b7b7b7b7b7b7b7b7b7b7b7b7b7b7b7b7b7b7b7b7b7b7b7b7b7b7b7b7b7b7b7b7b7b7b7b7b7b7b7b7b7b7b7b7b7b7b7bUb>b9biaNaSaYaTaTaTaTaTaTaTaTaTaTaTaTaTaTaTaTaTaTaTaTaTaUaYaNa0bxcjbIb7b7b7b7b7b7b7b7b7b7b7b7b7b7b7b7b7b7b7b7b7b7b7b7b7b7b7b7b7b7b7b7b7b7b7b7b7b7b7b7b7b7b7b7b7b7b7b7b7b6b7bVcFcFcFcFcFcFcFcFcFcF",
"cFcFcFcFcFcFcFcFcFcFbRbVb6b7b7b7b7b7b7b7b7b7b7b7b7b7b7b7b7b7b7b7b7b7b7b7b7b7b7b7b7b7b7b7b7b7b7b7b7b7b7b7b7b7b7b7b7b7b7b7b7b7b7bActbAa>aaafanajahahahahahahahahahahahahahahahahahakanadaga0czb7bRb7b7b7b7b7b7b7b7b7b7b7b7b7b7b7b7b7b7b7b7b7b7b7b7b7b7b7b7b7b7b7b7b7b7b7b7b7b7b7b7b7b7b7b7b7b7b7b7b7b7b7b7b7b7b7b7b7b7b7b7b7b7b7b7bTb7cjbiaSaPaYaVaTaTaTaTaTaTaTaTaTaTaTaTaTaTaTaTaTaUaWaRaNa0bEb9bIb7b7b7b7b7b7b7b7b7b7b7b7b7b7b7b7b7b7b7b7b7b7b7b7b7b7b7b7b7b7b7b7b7b7b7b7b7b7b7b7b7b7b7b7b7b7b7b7b7b7b6b7bVcFcFcFcFcFcFcFcFcFcF",
"cFcFcFcFcFcFcFcFcDcFb2b2bRb7b7b7b7b7b7b7b7b7b7b7b7b7b7b7b7b7b7b7b7b7b7b7b7b7b7b7b7b7b7b7b7b7b7b7b7b7b7b7b7b7b7b7b7b7b7b7b7b7b7b7bAb0cta0anaaafanakaiahahahahahahahahahahahajanakaeaca>btczbCbRb7b7b7b7b7b7b7b7b7b7b7b7b7b7b7b7b7b7b7b7b7b7b7b7b7b7b7b7b7b7b7b7b7b7b7b7b7b7b7b7b7b7b7b7b7b7b7b7b7b7b7b7b7b7b7b7b7b7b7b7b7b7b7b7b7b7bVbJclbxa0aOaQaWaYaUaTaTaTaTaTaTaTaTaTaTaTaTaWaYaRaNaZbicjb6bIb7b7b7b7b7b7b7b7b7b7b7b7b7b7b7b7b7b7b7b7b7b7b7b7b7b7b7b7b7b7b7b7b7b7b7b7b7b7b7b7b7b7b7b7b7b7b7b7b7b7b7b6bUbRcFcFcFcFcFcFcFcFcFcF",
"cFcFcFcFcFcFcFcFcDcFbPb6bRb7b7b7b7b7b7b7b7b7b7b7b7b7b7b7b7b7b7b7b7b7b7b7b7b7b7b7b7b7b7b7b7b7b7b7b7b7b7b7b7b7b7b7b7b7b7b7b7b7b7b7b7bRbCczbya>anaaadaganananakakakakakananakafacada1a0ctctbAb7b7b7b7b7b7b7b7b7b7b7b7b7b7b7b7b7b7b7b7b7b7b7b7b7b7b7b7b7b7b7b7b7b7b7b7b7b7b7b7b7b7b7b7b7b7b7b7b7b7b7b7b7b7b7b7b7b7b7b7b7b7b7b7b7b7b7b7b7b7bJb9b9bsa0aPaOaRaVaYaYaWaVaVaVaVaYaYaYaSaPaNaZbibEclbTbTb7b7b7b7b7b7b7b7b7b7b7b7b7b7b7b7b7b7b7b7b7b7b7b7b7b7b7b7b7b7b7b7b7b7b7b7b7b7b7b7b7b7b7b7b7b7b7b7b7b7b7b7b6bVbQcFcFcFcFcFcFcFcFcFcF",
"cFcFcFcFcFcFcFcFcDcFb6b<b.b<b<b<b<b<b<b<b<b<b<b<b<b<b<b<b<b<b<b<b<b<b<b<b<b<b<b<b<b<b<b<b<b<b<b<b<b<b<b<b<b<b<b<b<b<b<b<b<b<b<b<b<b<b<bCb0cBbya0a>alacaaacaeaeaeaeadacaaaea1a>a0b0czb6b3b<b<b<b<b<b<b<b<b<b<b<b<b<b<b<b<b<b<b<b<b<b<b<b<b<b<b<b<b<b<b<b<b<b<b<b<b<b<b<b<b<b<b<b<b<b<b<b<b<b<b<b<b<b<b<b<b<b<b<b<b<b<b<b<b<b<b<b<b<b<b<b<b9b#clb7bsbiaZaQaNaOaPaQaQaQaQaPaNaPaVa0bibEclb7bTb<b<b<b<b<b<b<b<b<b<b<b<b<b<b<b<b<b<b<b<b<b<b<b<b<b<b<b<b<b<b<b<b<b<b<b<b<b<b<b<b<b<b<b<b<b<b<b<b<b<b<b<b<b<b.b<b;cFcDcFcFcFcFcFcFcFcF",
"cFcFcFcFcFcFcFcFcDcFbTb<b.b<b<b<b<b<b<b<b<b<b<b<b<b<b<b<b<b<b<b<b<b<b<b<b<b<b<b<b<b<b<b<b<b<b<b<b<b<b<b<b<b<b<b<b<b<b<b<b<b<b<b<b<b<b<b<b6bCb0cBctbva0a>a>a1a1a1a1a>a>a0a0byczczb<bCb<b<b<b<b<b<b<b<b<b<b<b<b<b<b<b<b<b<b<b<b<b<b<b<b<b<b<b<b<b<b<b<b<b<b<b<b<b<b<b<b<b<b<b<b<b<b<b<b<b<b<b<b<b<b<b<b<b<b<b<b<b<b<b<b<b<b<b<b<b<b<b<b<b<b<b<bTb<cjclbEbsbibia0a0a0a0a0a0bibsbxb9clb7bTb#b<b<b<b<b<b<b<b<b<b<b<b<b<b<b<b<b<b<b<b<b<b<b<b<b<b<b<b<b<b<b<b<b<b<b<b<b<b<b<b<b<b<b<b<b<b<b<b<b<b<b<b<b<b<b<b.b<b5cFcDcFcFcFcFcFcFcFcF",
"cFcFcFcFcFcFcFcFcDcFb6b-b.b<b<b<b<b<b<b<b<b<b<b<b<b<b<b<b<b<b<b<b<b<b<b<b<b<b<b<b<b<b<b<b<b<b<b<b<b<b<b<b<b<b<b<b<b<b<b<b<b<b<b<b<b<b<b<b<b<b6bCb6ctczcBczcrb6b<b<ctczcBczb0bCbCb<b<b<b<b<b<b<b<b<b<b<b<b<b<b<b<b<b<b<b<b<b<b<b<b<b<b<b<b<b<b<b<b<b<b<b<b<b<b<b<b<b<b<b<b<b<b<b<b<b<b<b<b<b<b<b<b<b<b<b<b<b<b<b<b<b<b<b<b<b<b<b<b<b<b<b<b<b<b<b<bXbTb7cjclclb9b<b<b#b9clclclb9b9bTb#b<b<b<b<b<b<b<b<b<b<b<b<b<b<b<b<b<b<b<b<b<b<b<b<b<b<b<b<b<b<b<b<b<b<b<b<b<b<b<b<b<b<b<b<b<b<b<b<b<b<b<b<b<b<b<b<b<b.b<b6cFcDcFcFcFcFcFcFcFcF",
"cFcFcFcFcFcFcFcFcFcFb8b6b<b<b<b<b<b<b<b<b<b<b<b<b<b<b<b<b<b<b<b<b<b<b<b<b<b<b<b<b<b<b<b<b<b<b<b<b<b<b<b<b<b<b<b<b<b<b<b<b<b<b<b<b<b<b<b<b<b<b<b<b<b6bBbBbBb6b3b<b<b2bBbBb2b6b<b<b<b<b<b<b<b<b<b<b<b<b<b<b<b<b<b<b<b<b<b<b<b<b<b<b<b<b<b<b<b<b<b<b<b<b<b<b<b<b<b<b<b<b<b<b<b<b<b<b<b<b<b<b<b<b<b<b<b<b<b<b<b<b<b<b<b<b<b<b<b<b<b<b<b<b<b<b<b<b<b<b<b<b#bXbJbJb9b<b<b<b#bXbJbJb9b<b<b<b<b<b<b<b<b<b<b<b<b<b<b<b<b<b<b<b<b<b<b<b<b<b<b<b<b<b<b<b<b<b<b<b<b<b<b<b<b<b<b<b<b<b<b<b<b<b<b<b<b<b<b<b<b<b<b<b<b.b5b@cFcFcFcFcFcFcFcFcFcF",
"cFcFcFcFcFcFcFcFcFcFbzb1b,b<b<b<b<b<b<b<b<b<b<b<b<b<b<b<b<b<b<b<b<b<b<b<b<b<b<b<b<b<b<b<b<b<b<b<b<b<b<b<b<b<b<b<b<b<b<b<b<b<b<b<b<b<b<b<b<b<b<b<b<b<b<b<b<b<b<b<b<b<b<b<b<b<b<b<b<b<b<b<b<b<b<b<b<b<b<b<b<b<b<b<b<b<b<b<b<b<b<b<b<b<b<b<b<b<b<b<b<b<b<b<b<b<b<b<b<b<b<b<b<b<b<b<b<b<b<b<b<b<b<b<b<b<b<b<b<b<b<b<b<b<b<b<b<b<b<b<b<b<b<b<b<b<b<b<b<b<b<b<b<b<b<b<b<b<b<b<b<b<b<b<b<b<b<b<b<b<b<b<b<b<b<b<b<b<b<b<b<b<b<b<b<b<b<b<b<b<b<b<b<b<b<b<b<b<b<b<b<b<b<b<b<b<b<b<b<b<b<b<b<b<b<b<b<b<b<b<b<b<b<b<b<b4cFcFcFcFcFcFcFcFcFcF",
"cFcFcFcFcFcFcFcFcFcFcFb#b<b#b<b<b<b<b<b<b<b<b<b<b<b<b<b<b<b<b<b<b<b<b<b<b<b<b<b<b<b<b<b<b<b<b<b<b<b<b<b<b<b<b<b<b<b<b<b<b<b<b<b<b<b<b<b<b<b<b<b<b<b<b<b<b<b<b<b<b<b<b<b<b<b<b<b<b<b<b<b<b<b<b<b<b<b<b<b<b<b<b<b<b<b<b<b<b<b<b<b<b<b<b<b<b<b<b<b<b<b<b<b<b<b<b<b<b<b<b<b<b<b<b<b<b<b<b<b<b<b<b<b<b<b<b<b<b<b<b<b<b<b<b<b<b<b<b<b<b<b<b<b<b<b<b<b<b<b<b<b<b<b<b<b<b<b<b<b<b<b<b<b<b<b<b<b<b<b<b<b<b<b<b<b<b<b<b<b<b<b<b<b<b<b<b<b<b<b<b<b<b<b<b<b<b<b<b<b<b<b<b<b<b<b<b<b<b<b<b<b<b<b<b<b<b<b<b<b<b<b<b<b<b<bycFcFcFcFcFcFcFcFcFcF",
"cFcFcFcFcFcFcFcFcFcFcFb,b-b#b<b<b<b<b<b<b<b<b<b<b<b<b<b<b<b<b<b<b<b<b<b<b<b<b<b<b<b<b<b<b<b<b<b<b<b<b<b<b<b<b<b<b<b<b<b<b<b<b<b<b<b<b<b<b<b<b<b<b<b<b<b<b<b<b<b<b<b<b<b<b<b<b<b<b<b<b<b<b<b<b<b<b<b<b<b<b<b<b<b<b<b<b<b<b<b<b<b<b<b<b<b<b<b<b<b<b<b<b<b<b<b<b<b<b<b<b<b<b<b<b<b<b<b<b<b<b<b<b<b<b<b<b<b<b<b<b<b<b<b<b<b<b<b<b<b<b<b<b<b<b<b<b<b<b<b<b<b<b<b<b<b<b<b<b<b<b<b<b<b<b<b<b<b<b<b<b<b<b<b<b<b<b<b<b<b<b<b<b<b<b<b<b<b<b<b<b<b<b<b<b<b<b<b<b<b<b<b<b<b<b<b<b<b<b<b<b<b<b<b<b<b<b<b<b<b<b<b<b#b<b<cFcFcFcFcFcFcFcFcFcFcF",
"cFcFcFcFcFcFcFcFcFcDcFb.b1b8b1b1b1b1b1b1b1b1b1b1b1b1b1b1b1b1b1b1b1b1b1b1b1b1b1b1b1b1b1b1b1b1b1b1b1b1b1b1b1b1b1b1b1b1b1b1b1b1b1b1b1b1b1b1b1b1b1b1b1b1b1b1b1b1b1b1b1b1b1b1b1b1b1b1b1b1b1b1b1b1b1b1b1b1b1b1b1b1b1b1b1b1b1b1b1b1b1b1b1b1b1b1b1b1b1b1b1b1b1b1b1b1b1b1b1b1b1b1b1b1b1b1b1b1b1b1b1b1b1b1b1b1b1b1b1b1b1b1b1b1b1b1b1b1b1b1b1b1b1b1b1b1b1b1b1b1b1b1b1b1b1b1b1b1b1b1b1b1b1b1b1b1b1b1b1b1b1b1b1b1b1b1b1b1b1b1b1b1b1b1b1b1b1b1b1b1b1b1b1b1b1b1b1b1b1b1b1b1b1b1b1b1b1b1b1b1b1b1b1b1b1b1b1b1b1b1b1b1b8b:b6cFcDcFcFcFcFcFcFcFcFcF",
"cFcFcFcFcFcFcFcFcFcFcFb,b<b7b1b1b1b1b1b1b1b1b1b1b1b1b1b1b1b1b1b1b1b1b1b1b1b1b1b1b1b1b1b1b1b1b1b1b1b1b1b1b1b1b1b1b1b1b1b1b1b1b1b1b1b1b1b1b1b1b1b1b1b1b1b1b1b1b1b1b1b1b1b1b1b1b1b1b1b1b1b1b1b1b1b1b1b1b1b1b1b1b1b1b1b1b1b1b1b1b1b1b1b1b1b1b1b1b1b1b1b1b1b1b1b1b1b1b1b1b1b1b1b1b1b1b1b1b1b1b1b1b1b1b1b1b1b1b1b1b1b1b1b1b1b1b1b1b1b1b1b1b1b1b1b1b1b1b1b1b1b1b1b1b1b1b1b1b1b1b1b1b1b1b1b1b1b1b1b1b1b1b1b1b1b1b1b1b1b1b1b1b1b1b1b1b1b1b1b1b1b1b1b1b1b1b1b1b1b1b1b1b1b1b1b1b1b1b1b1b1b1b1b1b1b1b1b1b1b1b1b1b8b8bYcFcDcFcFcFcFcFcFcFcFcF",
"cFcFcFcFcFcFcFcFcFcFcFbAb1b1b.b1b1b1b1b1b1b1b1b1b1b1b1b1b1b1b1b1b1b1b1b1b1b1b1b1b1b1b1b1b1b1b1b1b1b1b1b1b1b1b1b1b1b1b1b1b1b1b1b1b1b1b1b1b1b1b1b1b1b1b1b1b1b1b1b1b1b1b1b1b1b1b1b1b1b1b1b1b1b1b1b1b1b1b1b1b1b1b1b1b1b1b1b1b1b1b1b1b1b1b1b1b1b1b1b1b1b1b1b1b1b1b1b1b1b1b1b1b1b1b1b1b1b1b1b1b1b1b1b1b1b1b1b1b1b1b1b1b1b1b1b1b1b1b1b1b1b1b1b1b1b1b1b1b1b1b1b1b1b1b1b1b1b1b1b1b1b1b1b1b1b1b1b1b1b1b1b1b1b1b1b1b1b1b1b1b1b1b1b1b1b1b1b1b1b1b1b1b1b1b1b1b1b1b1b1b1b1b1b1b1b1b1b1b1b1b1b1b1b1b1b1b1b1b1b1b1b1b1b1bZcFcFcFcFcFcFcFcFcFcFcF",
"cFcFcFcFcFcFcFcFcFcFcFcFb1b1b6b1b1b1b1b1b1b1b1b1b1b1b1b1b1b1b1b1b1b1b1b1b1b1b1b1b1b1b1b1b1b1b1b1b1b1b1b1b1b1b1b1b1b1b1b1b1b1b1b1b1b1b1b1b1b1b1b1b1b1b1b1b1b1b1b1b1b1b1b1b1b1b1b1b1b1b1b1b1b1b1b1b1b1b1b1b1b1b1b1b1b1b1b1b1b1b1b1b1b1b1b1b1b1b1b1b1b1b1b1b1b1b1b1b1b1b1b1b1b1b1b1b1b1b1b1b1b1b1b1b1b1b1b1b1b1b1b1b1b1b1b1b1b1b1b1b1b1b1b1b1b1b1b1b1b1b1b1b1b1b1b1b1b1b1b1b1b1b1b1b1b1b1b1b1b1b1b1b1b1b1b1b1b1b1b1b1b1b1b1b1b1b1b1b1b1b1b1b1b1b1b1b1b1b1b1b1b1b1b1b1b1b1b1b1b1b1b1b1b1b1b1b1b1b1b1b1b7b1b1cFcFcFcFcFcFcFcFcFcFcFcF",
"cFcFcFcFcFcFcFcFcFcFcDcFbUb6b7b.b.b.b.b.b.b.b.b.b.b.b.b.b.b.b.b.b.b.b.b.b.b.b.b.b.b.b.b.b.b.b.b.b.b.b.b.b.b.b.b.b.b.b.b.b.b.b.b.b.b.b.b.b.b.b.b.b.b.b.b.b.b.b.b.b.b.b.b.b.b.b.b.b.b.b.b.b.b.b.b.b.b.b.b.b.b.b.b.b.b.b.b.b.b.b.b.b.b.b.b.b.b.b.b.b.b.b.b.b.b.b.b.b.b.b.b.b.b.b.b.b.b.b.b.b.b.b.b.b.b.b.b.b.b.b.b.b.b.b.b.b.b.b.b.b.b.b.b.b.b.b.b.b.b.b.b.b.b.b.b.b.b.b.b.b.b.b.b.b.b.b.b.b.b.b.b.b.b.b.b.b.b.b.b.b.b.b.b.b.b.b.b.b.b.b.b.b.b.b.b.b.b.b.b.b.b.b.b.b.b.b.b.b.b.b.b.b.b.b.b.b.b.b.b.b.b7b6b>cFcDcFcFcFcFcFcFcFcFcFcF",
"cFcFcFcFcFcFcFcFcFcFcFcFbYb1b.b.b.b.b.b.b.b.b.b.b.b.b.b.b.b.b.b.b.b.b.b.b.b.b.b.b.b.b.b.b.b.b.b.b.b.b.b.b.b.b.b.b.b.b.b.b.b.b.b.b.b.b.b.b.b.b.b.b.b.b.b.b.b.b.b.b.b.b.b.b.b.b.b.b.b.b.b.b.b.b.b.b.b.b.b.b.b.b.b.b.b.b.b.b.b.b.b.b.b.b.b.b.b.b.b.b.b.b.b.b.b.b.b.b.b.b.b.b.b.b.b.b.b.b.b.b.b.b.b.b.b.b.b.b.b.b.b.b.b.b.b.b.b.b.b.b.b.b.b.b.b.b.b.b.b.b.b.b.b.b.b.b.b.b.b.b.b.b.b.b.b.b.b.b.b.b.b.b.b.b.b.b.b.b.b.b.b.b.b.b.b.b.b.b.b.b.b.b.b.b.b.b.b.b.b.b.b.b.b.b.b.b.b.b.b.b.b.b.b.b.b.b.b.b.b.b.b6b<bRcFcFcFcFcFcFcFcFcFcFcFcF",
"cFcFcFcFcFcFcFcFcFcFcFcFcFb2b<b6b.b.b.b.b.b.b.b.b.b.b.b.b.b.b.b.b.b.b.b.b.b.b.b.b.b.b.b.b.b.b.b.b.b.b.b.b.b.b.b.b.b.b.b.b.b.b.b.b.b.b.b.b.b.b.b.b.b.b.b.b.b.b.b.b.b.b.b.b.b.b.b.b.b.b.b.b.b.b.b.b.b.b.b.b.b.b.b.b.b.b.b.b.b.b.b.b.b.b.b.b.b.b.b.b.b.b.b.b.b.b.b.b.b.b.b.b.b.b.b.b.b.b.b.b.b.b.b.b.b.b.b.b.b.b.b.b.b.b.b.b.b.b.b.b.b.b.b.b.b.b.b.b.b.b.b.b.b.b.b.b.b.b.b.b.b.b.b.b.b.b.b.b.b.b.b.b.b.b.b.b.b.b.b.b.b.b.b.b.b.b.b.b.b.b.b.b.b.b.b.b.b.b.b.b.b.b.b.b.b.b.b.b.b.b.b.b.b.b.b.b.b.b.b.b7b1b.cecFcFcFcFcFcFcFcFcFcFcFcF",
"cFcFcFcFcFcFcFcFcFcFcFcDcFb2b6b7b.b7b7b7b7b7b7b7b7b7b7b7b7b7b7b7b7b7b7b7b7b7b7b7b7b7b7b7b7b7b7b7b7b7b7b7b7b7b7b7b7b7b7b7b7b7b7b7b7b7b7b7b7b7b7b7b7b7b7b7b7b7b7b7b7b7b7b7b7b7b7b7b7b7b7b7b7b7b7b7b7b7b7b7b7b7b7b7b7b7b7b7b7b7b7b7b7b7b7b7b7b7b7b7b7b7b7b7b7b7b7b7b7b7b7b7b7b7b7b7b7b7b7b7b7b7b7b7b7b7b7b7b7b7b7b7b7b7b7b7b7b7b7b7b7b7b7b7b7b7b7b7b7b7b7b7b7b7b7b7b7b7b7b7b7b7b7b7b7b7b7b7b7b7b7b7b7b7b7b7b7b7b7b7b7b7b7b7b7b7b7b7b7b7b7b7b7b7b7b7b7b7b7b7b7b7b7b7b7b7b7b7b7b7b7b7b7b7b7b7b7b7b7b.b7b6b.cFcDcFcFcFcFcFcFcFcFcFcFcF",
"cFcFcFcFcFcFcFcFcFcFcFcFcFb8b6b.b7b7b7b7b7b7b7b7b7b7b7b7b7b7b7b7b7b7b7b7b7b7b7b7b7b7b7b7b7b7b7b7b7b7b7b7b7b7b7b7b7b7b7b7b7b7b7b7b7b7b7b7b7b7b7b7b7b7b7b7b7b7b7b7b7b7b7b7b7b7b7b7b7b7b7b7b7b7b7b7b7b7b7b7b7b7b7b7b7b7b7b7b7b7b7b7b7b7b7b7b7b7b7b7b7b7b7b7b7b7b7b7b7b7b7b7b7b7b7b7b7b7b7b7b7b7b7b7b7b7b7b7b7b7b7b7b7b7b7b7b7b7b7b7b7b7b7b7b7b7b7b7b7b7b7b7b7b7b7b7b7b7b7b7b7b7b7b7b7b7b7b7b7b7b7b7b7b7b7b7b7b7b7b7b7b7b7b7b7b7b7b7b7b7b7b7b7b7b7b7b7b7b7b7b7b7b7b7b7b7b7b7b7b7b7b7b7b7b7b7b7b7b7b7b6b7b,cFcFcFcFcFcFcFcFcFcFcFcFcF",
"cFcFcFcFcFcFcFcFcFcFcFcFcCcFb6b7b7b7b7b7b7b7b7b7b7b7b7b7b7b7b7b7b7b7b7b7b7b7b7b7b7b7b7b7b7b7b7b7b7b7b7b7b7b7b7b7b7b7b7b7b7b7b7b7b7b7b7b7b7b7b7b7b7b7b7b7b7b7b7b7b7b7b7b7b7b7b7b7b7b7b7b7b7b7b7b7b7b7b7b7b7b7b7b7b7b7b7b7b7b7b7b7b7b7b7b7b7b7b7b7b7b7b7b7b7b7b7b7b7b7b7b7b7b7b7b7b7b7b7b7b7b7b7b7b7b7b7b7b7b7b7b7b7b7b7b7b7b7b7b7b7b7b7b7b7b7b7b7b7b7b7b7b7b7b7b7b7b7b7b7b7b7b7b7b7b7b7b7b7b7b7b7b7b7b7b7b7b7b7b7b7b7b7b7b7b7b7b7b7b7b7b7b7b7b7b7b7b7b7b7b7b7b7b7b7b7b7b7b7b7b7b7b7b7b7b7b7b7b7b6b6b#cFcFcFcFcFcFcFcFcFcFcFcFcFcF",
"cFcFcFcFcFcFcFcFcFcFcFcFcDcFb<b.b7b7b7b7b7b7b7b7b7b7b7b7b7b7b7b7b7b7b7b7b7b7b7b7b7b7b7b7b7b7b7b7b7b7b7b7b7b7b7b7b7b7b7b7b7b7b7b7b7b7b7b7b7b7b7b7b7b7b7b7b7b7b7b7b7b7b7b7b7b7b7b7b7b7b7b7b7b7b7b7b7b7b7b7b7b7b7b7b7b7b7b7b7b7b7b7b7b7b7b7b7b7b7b7b7b7b7b7b7b7b7b7b7b7b7b7b7b7b7b7b7b7b7b7b7b7b7b7b7b7b7b7b7b7b7b7b7b7b7b7b7b7b7b7b7b7b7b7b7b7b7b7b7b7b7b7b7b7b7b7b7b7b7b7b7b7b7b7b7b7b7b7b7b7b7b7b7b7b7b7b7b7b7b7b7b7b7b7b7b7b7b7b7b7b7b7b7b7b7b7b7b7b7b7b7b7b7b7b7b7b7b7b7b7b7b7b7b7b7b7b7b7b7b7b6bWcFcDcFcFcFcFcFcFcFcFcFcFcFcF",
"cFcFcFcFcFcFcFcFcFcFcFcFcFcFbvb;b6b6b6b6b6b6b6b6b6b6b6b6b6b6b6b6b6b6b6b6b6b6b6b6b6b6b6b6b6b6b6b6b6b6b6b6b6b6b6b6b6b6b6b6b6b6b6b6b6b6b6b6b6b6b6b6b6b6b6b6b6b6b6b6b6b6b6b6b6b6b6b6b6b6b6b6b6b6b6b6b6b6b6b6b6b6b6b6b6b6b6b6b6b6b6b6b6b6b6b6b6b6b6b6b6b6b6b6b6b6b6b6b6b6b6b6b6b6b6b6b6b6b6b6b6b6b6b6b6b6b6b6b6b6b6b6b6b6b6b6b6b6b6b6b6b6b6b6b6b6b6b6b6b6b6b6b6b6b6b6b6b6b6b6b6b6b6b6b6b6b6b6b6b6b6b6b6b6b6b6b6b6b6b6b6b6b6b6b6b6b6b6b6b6b6b6b6b6b6b6b6b6b6b6b6b6b6b6b6b6b6b6b6b6b6b6b6b6b6b6b6b6b6b<b.bAcFcFcFcFcFcFcFcFcFcFcFcFcFcF",
"cFcFcFcFcFcFcFcFcFcFcFcFcFcDcFb*b6bVb6b6b6b6b6b6b6b6b6b6b6b6b6b6b6b6b6b6b6b6b6b6b6b6b6b6b6b6b6b6b6b6b6b6b6b6b6b6b6b6b6b6b6b6b6b6b6b6b6b6b6b6b6b6b6b6b6b6b6b6b6b6b6b6b6b6b6b6b6b6b6b6b6b6b6b6b6b6b6b6b6b6b6b6b6b6b6b6b6b6b6b6b6b6b6b6b6b6b6b6b6b6b6b6b6b6b6b6b6b6b6b6b6b6b6b6b6b6b6b6b6b6b6b6b6b6b6b6b6b6b6b6b6b6b6b6b6b6b6b6b6b6b6b6b6b6b6b6b6b6b6b6b6b6b6b6b6b6b6b6b6b6b6b6b6b6b6b6b6b6b6b6b6b6b6b6b6b6b6b6b6b6b6b6b6b6b6b6b6b6b6b6b6b6b6b6b6b6b6b6b6b6b6b6b6b6b6b6b6b6b6b6b6b6b6b6b6b6b6b6bVb6b8cFcDcFcFcFcFcFcFcFcFcFcFcFcFcF",
"cFcFcFcFcFcFcFcFcFcFcFcFcFcFcFb0b.b6b6b6b6b6b6b6b6b6b6b6b6b6b6b6b6b6b6b6b6b6b6b6b6b6b6b6b6b6b6b6b6b6b6b6b6b6b6b6b6b6b6b6b6b6b6b6b6b6b6b6b6b6b6b6b6b6b6b6b6b6b6b6b6b6b6b6b6b6b6b6b6b6b6b6b6b6b6b6b6b6b6b6b6b6b6b6b6b6b6b6b6b6b6b6b6b6b6b6b6b6b6b6b6b6b6b6b6b6b6b6b6b6b6b6b6b6b6b6b6b6b6b6b6b6b6b6b6b6b6b6b6b6b6b6b6b6b6b6b6b6b6b6b6b6b6b6b6b6b6b6b6b6b6b6b6b6b6b6b6b6b6b6b6b6b6b6b6b6b6b6b6b6b6b6b6b6b6b6b6b6b6b6b6b6b6b6b6b6b6b6b6b6b6b6b6b6b6b6b6b6b6b6b6b6b6b6b6b6b6b6b6b6b6b6b6b6b6b6b6b6b.b#b4cFcFcFcFcFcFcFcFcFcFcFcFcFcFcF",
"cFcFcFcFcFcFcFcFcFcFcFcFcFcFcDcFbWb6bVb6b6b6b6b6b6b6b6b6b6b6b6b6b6b6b6b6b6b6b6b6b6b6b6b6b6b6b6b6b6b6b6b6b6b6b6b6b6b6b6b6b6b6b6b6b6b6b6b6b6b6b6b6b6b6b6b6b6b6b6b6b6b6b6b6b6b6b6b6b6b6b6b6b6b6b6b6b6b6b6b6b6b6b6b6b6b6b6b6b6b6b6b6b6b6b6b6b6b6b6b6b6b6b6b6b6b6b6b6b6b6b6b6b6b6b6b6b6b6b6b6b6b6b6b6b6b6b6b6b6b6b6b6b6b6b6b6b6b6b6b6b6b6b6b6b6b6b6b6b6b6b6b6b6b6b6b6b6b6b6b6b6b6b6b6b6b6b6b6b6b6b6b6b6b6b6b6b6b6b6b6b6b6b6b6b6b6b6b6b6b6b6b6b6b6b6b6b6b6b6b6b6b6b6b6b6b6b6b6b6b6b6b6b6b6b6b6b6bVb6b1cFcDcFcFcFcFcFcFcFcFcFcFcFcFcFcF",
"cFcFcFcFcFcFcFcFcFcFcFcFcFcFcFcFbtb.b7b6b6b6b6b6b6b6b6b6b6b6b6b6b6b6b6b6b6b6b6b6b6b6b6b6b6b6b6b6b6b6b6b6b6b6b6b6b6b6b6b6b6b6b6b6b6b6b6b6b6b6b6b6b6b6b6b6b6b6b6b6b6b6b6b6b6b6b6b6b6b6b6b6b6b6b6b6b6b6b6b6b6b6b6b6b6b6b6b6b6b6b6b6b6b6b6b6b6b6b6b6b6b6b6b6b6b6b6b6b6b6b6b6b6b6b6b6b6b6b6b6b6b6b6b6b6b6b6b6b6b6b6b6b6b6b6b6b6b6b6b6b6b6b6b6b6b6b6b6b6b6b6b6b6b6b6b6b6b6b6b6b6b6b6b6b6b6b6b6b6b6b6b6b6b6b6b6b6b6b6b6b6b6b6b6b6b6b6b6b6b6b6b6b6b6b6b6b6b6b6b6b6b6b6b6b6b6b6b6b6b6b6b6b6b6b6b6b6b#b#bZcFcFcFcFcFcFcFcFcFcFcFcFcFcFcFcF",
"cFcFcFcFcFcFcFcFcFcFcFcFcFcFcFcFcFbPb2bVb6b6b6b6b6b6b6b6b6b6b6b6b6b6b6b6b6b6b6b6b6b6b6b6b6b6b6b6b6b6b6b6b6b6b6b6b6b6b6b6b6b6b6b6b6b6b6b6b6b6b6b6b6b6b6b6b6b6b6b6b6b6b6b6b6b6b6b6b6b6b6b6b6b6b6b6b6b6b6b6b6b6b6b6b6b6b6b6b6b6b6b6b6b6b6b6b6b6b6b6b6b6b6b6b6b6b6b6b6b6b6b6b6b6b6b6b6b6b6b6b6b6b6b6b6b6b6b6b6b6b6b6b6b6b6b6b6b6b6b6b6b6b6b6b6b6b6b6b6b6b6b6b6b6b6b6b6b6b6b6b6b6b6b6b6b6b6b6b6b6b6b6b6b6b6b6b6b6b6b6b6b6b6b6b6b6b6b6b6b6b6b6b6b6b6b6b6b6b6b6b6b6b6b6b6b6b6b6b6b6b6b6b6b6b6b6bQb6b=cFcDcFcFcFcFcFcFcFcFcFcFcFcFcFcFcF",
"cFcFcFcFcFcFcFcFcFcFcFcFcFcFcFcFcFcFbXbXbVb6b6b6b6b6b6b6b6b6b6b6b6b6b6b6b6b6b6b6b6b6b6b6b6b6b6b6b6b6b6b6b6b6b6b6b6b6b6b6b6b6b6b6b6b6b6b6b6b6b6b6b6b6b6b6b6b6b6b6b6b6b6b6b6b6b6b6b6b6b6b6b6b6b6b6b6b6b6b6b6b6b6b6b6b6b6b6b6b6b6b6b6b6b6b6b6b6b6b6b6b6b6b6b6b6b6b6b6b6b6b6b6b6b6b6b6b6b6b6b6b6b6b6b6b6b6b6b6b6b6b6b6b6b6b6b6b6b6b6b6b6b6b6b6b6b6b6b6b6b6b6b6b6b6b6b6b6b6b6b6b6b6b6b6b6b6b6b6b6b6b6b6b6b6b6b6b6b6b6b6b6b6b6b6b6b6b6b6b6b6b6b6b6b6b6b6b6b6b6b6b6b6b6b6b6b6b6b6b6b6b6b6b6b6b6b6b;btcFcFcFcFcFcFcFcFcFcFcFcFcFcFcFcFcF",
"cFcFcFcFcFcFcFcFcFcFcFcFcFcFcFcFcFcFb8b6b6b6b;b;b;b;b;b;b;b;b;b;b;b;b;b;b;b;b;b;b;b;b;b;b;b;b;b;b;b;b;b;b;b;b;b;b;b;b;b;b;b;b;b;b;b;b;b;b;b;b;b;b;b;b;b;b;b;b;b;b;b;b;b;b;b;b;b;b;b;b;b;b;b;b;b;b;b;b;b;b;b;b;b;b;b;b;b;b;b;b;b;b;b;b;b;b;b;b;b;b;b;b;b;b;b;b;b;b;b;b;b;b;b;b;b;b;b;b;b;b;b;b;b;b;b;b;b;b;b;b;b;b;b;b;b;b;b;b;b;b;b;b;b;b;b;b;b;b;b;b;b;b;b;b;b;b;b;b;b;b;b;b;b;b;b;b;b;b;b;b;b;b;b;b;b;b;b;b;b;b;b;b;b;b;b;b;b;b;b;b;b;b;b;b;b;b;b;b;b;b;b;b;b;b;b;b;b;b;b;b;b;b;b;b6b;b6b2cFcFcFcFcFcFcFcFcFcFcFcFcFcFcFcFcFcF",
"cFcFcFcFcFcFcFcFcFcFcFcFcFcFcFcFcFcDcFb5b;b2b;b;b;b;b;b;b;b;b;b;b;b;b;b;b;b;b;b;b;b;b;b;b;b;b;b;b;b;b;b;b;b;b;b;b;b;b;b;b;b;b;b;b;b;b;b;b;b;b;b;b;b;b;b;b;b;b;b;b;b;b;b;b;b;b;b;b;b;b;b;b;b;b;b;b;b;b;b;b;b;b;b;b;b;b;b;b;b;b;b;b;b;b;b;b;b;b;b;b;b;b;b;b;b;b;b;b;b;b;b;b;b;b;b;b;b;b;b;b;b;b;b;b;b;b;b;b;b;b;b;b;b;b;b;b;b;b;b;b;b;b;b;b;b;b;b;b;b;b;b;b;b;b;b;b;b;b;b;b;b;b;b;b;b;b;b;b;b;b;b;b;b;b;b;b;b;b;b;b;b;b;b;b;b;b;b;b;b;b;b;b;b;b;b;b;b;b;b;b;b;b;b;b;b;b;b;b;b;b;b;b;b;b2b-b5cFcDcFcFcFcFcFcFcFcFcFcFcFcFcFcFcFcFcF",
"cFcFcFcFcFcFcFcFcFcFcFcFcFcFcFcFcFcFcDcFb*b5b2b;b;b;b;b;b;b;b;b;b;b;b;b;b;b;b;b;b;b;b;b;b;b;b;b;b;b;b;b;b;b;b;b;b;b;b;b;b;b;b;b;b;b;b;b;b;b;b;b;b;b;b;b;b;b;b;b;b;b;b;b;b;b;b;b;b;b;b;b;b;b;b;b;b;b;b;b;b;b;b;b;b;b;b;b;b;b;b;b;b;b;b;b;b;b;b;b;b;b;b;b;b;b;b;b;b;b;b;b;b;b;b;b;b;b;b;b;b;b;b;b;b;b;b;b;b;b;b;b;b;b;b;b;b;b;b;b;b;b;b;b;b;b;b;b;b;b;b;b;b;b;b;b;b;b;b;b;b;b;b;b;b;b;b;b;b;b;b;b;b;b;b;b;b;b;b;b;b;b;b;b;b;b;b;b;b;b;b;b;b;b;b;b;b;b;b;b;b;b;b;b;b;b;b;b;b;b;b;b;b;b-b;b6b0cFcFcFcFcFcFcFcFcFcFcFcFcFcFcFcFcFcFcF",
"cFcFcFcFcFcFcFcFcFcFcFcFcFcFcFcFcFcFcFcFb4b6b;b;b;b;b;b;b;b;b;b;b;b;b;b;b;b;b;b;b;b;b;b;b;b;b;b;b;b;b;b;b;b;b;b;b;b;b;b;b;b;b;b;b;b;b;b;b;b;b;b;b;b;b;b;b;b;b;b;b;b;b;b;b;b;b;b;b;b;b;b;b;b;b;b;b;b;b;b;b;b;b;b;b;b;b;b;b;b;b;b;b;b;b;b;b;b;b;b;b;b;b;b;b;b;b;b;b;b;b;b;b;b;b;b;b;b;b;b;b;b;b;b;b;b;b;b;b;b;b;b;b;b;b;b;b;b;b;b;b;b;b;b;b;b;b;b;b;b;b;b;b;b;b;b;b;b;b;b;b;b;b;b;b;b;b;b;b;b;b;b;b;b;b;b;b;b;b;b;b;b;b;b;b;b;b;b;b;b;b;b;b;b;b;b;b;b;b;b;b;b;b;b;b;b;b;b;b;b;b;b;b;b;b;b4cFcFcFcFcFcFcFcFcFcFcFcFcFcFcFcFcFcFcFcF",
"cFcFcFcFcFcFcFcFcFcFcFcFcFcFcFcFcFcFcFcFcFb2b<b#b1b1b1b1b1b1b1b1b1b1b1b1b1b1b1b1b1b1b1b1b1b1b1b1b1b1b1b1b1b1b1b1b1b1b1b1b1b1b1b1b1b1b1b1b1b1b1b1b1b1b1b1b1b1b1b1b1b1b1b1b1b1b1b1b1b1b1b1b1b1b1b1b1b1b1b1b1b1b1b1b1b1b1b1b1b1b1b1b1b1b1b1b1b1b1b1b1b1b1b1b1b1b1b1b1b1b1b1b1b1b1b1b1b1b1b1b1b1b1b1b1b1b1b1b1b1b1b1b1b1b1b1b1b1b1b1b1b1b1b1b1b1b1b1b1b1b1b1b1b1b1b1b1b1b1b1b1b1b1b1b1b1b1b1b1b1b1b1b1b1b1b1b1b1b1b1b1b1b1b1b1b1b1b1b1b1b1b1b1b1b1b1b1b1b1b1b1b1b1b1b1b1b1b1b1b1b1b1b7b1b5cFcDcFcFcFcFcFcFcFcFcFcFcFcFcFcFcFcFcFcFcF",
"cFcFcFcFcFcFcFcFcFcFcFcFcFcFcFcFcFcFcFcFcDcFb2b1b7b1b1b1b1b1b1b1b1b1b1b1b1b1b1b1b1b1b1b1b1b1b1b1b1b1b1b1b1b1b1b1b1b1b1b1b1b1b1b1b1b1b1b1b1b1b1b1b1b1b1b1b1b1b1b1b1b1b1b1b1b1b1b1b1b1b1b1b1b1b1b1b1b1b1b1b1b1b1b1b1b1b1b1b1b1b1b1b1b1b1b1b1b1b1b1b1b1b1b1b1b1b1b1b1b1b1b1b1b1b1b1b1b1b1b1b1b1b1b1b1b1b1b1b1b1b1b1b1b1b1b1b1b1b1b1b1b1b1b1b1b1b1b1b1b1b1b1b1b1b1b1b1b1b1b1b1b1b1b1b1b1b1b1b1b1b1b1b1b1b1b1b1b1b1b1b1b1b1b1b1b1b1b1b1b1b1b1b1b1b1b1b1b1b1b1b1b1b1b1b1b1b1b1b1b1b1b7b<b0cFcDcFcFcFcFcFcFcFcFcFcFcFcFcFcFcFcFcFcFcFcF",
"cFcFcFcFcFcFcFcFcFcFcFcFcFcFcFcFcFcFcFcFcFcDcFb<b1b7b1b1b1b1b1b1b1b1b1b1b1b1b1b1b1b1b1b1b1b1b1b1b1b1b1b1b1b1b1b1b1b1b1b1b1b1b1b1b1b1b1b1b1b1b1b1b1b1b1b1b1b1b1b1b1b1b1b1b1b1b1b1b1b1b1b1b1b1b1b1b1b1b1b1b1b1b1b1b1b1b1b1b1b1b1b1b1b1b1b1b1b1b1b1b1b1b1b1b1b1b1b1b1b1b1b1b1b1b1b1b1b1b1b1b1b1b1b1b1b1b1b1b1b1b1b1b1b1b1b1b1b1b1b1b1b1b1b1b1b1b1b1b1b1b1b1b1b1b1b1b1b1b1b1b1b1b1b1b1b1b1b1b1b1b1b1b1b1b1b1b1b1b1b1b1b1b1b1b1b1b1b1b1b1b1b1b1b1b1b1b1b1b1b1b1b1b1b1b1b1b1b1b1b1b+b1b3cycFcFcFcFcFcFcFcFcFcFcFcFcFcFcFcFcFcFcFcFcFcF",
"cFcFcFcFcFcFcFcFcFcFcFcFcFcFcFcFcFcFcFcFcFcFcFbZb1b1b7b1b1b1b1b1b1b1b1b1b1b1b1b1b1b1b1b1b1b1b1b1b1b1b1b1b1b1b1b1b1b1b1b1b1b1b1b1b1b1b1b1b1b1b1b1b1b1b1b1b1b1b1b1b1b1b1b1b1b1b1b1b1b1b1b1b1b1b1b1b1b1b1b1b1b1b1b1b1b1b1b1b1b1b1b1b1b1b1b1b1b1b1b1b1b1b1b1b1b1b1b1b1b1b1b1b1b1b1b1b1b1b1b1b1b1b1b1b1b1b1b1b1b1b1b1b1b1b1b1b1b1b1b1b1b1b1b1b1b1b1b1b1b1b1b1b1b1b1b1b1b1b1b1b1b1b1b1b1b1b1b1b1b1b1b1b1b1b1b1b1b1b1b1b1b1b1b1b1b1b1b1b1b1b1b1b1b1b1b1b1b1b1b1b1b1b1b1b1b1b1b1b1b+b.b3b@cFcFcFcFcFcFcFcFcFcFcFcFcFcFcFcFcFcFcFcFcFcFcF",
"cFcFcFcFcFcFcFcFcFcFcFcFcFcFcFcFcFcFcFcFcFcFcFcFbKb3b1b7b1b1b1b1b1b1b1b1b1b1b1b1b1b1b1b1b1b1b1b1b1b1b1b1b1b1b1b1b1b1b1b1b1b1b1b1b1b1b1b1b1b1b1b1b1b1b1b1b1b1b1b1b1b1b1b1b1b1b1b1b1b1b1b1b1b1b1b1b1b1b1b1b1b1b1b1b1b1b1b1b1b1b1b1b1b1b1b1b1b1b1b1b1b1b1b1b1b1b1b1b1b1b1b1b1b1b1b1b1b1b1b1b1b1b1b1b1b1b1b1b1b1b1b1b1b1b1b1b1b1b1b1b1b1b1b1b1b1b1b1b1b1b1b1b1b1b1b1b1b1b1b1b1b1b1b1b1b1b1b1b1b1b1b1b1b1b1b1b1b1b1b1b1b1b1b1b1b1b1b1b1b1b1b1b1b1b1b1b1b1b1b1b1b1b1b1b1b1b1b1b#b6b#b#cFcDcFcFcFcFcFcFcFcFcFcFcFcFcFcFcFcFcFcFcFcFcFcF",
"cFcFcFcFcFcFcFcFcFcFcFcFcFcFcFcFcFcFcFcFcFcFcFcFcFb8b3b1b7b1b1b1b1b1b1b1b1b1b1b1b1b1b1b1b1b1b1b1b1b1b1b1b1b1b1b1b1b1b1b1b1b1b1b1b1b1b1b1b1b1b1b1b1b1b1b1b1b1b1b1b1b1b1b1b1b1b1b1b1b1b1b1b1b1b1b1b1b1b1b1b1b1b1b1b1b1b1b1b1b1b1b1b1b1b1b1b1b1b1b1b1b1b1b1b1b1b1b1b1b1b1b1b1b1b1b1b1b1b1b1b1b1b1b1b1b1b1b1b1b1b1b1b1b1b1b1b1b1b1b1b1b1b1b1b1b1b1b1b1b1b1b1b1b1b1b1b1b1b1b1b1b1b1b1b1b1b1b1b1b1b1b1b1b1b1b1b1b1b1b1b1b1b1b1b1b1b1b1b1b1b1b1b1b1b1b1b1b1b1b1b1b1b1b1b1b1b1b#b6b#bQcFcDcFcFcFcFcFcFcFcFcFcFcFcFcFcFcFcFcFcFcFcFcFcFcF",
"cFcFcFcFcFcFcFcFcFcFcFcFcFcFcFcFcFcFcFcFcFcFcFcFcFcFb8b3b1b7b1b1b1b1b1b1b1b1b1b1b1b1b1b1b1b1b1b1b1b1b1b1b1b1b1b1b1b1b1b1b1b1b1b1b1b1b1b1b1b1b1b1b1b1b1b1b1b1b1b1b1b1b1b1b1b1b1b1b1b1b1b1b1b1b1b1b1b1b1b1b1b1b1b1b1b1b1b1b1b1b1b1b1b1b1b1b1b1b1b1b1b1b1b1b1b1b1b1b1b1b1b1b1b1b1b1b1b1b1b1b1b1b1b1b1b1b1b1b1b1b1b1b1b1b1b1b1b1b1b1b1b1b1b1b1b1b1b1b1b1b1b1b1b1b1b1b1b1b1b1b1b1b1b1b1b1b1b1b1b1b1b1b1b1b1b1b1b1b1b1b1b1b1b1b1b1b1b1b1b1b1b1b1b1b1b1b1b1b1b1b1b1b1b1b1b1b6b6b#bQcFcDcFcFcFcFcFcFcFcFcFcFcFcFcFcFcFcFcFcFcFcFcFcFcFcF",
"cFcFcFcFcFcFcFcFcFcFcFcFcFcFcFcFcFcFcFcFcFcFcFcFcFcDcFb8b<b<b7b1b#b#b#b#b#b#b#b#b#b#b#b#b#b#b#b#b#b#b#b#b#b#b#b#b#b#b#b#b#b#b#b#b#b#b#b#b#b#b#b#b#b#b#b#b#b#b#b#b#b#b#b#b#b#b#b#b#b#b#b#b#b#b#b#b#b#b#b#b#b#b#b#b#b#b#b#b#b#b#b#b#b#b#b#b#b#b#b#b#b#b#b#b#b#b#b#b#b#b#b#b#b#b#b#b#b#b#b#b#b#b#b#b#b#b#b#b#b#b#b#b#b#b#b#b#b#b#b#b#b#b#b#b#b#b#b#b#b#b#b#b#b#b#b#b#b#b#b#b#b#b#b#b#b#b#b#b#b#b#b#b#b#b#b#b#b#b#b#b#b#b#b#b#b#b#b#b#b#b#b#b#b#b#b#b#b#b#b#b#b#b#b#b1b7b7b#bQcFcDcFcFcFcFcFcFcFcFcFcFcFcFcFcFcFcFcFcFcFcFcFcFcFcFcF",
"cFcFcFcFcFcFcFcFcFcFcFcFcFcFcFcFcFcFcFcFcFcFcFcFcFcFcDcFbZb1b7b7b#b#b#b#b#b#b#b#b#b#b#b#b#b#b#b#b#b#b#b#b#b#b#b#b#b#b#b#b#b#b#b#b#b#b#b#b#b#b#b#b#b#b#b#b#b#b#b#b#b#b#b#b#b#b#b#b#b#b#b#b#b#b#b#b#b#b#b#b#b#b#b#b#b#b#b#b#b#b#b#b#b#b#b#b#b#b#b#b#b#b#b#b#b#b#b#b#b#b#b#b#b#b#b#b#b#b#b#b#b#b#b#b#b#b#b#b#b#b#b#b#b#b#b#b#b#b#b#b#b#b#b#b#b#b#b#b#b#b#b#b#b#b#b#b#b#b#b#b#b#b#b#b#b#b#b#b#b#b#b#b#b#b#b#b#b#b#b#b#b#b#b#b#b#b#b#b#b#b#b#b#b#b#b#b#b#b#b#b#b#b#b#b7b<b3b3cFcDcFcFcFcFcFcFcFcFcFcFcFcFcFcFcFcFcFcFcFcFcFcFcFcFcFcF",
"cFcFcFcFcFcFcFcFcFcFcFcFcFcFcFcFcFcFcFcFcFcFcFcFcFcFcFcFcFb8b6b<b7b#b#b#b#b#b#b#b#b#b#b#b#b#b#b#b#b#b#b#b#b#b#b#b#b#b#b#b#b#b#b#b#b#b#b#b#b#b#b#b#b#b#b#b#b#b#b#b#b#b#b#b#b#b#b#b#b#b#b#b#b#b#b#b#b#b#b#b#b#b#b#b#b#b#b#b#b#b#b#b#b#b#b#b#b#b#b#b#b#b#b#b#b#b#b#b#b#b#b#b#b#b#b#b#b#b#b#b#b#b#b#b#b#b#b#b#b#b#b#b#b#b#b#b#b#b#b#b#b#b#b#b#b#b#b#b#b#b#b#b#b#b#b#b#b#b#b#b#b#b#b#b#b#b#b#b#b#b#b#b#b#b#b#b#b#b#b#b#b#b#b#b#b#b#b#b#b#b#b#b#b#b#b#b#b#b#b#b#b#b#b7b6b.b@cFcDcFcFcFcFcFcFcFcFcFcFcFcFcFcFcFcFcFcFcFcFcFcFcFcFcFcFcF",
"cFcFcFcFcFcFcFcFcFcFcFcFcFcFcFcFcFcFcFcFcFcFcFcFcFcFcFcFcFcFcFb-b7b1b6b#b#b#b#b#b#b#b#b#b#b#b#b#b#b#b#b#b#b#b#b#b#b#b#b#b#b#b#b#b#b#b#b#b#b#b#b#b#b#b#b#b#b#b#b#b#b#b#b#b#b#b#b#b#b#b#b#b#b#b#b#b#b#b#b#b#b#b#b#b#b#b#b#b#b#b#b#b#b#b#b#b#b#b#b#b#b#b#b#b#b#b#b#b#b#b#b#b#b#b#b#b#b#b#b#b#b#b#b#b#b#b#b#b#b#b#b#b#b#b#b#b#b#b#b#b#b#b#b#b#b#b#b#b#b#b#b#b#b#b#b#b#b#b#b#b#b#b#b#b#b#b#b#b#b#b#b#b#b#b#b#b#b#b#b#b#b#b#b#b#b#b#b#b#b#b#b#b#b#b#b#b#b#b#b#b#b6b#b<b#cycFcFcFcFcFcFcFcFcFcFcFcFcFcFcFcFcFcFcFcFcFcFcFcFcFcFcFcFcFcF",
"cFcFcFcFcFcFcFcFcFcFcFcFcFcFcFcFcFcFcFcFcFcFcFcFcFcFcFcFcFcFcFcFbUb7bXbVb#b#b#b#b#b#b#b#b#b#b#b#b#b#b#b#b#b#b#b#b#b#b#b#b#b#b#b#b#b#b#b#b#b#b#b#b#b#b#b#b#b#b#b#b#b#b#b#b#b#b#b#b#b#b#b#b#b#b#b#b#b#b#b#b#b#b#b#b#b#b#b#b#b#b#b#b#b#b#b#b#b#b#b#b#b#b#b#b#b#b#b#b#b#b#b#b#b#b#b#b#b#b#b#b#b#b#b#b#b#b#b#b#b#b#b#b#b#b#b#b#b#b#b#b#b#b#b#b#b#b#b#b#b#b#b#b#b#b#b#b#b#b#b#b#b#b#b#b#b#b#b#b#b#b#b#b#b#b#b#b#b#b#b#b#b#b#b#b#b#b#b#b#b#b#b#b#b#b#b#b#b#b#b#bVb7b6b.cFcFcFcFcFcFcFcFcFcFcFcFcFcFcFcFcFcFcFcFcFcFcFcFcFcFcFcFcFcFcFcF",
"cFcFcFcFcFcFcFcFcFcFcFcFcFcFcFcFcFcFcFcFcFcFcFcFcFcFcFcFcFcFcFcFcFb9b6b6b#b5b#b#b#b#b#b#b#b#b#b#b#b#b#b#b#b#b#b#b#b#b#b#b#b#b#b#b#b#b#b#b#b#b#b#b#b#b#b#b#b#b#b#b#b#b#b#b#b#b#b#b#b#b#b#b#b#b#b#b#b#b#b#b#b#b#b#b#b#b#b#b#b#b#b#b#b#b#b#b#b#b#b#b#b#b#b#b#b#b#b#b#b#b#b#b#b#b#b#b#b#b#b#b#b#b#b#b#b#b#b#b#b#b#b#b#b#b#b#b#b#b#b#b#b#b#b#b#b#b#b#b#b#b#b#b#b#b#b#b#b#b#b#b#b#b#b#b#b#b#b#b#b#b#b#b#b#b#b#b#b#b#b#b#b#b#b#b#b#b#b#b#b#b#b#b#b#b#b#b#b#b6b6b6b9bVcFcFcFcFcFcFcFcFcFcFcFcFcFcFcFcFcFcFcFcFcFcFcFcFcFcFcFcFcFcFcFcFcF",
"cFcFcFcFcFcFcFcFcFcFcFcFcFcFcFcFcFcFcFcFcFcFcFcFcFcFcFcFcFcFcFcFcDcFcDb7b1b#b7b6b#b#b#b#b#b#b#b#b#b#b#b#b#b#b#b#b#b#b#b#b#b#b#b#b#b#b#b#b#b#b#b#b#b#b#b#b#b#b#b#b#b#b#b#b#b#b#b#b#b#b#b#b#b#b#b#b#b#b#b#b#b#b#b#b#b#b#b#b#b#b#b#b#b#b#b#b#b#b#b#b#b#b#b#b#b#b#b#b#b#b#b#b#b#b#b#b#b#b#b#b#b#b#b#b#b#b#b#b#b#b#b#b#b#b#b#b#b#b#b#b#b#b#b#b#b#b#b#b#b#b#b#b#b#b#b#b#b#b#b#b#b#b#b#b#b#b#b#b#b#b#b#b#b#b#b#b#b#b#b#b#b#b#b#b#b#b#b#b#b#b#b#b#b#b#b#b6b7b.b7b7b0cFcDcFcFcFcFcFcFcFcFcFcFcFcFcFcFcFcFcFcFcFcFcFcFcFcFcFcFcFcFcFcFcFcF",
"cFcFcFcFcFcFcFcFcFcFcFcFcFcFcFcFcFcFcFcFcFcFcFcFcFcFcFcFcFcFcFcFcFcFcFcFbGb6b7b6b7b6b#b#b#b#b#b#b#b#b#b#b#b#b#b#b#b#b#b#b#b#b#b#b#b#b#b#b#b#b#b#b#b#b#b#b#b#b#b#b#b#b#b#b#b#b#b#b#b#b#b#b#b#b#b#b#b#b#b#b#b#b#b#b#b#b#b#b#b#b#b#b#b#b#b#b#b#b#b#b#b#b#b#b#b#b#b#b#b#b#b#b#b#b#b#b#b#b#b#b#b#b#b#b#b#b#b#b#b#b#b#b#b#b#b#b#b#b#b#b#b#b#b#b#b#b#b#b#b#b#b#b#b#b#b#b#b#b#b#b#b#b#b#b#b#b#b#b#b#b#b#b#b#b#b#b#b#b#b#b#b#b#b#b#b#b#b#b#b#b#b#b#b#b6b7b#b6b#bKcFcFcFcFcFcFcFcFcFcFcFcFcFcFcFcFcFcFcFcFcFcFcFcFcFcFcFcFcFcFcFcFcFcFcFcF",
"cFcFcFcFcFcFcFcFcFcFcFcFcFcFcFcFcFcFcFcFcFcFcFcFcFcFcFcFcFcFcFcFcFcFcFcDcFcFbUb6b5bXbVb6b6b6b6b6b6b6b6b6b6b6b6b6b6b6b6b6b6b6b6b6b6b6b6b6b6b6b6b6b6b6b6b6b6b6b6b6b6b6b6b6b6b6b6b6b6b6b6b6b6b6b6b6b6b6b6b6b6b6b6b6b6b6b6b6b6b6b6b6b6b6b6b6b6b6b6b6b6b6b6b6b6b6b6b6b6b6b6b6b6b6b6b6b6b6b6b6b6b6b6b6b6b6b6b6b6b6b6b6b6b6b6b6b6b6b6b6b6b6b6b6b6b6b6b6b6b6b6b6b6b6b6b6b6b6b6b6b6b6b6b6b6b6b6b6b6b6b6b6b6b6b6b6b6b6b6b6b6b6b6b6b6b6b6b6b6b6b6b6b6bVb#b7b6b*btcFcFcFcFcFcFcFcFcFcFcFcFcFcFcFcFcFcFcFcFcFcFcFcFcFcFcFcFcFcFcFcFcFcFcFcFcF",
"cFcFcFcFcFcFcFcFcFcFcFcFcFcFcFcFcFcFcFcFcFcFcFcFcFcFcFcFcFcFcFcFcFcFcFcFcFcFcFcyb,b6b7b6bVb5b6b6b6b6b6b6b6b6b6b6b6b6b6b6b6b6b6b6b6b6b6b6b6b6b6b6b6b6b6b6b6b6b6b6b6b6b6b6b6b6b6b6b6b6b6b6b6b6b6b6b6b6b6b6b6b6b6b6b6b6b6b6b6b6b6b6b6b6b6b6b6b6b6b6b6b6b6b6b6b6b6b6b6b6b6b6b6b6b6b6b6b6b6b6b6b6b6b6b6b6b6b6b6b6b6b6b6b6b6b6b6b6b6b6b6b6b6b6b6b6b6b6b6b6b6b6b6b6b6b6b6b6b6b6b6b6b6b6b6b6b6b6b6b6b6b6b6b6b6b6b6b6b6b6b6b6b6b6b6b6b6b6b6b6b5bVbXb6b#b6b8cFcFcFcFcFcFcFcFcFcFcFcFcFcFcFcFcFcFcFcFcFcFcFcFcFcFcFcFcFcFcFcFcFcFcFcFcFcFcF",
"cFcFcFcFcFcFcFcFcFcFcFcFcFcFcFcFcFcFcFcFcFcFcFcFcFcFcFcFcFcFcFcFcFcFcFcFcFcFcFcFcFb8b.b#b6b#b6bVb6b6b6b6b6b6b6b6b6b6b6b6b6b6b6b6b6b6b6b6b6b6b6b6b6b6b6b6b6b6b6b6b6b6b6b6b6b6b6b6b6b6b6b6b6b6b6b6b6b6b6b6b6b6b6b6b6b6b6b6b6b6b6b6b6b6b6b6b6b6b6b6b6b6b6b6b6b6b6b6b6b6b6b6b6b6b6b6b6b6b6b6b6b6b6b6b6b6b6b6b6b6b6b6b6b6b6b6b6b6b6b6b6b6b6b6b6b6b6b6b6b6b6b6b6b6b6b6b6b6b6b6b6b6b6b6b6b6b6b6b6b6b6b6b6b6b6b6b6b6b6b6b6b6b6b6b6b6b6b6bTb6b5b7b#b,b-cFcFcDcFcFcFcFcFcFcFcFcFcFcFcFcFcFcFcFcFcFcFcFcFcFcFcFcFcFcFcFcFcFcFcFcFcFcFcFcFcF",
"cFcFcFcFcFcFcFcFcFcFcFcFcFcFcFcFcFcFcFcFcFcFcFcFcFcFcFcFcFcFcFcFcFcFcFcFcFcFcFcFcFcFcFb0b5b7b1b6b7b7bUb7b7b7b7b7b7b7b7b7b7b7b7b7b7b7b7b7b7b7b7b7b7b7b7b7b7b7b7b7b7b7b7b7b7b7b7b7b7b7b7b7b7b7b7b7b7b7b7b7b7b7b7b7b7b7b7b7b7b7b7b7b7b7b7b7b7b7b7b7b7b7b7b7b7b7b7b7b7b7b7b7b7b7b7b7b7b7b7b7b7b7b7b7b7b7b7b7b7b7b7b7b7b7b7b7b7b7b7b7b7b7b7b7b7b7b7b7b7b7b7b7b7b7b7b7b7b7b7b7b7b7b7b7b7b7b7b7b7b7b7b7b7b7b7b7b7b7b7b7b7b7b7b7b7bUbVb7b6b6b6bWbZcFcFcFcFcFcFcFcFcFcFcFcFcFcFcFcFcFcFcFcFcFcFcFcFcFcFcFcFcFcFcFcFcFcFcFcFcFcFcFcFcFcFcF",
"cFcFcFcFcFcFcFcFcFcFcFcFcFcFcFcFcFcFcFcFcFcFcFcFcFcFcFcFcFcFcFcFcFcFcFcFcFcFcFcFcFcFcDcFcFcFb8b6b>b7b8b8b7bWbWbVb7b7b7b7b7b7b7b7b7b7b7b7b7b7b7b7b7b7b7b7b7b7b7b7b7b7b7b7b7b7b7b7b7b7b7b7b7b7b7b7b7b7b7b7b7b7b7b7b7b7b7b7b7b7b7b7b7b7b7b7b7b7b7b7b7b7b7b7b7b7b7b7b7b7b7b7b7b7b7b7b7b7b7b7b7b7b7b7b7b7b7b7b7b7b7b7b7b7b7b7b7b7b7b7b7b7b7b7b7b7b7b7b7b7b7b7b7b7b7b7b7b7b7b7b7b7b7b7b7b7b7b7b7b7b7b7b7b7b7b7b7b7b7b7bVbWbWb7b7b8b7b8b7bFcFcFcFcDcFcFcFcFcFcFcFcFcFcFcFcFcFcFcFcFcFcFcFcFcFcFcFcFcFcFcFcFcFcFcFcFcFcFcFcFcFcFcFcFcFcF",
"cFcFcFcFcFcFcFcFcFcFcFcFcFcFcFcFcFcFcFcFcFcFcFcFcFcFcFcFcFcFcFcFcFcFcFcFcFcFcFcFcFcFcFcFcFcFcFcFbvbVbRb8bUbYb8b7bYb7bVbWbWbWbVbVb7b7b7b7b7b7b7b7b7b7b7b7b7b7b7b7b7b7b7b7b7b7b7b7b7b7b7b7b7b7b7b7b7b7b7b7b7b7b7b7b7b7b7b7b7b7b7b7b7b7b7b7b7b7b7b7b7b7b7b7b7b7b7b7b7b7b7b7b7b7b7b7b7b7b7b7b7b7b7b7b7b7b7b7b7b7b7b7b7b7b7b7b7b7b7b7b7b7b7b7b7b7b7b7b7b7b7b7b7b7b7b7b7b7b7b7b7b7b7b7b7b7b7b7b7b7b7b7bVbVbUbWbWbVb7b#b6b8b7b7bYbYbRb0cFcFcFcDcFcFcFcFcFcFcFcFcFcFcFcFcFcFcFcFcFcFcFcFcFcFcFcFcFcFcFcFcFcFcFcFcFcFcFcFcFcFcFcFcFcFcFcF",
"cFcFcFcFcFcFcFcFcFcFcFcFcFcFcFcFcFcFcFcFcFcFcFcFcFcFcFcFcFcFcFcFcFcFcFcFcFcFcFcFcFcFcFcFcFcFcFcDcFcFcFcFb@bWb1b7bVb+b.b8b8b7b.b7b7b7b7b7b7b7b7b7b7b7b7b7b7b7b7b7b7b7b7b7b7b7b7b7b7b7b7b7b7b7b7b7b7b7b7b7b7b7b7b7b7b7b7b7b7b7b7b7b7b7b7b7b7b7b7b7b7b7b7b7b7b7b7b7b7b7b7b7b7b7b7b7b7b7b7b7b7b7b7b7b7b7b7b7b7b7b7b7b7b7b7b7b7b7b7b7b7b7b7b7b7b7b7b7b7b7b7b7b7b7b7b7b7b7b7b7b7b7b7b7b7b7b7b7b7b7b7b7b7b.b.b8b6bYb#b#b1b7b5b8cFcFcFcFcFcFcFcFcFcFcFcFcFcFcFcFcFcFcFcFcFcFcFcFcFcFcFcFcFcFcFcFcFcFcFcFcFcFcFcFcFcFcFcFcFcFcFcFcFcFcFcF",
"cFcFcFcFcFcFcFcFcFcFcFcFcFcFcFcFcFcFcFcFcFcFcFcFcFcFcFcFcFcFcFcFcFcFcFcFcFcFcFcFcFcFcFcFcFcFcFcFcFcFcDcFcFcFcFcFcybWb<b+b8b8b;b<b<b<b<b<b<b<b<b<b<b<b<b<b<b<b<b<b<b<b<b<b<b<b<b<b<b<b<b<b<b<b<b<b<b<b<b<b<b<b<b<b<b<b<b<b<b<b<b<b<b<b<b<b<b<b<b<b<b<b<b<b<b<b<b<b<b<b<b<b<b<b<b<b<b<b<b<b<b<b<b<b<b<b<b<b<b<b<b<b<b<b<b<b<b<b<b<b<b<b<b<b<b<b<b<b<b<b<b<b<b<b<b<b<b<b<b<b<b<b<b<b<b<b<b<b<b<b<b*b:b5b;b6b=b+b4bAcFcFcFcFcFcDcFcFcFcFcFcFcFcFcFcFcFcFcFcFcFcFcFcFcFcFcFcFcFcFcFcFcFcFcFcFcFcFcFcFcFcFcFcFcFcFcFcFcFcFcFcFcFcFcFcF",
"cFcFcFcFcFcFcFcFcFcFcFcFcFcFcFcFcFcFcFcFcFcFcFcFcFcFcFcFcFcFcFcFcFcFcFcFcFcFcFcFcFcFcFcFcFcFcFcFcFcFcFcFcFcFcDcFcFcFcFcFcFcFcFcFcFcFcFcFcFcFcFcFcFcFcFcFcFcFcFcFcFcFcFcFcFcFcFcFcFcFcFcFcFcFcFcFcFcFcFcFcFcFcFcFcFcFcFcFcFcFcFcFcFcFcFcFcFcFcFcFcFcFcFcFcFcFcFcFcFcFcFcFcFcFcFcFcFcFcFcFcFcFcFcFcFcFcFcFcFcFcFcFcFcFcFcFcFcFcFcFcFcFcFcFcFcFcFcFcFcFcFcFcFcFcFcFcFcFcFcFcFcFcFcFcFcFcFcFcFcFcFcFcFcFcFcFcFcFcFcFcFcDcDcFcFcFcFcFcFcFcFcFcFcFcFcFcFcFcFcFcFcFcFcFcFcFcFcFcFcFcFcFcFcFcFcFcFcFcFcFcFcFcFcFcFcFcFcFcFcFcFcFcFcFcFcF",
"cFcFcFcFcFcFcFcFcFcFcFcFcFcFcFcFcFcFcFcFcFcFcFcFcFcFcFcFcFcFcFcFcFcFcFcFcFcFcFcFcFcFcFcFcFcFcFcFcFcFcFcFcFcFcFcFcFcFcFcDcDcDcFcFcFcFcFcFcFcFcFcFcFcFcFcFcFcFcFcFcFcFcFcFcFcFcFcFcFcFcFcFcFcFcFcFcFcFcFcFcFcFcFcFcFcFcFcFcFcFcFcFcFcFcFcFcFcFcFcFcFcFcFcFcFcFcFcFcFcFcFcFcFcFcFcFcFcFcFcFcFcFcFcFcFcFcFcFcFcFcFcFcFcFcFcFcFcFcFcFcFcFcFcFcFcFcFcFcFcFcFcFcFcFcFcFcFcFcFcFcFcFcFcFcFcFcFcFcFcFcFcFcFcFcFcDcDcFcFcFcFcFcFcFcFcFcFcFcFcFcFcFcFcFcFcFcFcFcFcFcFcFcFcFcFcFcFcFcFcFcFcFcFcFcFcFcFcFcFcFcFcFcFcFcFcFcFcFcFcFcFcFcFcFcFcF",
"cFcFcFcFcFcFcFcFcFcFcFcFcFcFcFcFcFcFcFcFcFcFcFcFcFcFcFcFcFcFcFcFcFcFcFcFcFcFcFcFcFcFcFcFcFcFcFcFcFcFcFcFcFcFcFcFcFcFcFcFcFcFcFcFcFcFcFcFcFcFcFcFcFcFcFcFcFcFcFcFcFcFcFcFcFcFcFcFcFcFcFcFcFcFcFcFcFcFcFcFcFcFcFcFcFcFcFcFcFcFcFcFcFcFcFcFcFcFcFcFcFcFcFcFcFcFcFcFcFcFcFcFcFcFcFcFcFcFcFcFcFcFcFcFcFcFcFcFcFcFcFcFcFcFcFcFcFcFcFcFcFcFcFcFcFcFcFcFcFcFcFcFcFcFcFcFcFcFcFcFcFcFcFcFcFcFcFcFcFcFcFcFcFcFcFcFcFcFcFcFcFcFcFcFcFcFcFcFcFcFcFcFcFcFcFcFcFcFcFcFcFcFcFcFcFcFcFcFcFcFcFcFcFcFcFcFcFcFcFcFcFcFcFcFcFcFcFcFcFcFcFcFcFcFcFcF",
"cFcFcFcFcFcFcFcFcFcFcFcFcFcFcFcFcFcFcFcFcFcFcFcFcFcFcFcFcFcFcFcFcFcFcFcFcFcFcFcFcFcFcFcFcFcFcFcFcFcFcFcFcFcFcFcFcFcFcFcFcFcFcFcFcFcFcFcFcFcFcFcFcFcFcFcFcFcFcFcFcFcFcFcFcFcFcFcFcFcFcFcFcFcFcFcFcFcFcFcFcFcFcFcFcFcFcFcFcFcFcFcFcFcFcFcFcFcFcFcFcFcFcFcFcFcFcFcFcFcFcFcFcFcFcFcFcFcFcFcFcFcFcFcFcFcFcFcFcFcFcFcFcFcFcFcFcFcFcFcFcFcFcFcFcFcFcFcFcFcFcFcFcFcFcFcFcFcFcFcFcFcFcFcFcFcFcFcFcFcFcFcFcFcFcFcFcFcFcFcFcFcFcFcFcFcFcFcFcFcFcFcFcFcFcFcFcFcFcFcFcFcFcFcFcFcFcFcFcFcFcFcFcFcFcFcFcFcFcFcFcFcFcFcFcFcFcFcFcFcFcFcFcFcFcFcF",
"cFcFcFcFcFcFcFcFcFcFcFcFcFcFcFcFcFcFcFcFcFcFcFcFcFcFcFcFcFcFcFcFcFcFcFcFcFcFcFcFcFcFcFcFcFcFcFcFcFcFcFcFcFcFcFcFcFcFcFcFcFcFcFcFcFcFcFcFcFcFcFcFcFcFcFcFcFcFcFcFcFcFcFcFcFcFcFcFcFcFcFcFcFcFcFcFcFcFcFcFcFcFcFcFcFcFcFcFcFcFcFcFcFcFcFcFcFcFcFcFcFcFcFcFcFcFcFcFcFcFcFcFcFcFcFcFcFcFcFcFcFcFcFcFcFcFcFcFcFcFcFcFcFcFcFcFcFcFcFcFcFcFcFcFcFcFcFcFcFcFcFcFcFcFcFcFcFcFcFcFcFcFcFcFcFcFcFcFcFcFcFcFcFcFcFcFcFcFcFcFcFcFcFcFcFcFcFcFcFcFcFcFcFcFcFcFcFcFcFcFcFcFcFcFcFcFcFcFcFcFcFcFcFcFcFcFcFcFcFcFcFcFcFcFcFcFcFcFcFcFcFcFcFcFcFcF",
"cFcFcFcFcFcFcFcFcFcFcFcFcFcFcFcFcFcFcFcFcFcFcFcFcFcFcFcFcFcFcFcFcFcFcFcFcFcFcFcFcFcFcFcFcFcFcFcFcFcFcFcFcFcFcFcFcFcFcFcFcFcFcFcFcFcFcFcFcFcFcFcFcFcFcFcFcFcFcFcFcFcFcFcFcFcFcFcFcFcFcFcFcFcFcFcFcFcFcFcFcFcFcFcFcFcFcFcFcFcFcFcFcFcFcFcFcFcFcFcFcFcFcFcFcFcFcFcFcFcFcFcFcFcFcFcFcFcFcFcFcFcFcFcFcFcFcFcFcFcFcFcFcFcFcFcFcFcFcFcFcFcFcFcFcFcFcFcFcFcFcFcFcFcFcFcFcFcFcFcFcFcFcFcFcFcFcFcFcFcFcFcFcFcFcFcFcFcFcFcFcFcFcFcFcFcFcFcFcFcFcFcFcFcFcFcFcFcFcFcFcFcFcFcFcFcFcFcFcFcFcFcFcFcFcFcFcFcFcFcFcFcFcFcFcFcFcFcFcFcFcFcFcFcFcFcF",
"cFcFcFcFcFcFcFcFcFcFcFcFcFcFcFcFcFcFcFcFcFcFcFcFcFcFcFcFcFcFcFcFcFcFcFcFcFcFcFcFcFcFcFcFcFcFcFcFcFcFcFcFcFcFcFcFcFcFcFcFcFcFcFcFcFcFcFcFcFcFcFcFcFcFcFcFcFcFcFcFcFcFcFcFcFcFcFcFcFcFcFcFcFcFcFcFcFcFcFcFcFcFcFcFcFcFcFcFcFcFcFcFcFcFcFcFcFcFcFcFcFcFcFcFcFcFcFcFcFcFcFcFcFcFcFcFcFcFcFcFcFcFcFcFcFcFcFcFcFcFcFcFcFcFcFcFcFcFcFcFcFcFcFcFcFcFcFcFcFcFcFcFcFcFcFcFcFcFcFcFcFcFcFcFcFcFcFcFcFcFcFcFcFcFcFcFcFcFcFcFcFcFcFcFcFcFcFcFcFcFcFcFcFcFcFcFcFcFcFcFcFcFcFcFcFcFcFcFcFcFcFcFcFcFcFcFcFcFcFcFcFcFcFcFcFcFcFcFcFcFcFcFcFcFcFcF",
"cFcFcFcFcFcFcFcFcFcFcFcFcFcFcFcFcFcFcFcFcFcFcFcFcFcFcFcFcFcFcFcFcFcFcFcFcFcFcFcFcFcFcFcFcFcFcFcFcFcFcFcFcFcFcFcFcFcFcFcFcFcFcFcFcFcFcFcFcFcFcFcFcFcFcFcFcFcFcFcFcFcFcFcFcFcFcFcFcFcFcFcFcFcFcFcFcFcFcFcFcFcFcFcFcFcFcFcFcFcFcFcFcFcFcFcFcFcFcFcFcFcFcFcFcFcFcFcFcFcFcFcFcFcFcFcFcFcFcFcFcFcFcFcFcFcFcFcFcFcFcFcFcFcFcFcFcFcFcFcFcFcFcFcFcFcFcFcFcFcFcFcFcFcFcFcFcFcFcFcFcFcFcFcFcFcFcFcFcFcFcFcFcFcFcFcFcFcFcFcFcFcFcFcFcFcFcFcFcFcFcFcFcFcFcFcFcFcFcFcFcFcFcFcFcFcFcFcFcFcFcFcFcFcFcFcFcFcFcFcFcFcFcFcFcFcFcFcFcFcFcFcFcFcFcFcF",
"cFcFcFcFcFcFcFcFcFcFcFcFcFcFcFcFcFcFcFcFcFcFcFcFcFcFcFcFcFcFcFcFcFcFcFcFcFcFcFcFcFcFcFcFcFcFcFcFcFcFcFcFcFcFcFcFcFcFcFcFcFcFcFcFcFcFcFcFcFcFcFcFcFcFcFcFcFcFcFcFcFcFcFcFcFcFcFcFcFcFcFcFcFcFcFcFcFcFcFcFcFcFcFcFcFcFcFcFcFcFcFcFcFcFcFcFcFcFcFcFcFcFcFcFcFcFcFcFcFcFcFcFcFcFcFcFcFcFcFcFcFcFcFcFcFcFcFcFcFcFcFcFcFcFcFcFcFcFcFcFcFcFcFcFcFcFcFcFcFcFcFcFcFcFcFcFcFcFcFcFcFcFcFcFcFcFcFcFcFcFcFcFcFcFcFcFcFcFcFcFcFcFcFcFcFcFcFcFcFcFcFcFcFcFcFcFcFcFcFcFcFcFcFcFcFcFcFcFcFcFcFcFcFcFcFcFcFcFcFcFcFcFcFcFcFcFcFcFcFcFcFcFcFcFcFcF",
"cFcFcFcFcFcFcFcFcFcFcFcFcFcFcFcFcFcFcFcFcFcFcFcFcFcFcFcFcFcFcFcFcFcFcFcFcFcFcFcFcFcFcFcFcFcFcFcFcFcFcFcFcFcFcFcFcFcFcFcFcFcFcFcFcFcFcFcFcFcFcFcFcFcFcFcFcFcFcFcFcFcFcFcFcFcFcFcFcFcFcFcFcFcFcFcFcFcFcFcFcFcFcFcFcFcFcFcFcFcFcFcFcFcFcFcFcFcFcFcFcFcFcFcFcFcFcFcFcFcFcFcFcFcFcFcFcFcFcFcFcFcFcFcFcFcFcFcFcFcFcFcFcFcFcFcFcFcFcFcFcFcFcFcFcFcFcFcFcFcFcFcFcFcFcFcFcFcFcFcFcFcFcFcFcFcFcFcFcFcFcFcFcFcFcFcFcFcFcFcFcFcFcFcFcFcFcFcFcFcFcFcFcFcFcFcFcFcFcFcFcFcFcFcFcFcFcFcFcFcFcFcFcFcFcFcFcFcFcFcFcFcFcFcFcFcFcFcFcFcFcFcFcFcFcFcF"
};
